assets/luts/Blue_LOOK.cube
LUT_3D_SIZE 6
0.000000 0.000000 0.018062
0.198707 0.001570 0.020641
0.365541 0.002921 0.022694
0.515861 0.004137 0.024503
0.673661 0.005435 0.026382
0.859641 0.006985 0.028573
0.000000 0.214148 0.018062
0.196728 0.214159 0.018062
0.382521 0.194754 0.043318
0.526747 0.170945 0.037821
0.681865 0.162307 0.036228
0.866899 0.165957 0.037270
0.000000 0.388872 0.018062
0.159157 0.388837 0.018062
0.361983 0.388885 0.018062
0.520320 0.365919 0.030035
0.705819 0.382909 0.064079
0.892038 0.389154 0.066044
0.000000 0.543759 0.018062
0.141369 0.543781 0.018062
0.330965 0.543808 0.018062
0.510717 0.543833 0.018062
0.667089 0.526334 0.018062
0.886050 0.567254 0.059423
0.000000 0.705002 0.018062
0.134605 0.705020 0.018062
0.319538 0.704959 0.018062
0.493812 0.704980 0.018062
0.667076 0.705001 0.018062
0.851210 0.713854 0.018062
0.000000 0.893280 0.018062
0.137146 0.893309 0.018062
0.323810 0.893347 0.018062
0.498105 0.893781 0.018062
0.667174 0.896602 0.018062
0.851148 0.894125 0.018062
0.000000 0.000000 0.292447
0.196732 0.000000 0.292964
0.361969 0.000000 0.245437
0.512390 0.001294 0.224235
0.671684 0.003760 0.218577
0.858498 0.005981 0.224554
0.000000 0.214124 0.292954
0.184963 0.209193 0.313640
0.419538 0.166360 0.285700
0.576120 0.132810 0.257965
0.725959 0.116118 0.243366
0.901507 0.108741 0.236171
0.000000 0.388851 0.245429
0.102913 0.399006 0.249318
0.360035 0.393480 0.190721
0.568078 0.381662 0.203797
0.751515 0.378014 0.208847
0.929862 0.369523 0.194389
0.000000 0.543747 0.222527
0.087532 0.551039 0.233062
0.306286 0.552821 0.159763
0.510291 0.546920 0.156417
0.683054 0.530474 0.153687
0.914555 0.574183 0.193100
0.000000 0.704992 0.213749
0.084305 0.710231 0.227900
0.286896 0.712379 0.149718
0.484565 0.710242 0.149070
0.666950 0.707280 0.148256
0.859610 0.716782 0.147416
0.000000 0.893264 0.217106
0.084504 0.897080 0.226124
0.287970 0.899158 0.146915
0.479978 0.899182 0.018062
0.660618 0.900533 0.018062
0.851131 0.895011 0.120742
0.000000 0.000000 0.493079
0.158536 0.000000 0.493307
0.361991 0.000000 0.493908
0.510690 0.000000 0.457123
0.667105 0.000000 0.443474
0.851244 0.000000 0.448647
0.000000 0.166701 0.487087
0.154660 0.181083 0.582447
0.403624 0.148736 0.561717
0.562506 0.122453 0.505406
0.713184 0.106009 0.475283
0.888460 0.097119 0.467335
0.000000 0.388825 0.493960
0.099706 0.394510 0.513761
0.335127 0.374563 0.524328
0.571133 0.354521 0.515285
0.772939 0.302214 0.480551
0.956696 0.281314 0.453009
0.000000 0.543802 0.457041
0.087134 0.549870 0.467972
0.241652 0.562477 0.463376
0.501778 0.551408 0.422620
0.764377 0.555236 0.420305
1.002826 0.561215 0.408839
0.000000 0.704980 0.443374
0.084269 0.709767 0.451698
0.190047 0.723108 0.418076
0.420770 0.726687 0.329484
0.663670 0.713302 0.316227
0.888225 0.714483 0.296265
0.000000 0.893315 0.448567
0.084533 0.896845 0.453687
0.167309 0.907837 0.395850
0.381179 0.915221 0.249538
0.627432 0.911473 0.018062
0.849973 0.899686 0.268563
0.000000 0.000000 0.666096
0.139818 0.000000 0.665790
0.330969 0.000000 0.667297
0.510676 0.000000 0.667310
0.667094 0.000000 0.647795
0.851231 0.000000 0.655188
0.000000 0.149282 0.662233
0.125558 0.153406 0.769179
0.365037 0.132882 0.755630
0.548672 0.114013 0.721733
0.705565 0.102999 0.686680
0.884193 0.096179 0.680481
0.000000 0.343176 0.654940
0.082335 0.354462 0.694994
0.314795 0.356095 0.766758
0.561513 0.334757 0.768009
0.760783 0.288549 0.737468
0.950478 0.254697 0.709313
0.000000 0.543788 0.667309
0.086487 0.547785 0.679161
0.233137 0.554426 0.714818
0.466104 0.517029 0.702135
0.730430 0.510047 0.704797
0.943535 0.483846 0.669122
0.000000 0.704968 0.647762
0.084186 0.708915 0.655807
0.187660 0.719994 0.662915
0.371500 0.728214 0.649669
0.652903 0.712803 0.622250
0.969120 0.744408 0.624152
0.000000 0.893296 0.655097
0.084580 0.896562 0.660263
0.166723 0.906330 0.647683
0.261989 0.922126 0.575258
0.543051 0.927003 0.463656
0.843956 0.905524 0.468398
0.000000 0.000000 0.842621
0.132518 0.000000 0.842137
0.318674 0.000000 0.843168
0.493822 0.000000 0.844163
0.667083 0.000000 0.844184
0.851218 0.000000 0.853505
0.000000 0.142288 0.839472
0.104461 0.133065 0.934571
0.338581 0.114768 0.928757
0.525373 0.107057 0.905787
0.696514 0.099675 0.884562
0.879179 0.095034 0.882436
0.000000 0.329873 0.830789
0.078520 0.341715 0.880437
0.311039 0.347859 0.940386
0.531445 0.336783 0.949598
0.733971 0.289993 0.946916
0.941025 0.234759 0.940328
0.000000 0.516412 0.835046
0.074488 0.523262 0.854899
0.201328 0.520493 0.912005
0.462825 0.509830 0.923739
0.707641 0.504592 0.937914
0.941247 0.465600 0.934859
0.000000 0.704957 0.844097
0.084127 0.707767 0.852229
0.184260 0.715078 0.877848
0.359756 0.718270 0.913481
0.606270 0.666697 0.881508
0.919397 0.669258 0.890837
0.000000 0.893277 0.853528
0.084683 0.895961 0.858869
0.155419 0.904417 0.866009
0.215596 0.918418 0.864054
0.493120 0.922491 0.831103
0.832235 0.902110 0.803228
0.000000 0.000000 1.050065
0.134601 0.000000 1.049468
0.322052 0.000000 1.050275
0.500227 0.000000 1.052145
0.675518 0.000000 1.052158
0.851205 0.000000 1.052170
0.000000 0.144698 1.046738
0.189340 0.206575 1.044633
0.340897 0.209594 1.047632
0.510056 0.214120 1.052129
0.679465 0.214142 1.052149
0.851150 0.214171 1.052161
0.000000 0.335262 1.038481
0.181431 0.355826 1.036524
0.349506 0.376257 1.039586
0.516002 0.386799 1.050105
0.682729 0.388841 1.052142
0.851136 0.388877 1.052154
0.000000 0.511366 1.030443
0.172632 0.518622 1.027538
0.334693 0.524029 1.024645
0.492231 0.525399 1.033625
0.679714 0.543789 1.052135
0.851123 0.543812 1.052147
0.000000 0.713182 1.051533
0.195694 0.716764 1.051099
0.357179 0.716224 1.047293
0.489923 0.697247 1.031324
0.638575 0.676882 1.023752
0.852867 0.703491 1.057149
0.000000 0.893258 1.052070
0.150299 0.894271 1.055492
0.301807 0.896572 1.063080
0.505127 0.893768 1.054174
0.667038 0.893321 1.052119
0.814825 0.857661 1.016135
