assets/luts/Blue_LOOK.cube
LUT_3D_SIZE 16
0.000000 0.000000 0.018062
0.000000 0.000000 0.018062
0.131626 0.000734 0.019324
0.198707 0.001570 0.020641
0.257606 0.002068 0.021376
0.312836 0.002496 0.022049
0.365541 0.002921 0.022694
0.416670 0.003332 0.023311
0.466267 0.003735 0.023909
0.515861 0.004137 0.024503
0.566801 0.004557 0.025112
0.619005 0.004984 0.025733
0.673661 0.005435 0.026382
0.730994 0.005914 0.027062
0.792107 0.006408 0.027774
0.859641 0.006985 0.028573
0.000000 0.000000 0.018062
0.000000 0.000000 0.018062
0.131625 0.000736 0.019324
0.198707 0.001570 0.020641
0.257606 0.002068 0.021376
0.312836 0.002496 0.022049
0.365541 0.002920 0.022694
0.416670 0.003332 0.023311
0.466267 0.003735 0.023909
0.515861 0.004137 0.024503
0.566801 0.004557 0.025112
0.619005 0.004984 0.025733
0.673661 0.005435 0.026382
0.730994 0.005914 0.027062
0.792107 0.006408 0.027774
0.859641 0.006985 0.028573
0.000000 0.143102 0.018062
0.000000 0.143102 0.018062
0.130662 0.143110 0.018062
0.205260 0.127049 0.028962
0.266951 0.114505 0.033055
0.319160 0.100024 0.029944
0.370168 0.089063 0.028431
0.420267 0.080140 0.027776
0.469191 0.072327 0.027543
0.518324 0.065750 0.027565
0.568946 0.060908 0.027786
0.621040 0.057424 0.028151
0.675630 0.055744 0.028656
0.732756 0.055715 0.029274
0.794105 0.057640 0.030031
0.861774 0.062008 0.030975
0.000000 0.214148 0.018062
0.000000 0.214148 0.018062
0.107735 0.214139 0.018062
0.196728 0.214159 0.018062
0.255369 0.196394 0.018506
0.325804 0.199868 0.038086
0.382521 0.194754 0.043318
0.431699 0.185695 0.041649
0.479021 0.177340 0.039420
0.526747 0.170945 0.037821
0.576457 0.166587 0.036872
0.627851 0.163679 0.036369
0.681865 0.162307 0.036228
0.738612 0.162084 0.036345
0.799473 0.163175 0.036688
0.866899 0.165957 0.037270
0.000000 0.276201 0.018062
0.000000 0.276201 0.018062
0.093130 0.276213 0.018062
0.179761 0.276224 0.018062
0.255035 0.276233 0.018062
0.309672 0.260716 0.018062
0.370611 0.257790 0.028924
0.434577 0.262050 0.045082
0.488407 0.259021 0.050522
0.537459 0.252919 0.050461
0.586557 0.247304 0.048819
0.637044 0.243017 0.047188
0.690148 0.240516 0.045979
0.746183 0.239449 0.045180
0.806353 0.240065 0.044792
0.873322 0.242803 0.044801
0.000000 0.333915 0.018062
0.000000 0.333915 0.018062
0.082289 0.333921 0.018062
0.168067 0.333927 0.018062
0.240423 0.333932 0.018062
0.309668 0.333941 0.018062
0.361993 0.319861 0.018062
0.414197 0.310388 0.020184
0.478527 0.316441 0.038861
0.538551 0.320126 0.051726
0.593820 0.319870 0.057199
0.646602 0.317434 0.058384
0.700239 0.315021 0.057618
0.755909 0.313536 0.056399
0.815538 0.313733 0.055347
0.881922 0.316334 0.054696
0.000000 0.388872 0.018062
0.000000 0.388872 0.018062
0.073470 0.388890 0.018062
0.159157 0.388837 0.018062
0.229396 0.388853 0.018062
0.296333 0.388870 0.018062
0.361983 0.388885 0.018062
0.412489 0.375697 0.018062
0.461684 0.364898 0.018062
0.520320 0.365919 0.030035
0.585384 0.374700 0.047423
0.646698 0.380148 0.058481
0.705819 0.382909 0.064079
0.764441 0.384304 0.066240
0.825293 0.385804 0.066456
0.892038 0.389154 0.066044
0.000000 0.441692 0.018062
0.000000 0.441692 0.018062
0.065877 0.441701 0.018062
0.152057 0.441712 0.018062
0.220717 0.441720 0.018062
0.285743 0.441727 0.018062
0.349496 0.441735 0.018062
0.412573 0.441742 0.018062
0.461679 0.429132 0.018062
0.510680 0.419429 0.018062
0.564545 0.416053 0.022372
0.631017 0.425940 0.040147
0.698256 0.436691 0.055528
0.763962 0.444895 0.065662
0.829880 0.451538 0.071561
0.899544 0.458718 0.074775
0.000000 0.492917 0.018062
0.000000 0.492917 0.018062
0.058949 0.492883 0.018062
0.146075 0.492901 0.018062
0.213490 0.492914 0.018062
0.276966 0.492926 0.018062
0.338997 0.492937 0.018062
0.400500 0.492924 0.018062
0.461673 0.492936 0.018062
0.510723 0.481900 0.018062
0.561158 0.474174 0.018062
0.613110 0.469038 0.018367
0.678325 0.477305 0.032012
0.750057 0.491582 0.049748
0.822917 0.505378 0.063800
0.898701 0.518993 0.073723
0.000000 0.543759 0.018062
0.000000 0.543759 0.018062
0.052978 0.543769 0.018062
0.141369 0.543781 0.018062
0.207807 0.543791 0.018062
0.270159 0.543800 0.018062
0.330965 0.543808 0.018062
0.391136 0.543817 0.018062
0.451077 0.543825 0.018062
0.510717 0.543833 0.018062
0.561154 0.535298 0.018062
0.612961 0.529362 0.018062
0.667089 0.526334 0.018062
0.729105 0.530868 0.024812
0.804458 0.547225 0.042391
0.886050 0.567254 0.059423
0.000000 0.595979 0.018062
0.000000 0.595979 0.018062
0.048423 0.595970 0.018062
0.138070 0.595976 0.018062
0.203868 0.595981 0.018062
0.265409 0.595985 0.018062
0.325397 0.595990 0.018062
0.384688 0.595994 0.018062
0.443692 0.596006 0.018062
0.502439 0.596010 0.018062
0.561150 0.596014 0.018062
0.612958 0.589467 0.018062
0.667085 0.586088 0.018062
0.723758 0.585225 0.018062
0.785634 0.588702 0.019811
0.864748 0.606794 0.034754
0.000000 0.649370 0.018062
0.000000 0.649370 0.018062
0.044984 0.649375 0.018062
0.135784 0.649386 0.018062
0.201163 0.649366 0.018062
0.262150 0.649373 0.018062
0.321527 0.649379 0.018062
0.380212 0.649386 0.018062
0.438610 0.649392 0.018062
0.496736 0.649399 0.018062
0.554811 0.649405 0.018062
0.612955 0.649412 0.018062
0.667080 0.645754 0.018062
0.723747 0.644784 0.018062
0.784273 0.647175 0.018062
0.851216 0.653793 0.018062
0.000000 0.705002 0.018062
0.000000 0.705002 0.018062
0.043098 0.705008 0.018062
0.134605 0.705020 0.018062
0.199740 0.705028 0.018062
0.260458 0.704999 0.018062
0.319538 0.704959 0.018062
0.377993 0.704966 0.018062
0.435917 0.704973 0.018062
0.493812 0.704980 0.018062
0.551565 0.704987 0.018062
0.609383 0.704994 0.018062
0.667076 0.705001 0.018062
0.723737 0.704088 0.018062
0.784269 0.706483 0.018062
0.851210 0.713854 0.018062
0.000000 0.763197 0.018062
0.000000 0.763197 0.018062
0.042599 0.763203 0.018062
0.134302 0.763214 0.018062
0.199379 0.763222 0.018062
0.260047 0.763230 0.018062
0.319079 0.763237 0.018062
0.377345 0.763244 0.018062
0.435316 0.763253 0.018062
0.493069 0.763260 0.018062
0.550770 0.763266 0.018062
0.608476 0.763273 0.018062
0.666022 0.763280 0.018062
0.723726 0.763287 0.018062
0.784263 0.766042 0.018062
0.851204 0.773782 0.018062
0.000000 0.825131 0.018062
0.000000 0.825131 0.018062
0.043776 0.825100 0.018062
0.135026 0.825113 0.018062
0.200260 0.825121 0.018062
0.261078 0.825130 0.018062
0.320323 0.825137 0.018062
0.378733 0.825145 0.018062
0.436941 0.825152 0.018062
0.494915 0.825160 0.018062
0.552780 0.825167 0.018062
0.610655 0.825174 0.018062
0.668469 0.825135 0.018062
0.726287 0.825259 0.018062
0.784279 0.825602 0.018062
0.853127 0.834429 0.018062
0.000000 0.893280 0.018062
0.000000 0.893280 0.018062
0.047017 0.893290 0.018062
0.137146 0.893309 0.018062
0.202756 0.893323 0.018062
0.264107 0.893335 0.018062
0.323810 0.893347 0.018062
0.382887 0.893359 0.018062
0.441615 0.893370 0.018062
0.498105 0.893781 0.018062
0.552698 0.894926 0.018062
0.608730 0.895878 0.018062
0.667174 0.896602 0.018062
0.728036 0.896621 0.018062
0.790093 0.895632 0.018062
0.851148 0.894125 0.018062
0.000000 0.000000 0.018062
0.000000 0.000000 0.018062
0.131625 0.000734 0.019326
0.198707 0.001570 0.020641
0.257606 0.002068 0.021376
0.312836 0.002496 0.022049
0.365541 0.002921 0.022694
0.416670 0.003332 0.023311
0.466267 0.003735 0.023909
0.515861 0.004137 0.024503
0.566801 0.004557 0.025112
0.619005 0.004984 0.025733
0.673661 0.005435 0.026382
0.730994 0.005914 0.027062
0.792107 0.006408 0.027774
0.859641 0.006985 0.028573
0.000000 0.000000 0.018062
0.000000 0.000000 0.018062
0.131625 0.000735 0.019325
0.198706 0.001570 0.020642
0.257606 0.002068 0.021376
0.312836 0.002496 0.022049
0.365541 0.002920 0.022694
0.416670 0.003332 0.023311
0.466267 0.003735 0.023909
0.515862 0.004137 0.024502
0.566801 0.004557 0.025112
0.619005 0.004984 0.025733
0.673661 0.005435 0.026382
0.730994 0.005914 0.027062
0.792107 0.006408 0.027774
0.859641 0.006985 0.028573
0.000000 0.143102 0.018062
0.000000 0.143102 0.018062
0.130661 0.143110 0.018062
0.203339 0.134049 0.026563
0.269112 0.132317 0.035700
0.322049 0.123859 0.033534
0.372944 0.117297 0.031839
0.422817 0.112347 0.030949
0.471646 0.108487 0.030543
0.520702 0.105608 0.030456
0.571274 0.103772 0.030600
0.623269 0.102691 0.030895
0.677730 0.102375 0.031308
0.734959 0.102683 0.031829
0.796105 0.103688 0.032449
0.863503 0.105704 0.033208
0.000000 0.214148 0.018062
0.000000 0.214148 0.018062
0.115995 0.214141 0.018062
0.196728 0.214159 0.018062
0.255039 0.200321 0.018062
0.324281 0.205463 0.036235
0.383066 0.204555 0.043941
0.433384 0.198259 0.043629
0.480871 0.191536 0.041672
0.528614 0.186145 0.040028
0.578220 0.182517 0.038937
0.629390 0.180104 0.038276
0.683366 0.178922 0.037980
0.739997 0.178717 0.037949
0.800850 0.179591 0.038155
0.868019 0.181867 0.038601
0.000000 0.276201 0.018062
0.000000 0.276201 0.018062
0.107400 0.276215 0.018062
0.183786 0.276224 0.018062
0.255035 0.276233 0.018062
0.309672 0.263369 0.018062
0.368997 0.260625 0.026961
0.433557 0.266759 0.043868
0.488580 0.265940 0.050676
0.538467 0.261517 0.051605
0.587869 0.256824 0.050326
0.638415 0.253019 0.048769
0.691402 0.250714 0.047508
0.747390 0.249722 0.046611
0.807485 0.250217 0.046101
0.874328 0.252649 0.045981
0.000000 0.333915 0.018062
0.000000 0.333915 0.018062
0.101293 0.333922 0.018062
0.174757 0.333927 0.018062
0.242904 0.333932 0.018062
0.309668 0.333941 0.018062
0.361992 0.321702 0.018062
0.413499 0.312775 0.019367
0.477266 0.319093 0.037260
0.537867 0.324198 0.050882
0.593827 0.325148 0.057209
0.647287 0.323691 0.059052
0.700967 0.321819 0.058631
0.756803 0.320575 0.057526
0.816470 0.320814 0.056470
0.882829 0.323347 0.055751
0.000000 0.388872 0.018062
0.000000 0.388872 0.018062
0.096581 0.388823 0.018062
0.167790 0.388839 0.018062
0.233628 0.388854 0.018062
0.298063 0.388871 0.018062
0.361983 0.388885 0.018062
0.412488 0.376997 0.018062
0.461684 0.367182 0.018062
0.519280 0.367913 0.028738
0.584334 0.377157 0.046240
0.646239 0.383471 0.057874
0.705733 0.387047 0.064048
0.764928 0.388968 0.066646
0.825971 0.390773 0.067142
0.892564 0.394325 0.066837
0.000000 0.441692 0.018062
0.000000 0.441692 0.018062
0.092765 0.441704 0.018062
0.162178 0.441713 0.018062
0.226140 0.441720 0.018062
0.288646 0.441728 0.018062
0.350625 0.441735 0.018062
0.412573 0.441742 0.018062
0.461679 0.430162 0.018062
0.510680 0.421088 0.018062
0.563944 0.417684 0.021623
0.630061 0.427637 0.039004
0.697655 0.438868 0.054650
0.763617 0.447682 0.065219
0.829804 0.454785 0.071514
0.899903 0.462225 0.075015
0.000000 0.492917 0.018062
0.000000 0.492917 0.018062
0.089518 0.492890 0.018062
0.157452 0.492903 0.018062
0.219831 0.492915 0.018062
0.280766 0.492926 0.018062
0.341262 0.492938 0.018062
0.401437 0.492924 0.018062
0.461673 0.492936 0.018062
0.510723 0.482647 0.018062
0.561158 0.475584 0.018062
0.613060 0.470763 0.018214
0.677574 0.478793 0.031101
0.749323 0.493192 0.048842
0.822435 0.507307 0.063163
0.898481 0.521231 0.073412
0.000000 0.543759 0.018062
0.000000 0.543759 0.018062
0.086955 0.543774 0.018062
0.153793 0.543783 0.018062
0.214935 0.543792 0.018062
0.274646 0.543801 0.018062
0.333833 0.543809 0.018062
0.392743 0.543817 0.018062
0.451825 0.543825 0.018062
0.510718 0.543833 0.018062
0.561154 0.535878 0.018062
0.612961 0.530402 0.018062
0.667089 0.527753 0.018062
0.728725 0.532090 0.024203
0.803686 0.548381 0.041597
0.885465 0.568653 0.058745
0.000000 0.595979 0.018062
0.000000 0.595979 0.018062
0.085180 0.595972 0.018062
0.151232 0.595977 0.018062
0.211565 0.595981 0.018062
0.270415 0.595986 0.018062
0.328758 0.595990 0.018062
0.386815 0.595994 0.018062
0.444956 0.596006 0.018062
0.503064 0.596010 0.018062
0.561150 0.596014 0.018062
0.612958 0.589908 0.018062
0.667084 0.586964 0.018062
0.723757 0.586401 0.018062
0.785415 0.589837 0.019541
0.864357 0.607768 0.034126
0.000000 0.649370 0.018062
0.000000 0.649370 0.018062
0.083961 0.649380 0.018062
0.149488 0.649387 0.018062
0.209208 0.649367 0.018062
0.267504 0.649373 0.018062
0.325206 0.649380 0.018062
0.382776 0.649386 0.018062
0.440302 0.649392 0.018062
0.497763 0.649399 0.018062
0.555297 0.649405 0.018062
0.612955 0.649412 0.018062
0.667080 0.646129 0.018062
0.723747 0.645459 0.018062
0.784273 0.648058 0.018062
0.851215 0.654920 0.018062
0.000000 0.705002 0.018062
0.000000 0.705002 0.018062
0.083349 0.705013 0.018062
0.148621 0.705021 0.018062
0.208092 0.705029 0.018062
0.266063 0.705000 0.018062
0.323478 0.704959 0.018062
0.380759 0.704966 0.018062
0.438012 0.704973 0.018062
0.495191 0.704980 0.018062
0.552466 0.704987 0.018062
0.609728 0.704994 0.018062
0.667076 0.705001 0.018062
0.723737 0.704356 0.018062
0.784268 0.707235 0.018062
0.851210 0.714500 0.018062
0.000000 0.763197 0.018062
0.000000 0.763197 0.018062
0.083244 0.763208 0.018062
0.148460 0.763216 0.018062
0.207884 0.763223 0.018062
0.265815 0.763230 0.018062
0.323228 0.763237 0.018062
0.380314 0.763244 0.018062
0.437565 0.763253 0.018062
0.494743 0.763260 0.018062
0.551865 0.763267 0.018062
0.609182 0.763273 0.018062
0.666353 0.763280 0.018062
0.723726 0.763287 0.018062
0.784263 0.766279 0.018062
0.851204 0.774230 0.018062
0.000000 0.825131 0.018062
0.000000 0.825131 0.018062
0.083696 0.825106 0.018062
0.149107 0.825115 0.018062
0.208748 0.825122 0.018062
0.266892 0.825130 0.018062
0.324500 0.825137 0.018062
0.381903 0.825145 0.018062
0.439365 0.825152 0.018062
0.496675 0.825160 0.018062
0.554125 0.825167 0.018062
0.611629 0.825174 0.018062
0.669119 0.825135 0.018062
0.726547 0.825260 0.018062
0.784270 0.825630 0.018062
0.853170 0.834794 0.018062
0.000000 0.893280 0.018062
0.000000 0.893279 0.018062
0.084939 0.893298 0.018062
0.150871 0.893312 0.018062
0.211130 0.893324 0.018062
0.269850 0.893336 0.018062
0.328062 0.893348 0.018062
0.386147 0.893359 0.018062
0.444081 0.893371 0.018062
0.499872 0.893739 0.018062
0.554115 0.894947 0.018062
0.609739 0.895864 0.018062
0.667861 0.896581 0.018062
0.728510 0.896562 0.018062
0.790412 0.895680 0.018062
0.851136 0.894108 0.018062
0.000000 0.000000 0.208314
0.000000 0.000000 0.208314
0.130663 0.000000 0.208603
0.196742 0.000000 0.178501
0.255044 0.000000 0.159039
0.310784 0.000900 0.145549
0.364414 0.001990 0.134940
0.416065 0.002844 0.125498
0.466078 0.003544 0.116700
0.515841 0.004127 0.108970
0.566938 0.004661 0.103113
0.619272 0.005163 0.098780
0.673947 0.005589 0.096615
0.731289 0.006081 0.096524
0.792247 0.006582 0.098907
0.859706 0.007162 0.104370
0.000000 0.000000 0.208314
0.000000 0.000000 0.208314
0.130663 0.000000 0.208602
0.196740 0.000000 0.189410
0.255043 0.000000 0.178068
0.309907 0.000378 0.170185
0.363263 0.001072 0.165040
0.414977 0.001930 0.161095
0.464987 0.002703 0.157772
0.514948 0.003384 0.155187
0.566127 0.003998 0.153633
0.618601 0.004609 0.152691
0.673433 0.005204 0.152614
0.730872 0.005781 0.153175
0.792042 0.006378 0.154557
0.859687 0.007035 0.157018
0.000000 0.143096 0.208600
0.000000 0.143096 0.208600
0.123621 0.140588 0.223871
0.223164 0.126517 0.214885
0.295421 0.106253 0.199957
0.353539 0.093320 0.189042
0.405180 0.084948 0.181613
0.453614 0.079364 0.176553
0.500365 0.075755 0.173171
0.547086 0.073460 0.170857
0.595388 0.072016 0.169312
0.645222 0.071209 0.168321
0.697735 0.070886 0.167724
0.753100 0.070900 0.167480
0.812289 0.071203 0.167481
0.878090 0.071769 0.167714
0.000000 0.214134 0.178468
0.000000 0.214133 0.189394
0.081248 0.221426 0.191324
0.193937 0.217345 0.167887
0.286338 0.208840 0.166829
0.366713 0.207421 0.171582
0.420720 0.190550 0.159092
0.469441 0.176129 0.148511
0.516093 0.164806 0.140665
0.562248 0.156227 0.134897
0.609754 0.150089 0.130651
0.658797 0.145771 0.127641
0.710453 0.143120 0.125575
0.764901 0.141816 0.124235
0.823439 0.141867 0.123483
0.888518 0.143520 0.123262
0.000000 0.276194 0.159012
0.000000 0.276193 0.178025
0.065465 0.282895 0.175668
0.160514 0.284155 0.136607
0.254014 0.279213 0.131777
0.323317 0.266224 0.129050
0.399090 0.269838 0.142189
0.465282 0.270491 0.150719
0.518198 0.262618 0.149225
0.565988 0.253044 0.144563
0.614107 0.245146 0.140119
0.663319 0.239160 0.136536
0.714909 0.235205 0.133873
0.769584 0.232891 0.132021
0.828269 0.232307 0.130835
0.893375 0.233768 0.130256
0.000000 0.333911 0.144336
0.000000 0.333920 0.169934
0.059520 0.339468 0.169092
0.141311 0.341795 0.121732
0.232419 0.339296 0.119929
0.309207 0.336380 0.117822
0.370522 0.324705 0.116870
0.431023 0.318276 0.120016
0.501153 0.325979 0.137185
0.562222 0.327747 0.146227
0.617015 0.324893 0.148318
0.668851 0.320088 0.146953
0.721484 0.315799 0.144593
0.776200 0.312795 0.142339
0.834571 0.311744 0.140622
0.899596 0.313094 0.139481
0.000000 0.388861 0.132233
0.000000 0.388859 0.163649
0.057039 0.393468 0.165889
0.129198 0.395854 0.114392
0.217763 0.394534 0.113665
0.292233 0.392847 0.112776
0.361733 0.390852 0.111795
0.418363 0.379739 0.111415
0.471917 0.369799 0.110897
0.536486 0.373834 0.123765
0.603715 0.382474 0.139074
0.665597 0.386579 0.147840
0.724197 0.387722 0.151552
0.782113 0.387353 0.152221
0.842067 0.387327 0.151464
0.907598 0.389331 0.150485
0.000000 0.441688 0.121637
0.000000 0.441686 0.158481
0.055980 0.445660 0.164102
0.120748 0.447809 0.110612
0.207135 0.446980 0.110314
0.279412 0.445951 0.109920
0.347002 0.444821 0.109473
0.412366 0.443420 0.109009
0.466087 0.432611 0.108847
0.518319 0.423743 0.108602
0.575869 0.421905 0.113458
0.645118 0.432815 0.130129
0.713514 0.443035 0.143876
0.779218 0.450215 0.152511
0.844699 0.455607 0.157251
0.913805 0.461385 0.159584
0.000000 0.492911 0.111874
0.000000 0.492907 0.154120
0.055583 0.496338 0.163100
0.114348 0.498238 0.108643
0.198890 0.497776 0.108511
0.269324 0.497095 0.108341
0.335265 0.496362 0.108133
0.399027 0.495310 0.107918
0.461649 0.494415 0.107694
0.513938 0.484762 0.107622
0.566948 0.477851 0.107494
0.621163 0.473433 0.107900
0.689061 0.482891 0.121251
0.762352 0.497377 0.137695
0.835671 0.510572 0.150512
0.911114 0.523248 0.159443
0.000000 0.543754 0.103335
0.000000 0.543752 0.150688
0.055545 0.546753 0.162490
0.109654 0.548601 0.107595
0.192750 0.548290 0.107542
0.261682 0.547773 0.107481
0.326192 0.547202 0.107398
0.388678 0.546678 0.107304
0.450126 0.545878 0.107216
0.510687 0.545120 0.107145
0.563682 0.537643 0.107118
0.617473 0.532433 0.107077
0.673087 0.529767 0.107064
0.737448 0.535279 0.113945
0.813999 0.552092 0.130448
0.896329 0.571934 0.146374
0.000000 0.595977 0.096736
0.000000 0.595975 0.148266
0.055745 0.598570 0.162122
0.106515 0.600174 0.107112
0.188567 0.599991 0.107099
0.256395 0.599671 0.107076
0.319912 0.599282 0.107065
0.381513 0.598818 0.107052
0.442019 0.598259 0.107037
0.501749 0.597692 0.107034
0.561094 0.597066 0.107048
0.614990 0.591554 0.107067
0.670639 0.588735 0.107093
0.728753 0.588212 0.107162
0.791960 0.592050 0.109187
0.872417 0.610733 0.123420
0.000000 0.649367 0.091743
0.000000 0.649364 0.146632
0.056105 0.651676 0.161940
0.104501 0.653063 0.106996
0.185754 0.652994 0.107008
0.252786 0.652721 0.107018
0.315545 0.652481 0.107034
0.376414 0.652085 0.107063
0.436333 0.651741 0.107084
0.495533 0.651370 0.107122
0.554303 0.650817 0.107173
0.612869 0.650333 0.107246
0.668652 0.647522 0.107314
0.726759 0.647119 0.107418
0.788183 0.649643 0.107587
0.855793 0.656284 0.107825
0.000000 0.704998 0.088968
0.000000 0.704996 0.145799
0.056623 0.706998 0.161899
0.103609 0.708420 0.107159
0.184267 0.708240 0.107170
0.250844 0.708079 0.107191
0.313237 0.707853 0.107234
0.373736 0.707728 0.107270
0.433323 0.707360 0.107333
0.492206 0.707070 0.107393
0.550689 0.706652 0.107469
0.609054 0.706163 0.107570
0.667039 0.705958 0.107682
0.725201 0.705550 0.107815
0.786759 0.708390 0.108010
0.854398 0.715785 0.108295
0.000000 0.763194 0.088238
0.000000 0.763191 0.145642
0.057282 0.764956 0.162003
0.103659 0.766203 0.107536
0.183894 0.766163 0.107562
0.250239 0.766107 0.107593
0.312381 0.765938 0.107645
0.372817 0.765779 0.107698
0.432235 0.765486 0.107760
0.491030 0.765309 0.107842
0.549482 0.764901 0.107943
0.607765 0.764722 0.108065
0.665707 0.764222 0.108187
0.723778 0.764132 0.108329
0.785413 0.767350 0.108559
0.853420 0.775561 0.090560
0.000000 0.825127 0.089984
0.000000 0.825124 0.146266
0.058103 0.826634 0.162172
0.104668 0.827813 0.108126
0.184721 0.827749 0.108149
0.251125 0.827624 0.108191
0.313403 0.827426 0.108242
0.373861 0.827348 0.108304
0.433492 0.827264 0.108390
0.492539 0.826947 0.108472
0.551202 0.826851 0.108585
0.609681 0.826661 0.108713
0.667826 0.826521 0.101683
0.725898 0.826527 0.018062
0.784247 0.826632 0.018062
0.854456 0.835722 0.018062
0.000000 0.893274 0.094752
0.000000 0.893269 0.147951
0.059120 0.894702 0.162496
0.107031 0.895692 0.108937
0.187128 0.895607 0.108972
0.253933 0.895598 0.109019
0.316743 0.895467 0.109078
0.377746 0.895341 0.109132
0.437285 0.895352 0.097336
0.492658 0.896138 0.018062
0.547782 0.897179 0.018062
0.605266 0.898127 0.018062
0.665277 0.898387 0.018062
0.727535 0.897657 0.018062
0.790559 0.895900 0.018062
0.851137 0.894276 0.018062
0.000000 0.000000 0.292447
0.000000 0.000000 0.292447
0.107662 0.000000 0.292884
0.196732 0.000000 0.292964
0.255040 0.000000 0.271673
0.309678 0.000000 0.256807
0.361969 0.000000 0.245437
0.412465 0.000000 0.236303
0.462228 0.000560 0.229159
0.512390 0.001294 0.224235
0.563880 0.002141 0.221090
0.616672 0.002972 0.219192
0.671684 0.003760 0.218577
0.729253 0.004513 0.219128
0.790800 0.005244 0.220944
0.858498 0.005981 0.224554
0.000000 0.000000 0.292447
0.000000 0.000000 0.292446
0.115986 0.000000 0.292947
0.196732 0.000000 0.292964
0.255040 0.000000 0.276758
0.309678 0.000000 0.265253
0.361968 0.000000 0.256445
0.412464 0.000000 0.249324
0.461887 0.000331 0.243409
0.511716 0.000714 0.239526
0.563164 0.001543 0.237314
0.615962 0.002391 0.236151
0.671192 0.003206 0.236062
0.728822 0.003993 0.236810
0.790187 0.004763 0.238548
0.857980 0.005558 0.241805
0.000000 0.112822 0.287642
0.000000 0.121565 0.287408
0.112202 0.129675 0.338834
0.218703 0.116998 0.337070
0.290351 0.100958 0.315333
0.348009 0.088623 0.296012
0.399056 0.079816 0.280863
0.447098 0.073714 0.269349
0.493718 0.069839 0.260648
0.541186 0.068156 0.255142
0.590337 0.067498 0.251651
0.641005 0.067379 0.249449
0.694107 0.067596 0.248309
0.750069 0.068064 0.248018
0.809754 0.068727 0.248621
0.875773 0.069576 0.250339
0.000000 0.214124 0.292954
0.000000 0.214124 0.292954
0.078261 0.218285 0.310962
0.184963 0.209193 0.313640
0.278626 0.201197 0.309421
0.354346 0.184762 0.298824
0.419538 0.166360 0.285700
0.475639 0.151793 0.273878
0.527107 0.141233 0.265111
0.576120 0.132810 0.257965
0.625030 0.125916 0.252031
0.674602 0.120407 0.247214
0.725959 0.116118 0.243366
0.779936 0.112852 0.240313
0.837559 0.110437 0.237965
0.901507 0.108741 0.236171
0.000000 0.276188 0.271614
0.000000 0.276201 0.276723
0.064698 0.281646 0.284998
0.144099 0.285392 0.286831
0.249475 0.279183 0.276221
0.347283 0.276766 0.278097
0.433966 0.272134 0.276513
0.494460 0.249845 0.257393
0.548120 0.229642 0.240590
0.598757 0.212569 0.226339
0.648433 0.198650 0.213981
0.698152 0.187349 0.203491
0.749167 0.178724 0.194666
0.802155 0.172487 0.187398
0.858705 0.168720 0.181544
0.921659 0.167726 0.176878
0.000000 0.333917 0.256750
0.000000 0.333917 0.265216
0.059278 0.338865 0.270329
0.117305 0.344808 0.262916
0.204025 0.346159 0.231405
0.306143 0.338805 0.222129
0.383070 0.324887 0.215914
0.467941 0.330061 0.228259
0.540413 0.330276 0.234570
0.597117 0.320079 0.228806
0.648395 0.307931 0.219184
0.698685 0.297213 0.209770
0.750256 0.288955 0.201549
0.804131 0.283008 0.194637
0.861465 0.279555 0.189049
0.924860 0.278958 0.184500
0.000000 0.388851 0.245429
0.000000 0.388850 0.256432
0.056952 0.393130 0.260961
0.102913 0.399006 0.249318
0.169920 0.403166 0.200698
0.275957 0.398750 0.196050
0.360035 0.393480 0.190721
0.427598 0.381193 0.187794
0.491551 0.372643 0.187573
0.568078 0.381662 0.203797
0.635988 0.385304 0.212061
0.695601 0.382779 0.212524
0.751515 0.378014 0.208847
0.807391 0.373077 0.203724
0.865821 0.369946 0.198714
0.929862 0.369523 0.194389
0.000000 0.441682 0.236253
0.000000 0.441681 0.249266
0.055951 0.445483 0.254229
0.094896 0.450877 0.241270
0.146481 0.455561 0.181498
0.254073 0.452880 0.179079
0.337091 0.449545 0.176223
0.411371 0.445767 0.173064
