assets/luts/Blue&Pink.cube
TITLE "Generated by Resolve"
LUT_3D_SIZE 33
0.0322423 0.0509499 0.0484016
0.0355993 0.0505379 0.048188
0.0395972 0.0502022 0.0480812
0.0444648 0.0496071 0.0477302
0.0502327 0.0492561 0.0477455
0.0561532 0.0488899 0.0475929
0.062562 0.0486 0.0475471
0.0700084 0.0483101 0.0475166
0.0797742 0.0480812 0.0476234
0.0930495 0.0484779 0.0479286
0.111604 0.049836 0.0487068
0.137072 0.0523995 0.0506447
0.172763 0.0564584 0.0537728
0.224857 0.0624399 0.0588846
0.296941 0.0708171 0.0659037
0.382269 0.0854505 0.0752117
0.474968 0.104204 0.0902113
0.574578 0.126452 0.108949
0.668589 0.147539 0.128893
0.7449 0.164981 0.144564
0.801678 0.178012 0.156268
0.842466 0.187381 0.164614
0.874296 0.19501 0.171359
0.900206 0.200931 0.176715
0.922545 0.205966 0.181277
0.944015 0.210819 0.185702
0.955978 0.21355 0.18819
0.959594 0.214359 0.188937
0.959594 0.214359 0.188937
0.959594 0.214359 0.188937
0.959594 0.214359 0.188937
0.959594 0.214359 0.188937
0.959594 0.214359 0.188937
0.0306859 0.0525521 0.0474556
0.0342718 0.0521706 0.0474098
0.0381323 0.0517739 0.0472725
0.0429389 0.0513771 0.0471199
0.049134 0.0510872 0.0473335
0.0553597 0.0507362 0.047303
0.0618601 0.0503853 0.0471199
0.0693065 0.0500801 0.0471199
0.0788891 0.0498817 0.0472725
0.0917067 0.0498665 0.0476692
0.109987 0.0505074 0.0486458
0.135454 0.0523995 0.0505074
0.170535 0.0562142 0.0535286
0.221866 0.0621347 0.0585794
0.293706 0.0703899 0.0655985
0.37911 0.0848707 0.0747539
0.471839 0.103517 0.089662
0.572076 0.125887 0.108461
0.666651 0.147097 0.128496
0.743908 0.164752 0.144366
0.801389 0.177951 0.156207
0.842344 0.187366 0.164584
0.874418 0.195026 0.171374
0.900343 0.200961 0.17673
0.922759 0.206012 0.181308
0.944381 0.21091 0.185779
0.957626 0.213916 0.18854
0.959594 0.214359 0.188937
0.959594 0.214359 0.188937
0.959594 0.214359 0.188937
0.959594 0.214359 0.188937
0.959594 0.214359 0.188937
0.959594 0.214359 0.188937
0.0290227 0.0545968 0.0465705
0.0324559 0.0541848 0.0465095
0.0364843 0.0537423 0.0464332
0.0412299 0.0533455 0.0463417
0.0474098 0.0529793 0.046479
0.054551 0.0528725 0.0470741
0.061265 0.0524453 0.0466926
0.0688792 0.0521248 0.0466926
0.0785229 0.0518654 0.0468452
0.0912642 0.0517739 0.0472572
0.109422 0.0522011 0.0482948
0.134707 0.0535439 0.0503395
0.170169 0.0566262 0.0535897
0.2215 0.062089 0.0585489
0.29427 0.0704662 0.0656596
0.380392 0.0850996 0.0749371
0.473854 0.10396 0.090013
0.574762 0.126482 0.10898
0.669429 0.147723 0.129061
0.74641 0.165316 0.144869
0.803662 0.17847 0.15668
0.84448 0.187839 0.165026
0.876265 0.195453 0.171756
0.901991 0.201328 0.177066
0.924498 0.206409 0.181674
0.945296 0.211124 0.185992
0.958709 0.21416 0.188769
0.959594 0.214359 0.188937
0.959594 0.214359 0.188937
0.959594 0.214359 0.188937
0.959594 0.214359 0.188937
0.959594 0.214359 0.188937
0.959594 0.214359 0.188937
0.0281682 0.0563668 0.0456245
0.0313115 0.0560769 0.0457618
0.0353552 0.0557107 0.0458686
0.0395361 0.0555734 0.045594
0.0455329 0.0551766 0.0455787
0.0531624 0.0552529 0.046479
0.060441 0.0548867 0.0463417
0.0683146 0.0545052 0.0461891
0.0780499 0.0541848 0.0463264
0.0910048 0.0540932 0.0467536
0.109087 0.0544137 0.0478981
0.134524 0.0555581 0.049958
0.170199 0.0581369 0.0532998
0.222492 0.0628672 0.0586099
0.295888 0.0706798 0.0657969
0.383032 0.0856031 0.0753338
0.477531 0.104753 0.0906691
0.579171 0.127474 0.10985
0.673869 0.14873 0.129961
0.750195 0.166186 0.145647
0.806882 0.179202 0.157336
0.847532 0.18854 0.165652
0.878782 0.196017 0.172274
0.904234 0.201846 0.177523
0.926833 0.206928 0.182147
0.945907 0.211261 0.186114
0.959594 0.214359 0.188937
0.959594 0.214359 0.188937
0.959594 0.214359 0.188937
0.959594 0.214359 0.188937
0.959594 0.214359 0.188937
0.959594 0.214359 0.188937
0.959594 0.214359 0.188937
0.027985 0.0584878 0.0444343
0.0296941 0.0582284 0.0444953
0.0339055 0.0579385 0.0449226
0.038529 0.0576944 0.0450294
0.0434119 0.0576944 0.0446174
0.0514076 0.0580148 0.0456855
0.0593271 0.0577707 0.0458686
0.0674601 0.0573434 0.045594
0.0773175 0.0569314 0.0456245
0.0903029 0.056672 0.0460822
0.108476 0.0569314 0.047364
0.134173 0.0580911 0.0495003
0.170321 0.0604562 0.0528878
0.22327 0.0648661 0.0583352
0.298222 0.0722362 0.0659037
0.386221 0.0862287 0.0758679
0.481575 0.105684 0.091371
0.5841 0.128588 0.110826
0.678828 0.149859 0.130968
0.754452 0.167163 0.146517
0.810376 0.179995 0.158053
0.850416 0.189532 0.166384
0.88159 0.196658 0.172839
0.906752 0.202396 0.178027
0.929397 0.207523 0.182696
0.947662 0.211658 0.186481
0.959594 0.214359 0.188937
0.959594 0.214359 0.188937
0.959594 0.214359 0.188937
0.959594 0.214359 0.188937
0.959594 0.214359 0.188937
0.959594 0.214359 0.188937
0.959594 0.214359 0.188937
0.028397 0.0611276 0.0436255
0.0289616 0.0609903 0.0436561
0.0314794 0.0610971 0.0435035
0.0362249 0.0608682 0.0438239
0.0413367 0.0609751 0.0437018
0.0488594 0.0612497 0.0444343
0.0577707 0.0619516 0.045243
0.0661784 0.0611582 0.0450141
0.0762646 0.0605783 0.0449073
0.0893721 0.0600595 0.0454261
0.107469 0.0600748 0.0466468
0.133303 0.0609445 0.0487831
0.169879 0.0632029 0.0522621
0.223667 0.0675822 0.0579385
0.299687 0.0753643 0.0654765
0.388907 0.0885634 0.076051
0.485893 0.106722 0.0923171
0.588724 0.129625 0.111727
0.683619 0.150958 0.131945
0.758633 0.168109 0.147372
0.81387 0.180789 0.15877
0.853361 0.190188 0.166979
0.884306 0.197314 0.173434
0.909239 0.20296 0.178531
0.932067 0.208133 0.183246
0.949691 0.212131 0.186892
0.959594 0.214359 0.188937
0.959594 0.214359 0.188937
0.959594 0.214359 0.188937
0.959594 0.214359 0.188937
0.959594 0.214359 0.188937
0.959594 0.214359 0.188937
0.959594 0.214359 0.188937
0.028809 0.0644083 0.0432746
0.028809 0.0642863 0.0432441
0.0296483 0.0643778 0.0429541
0.0332494 0.064622 0.042649
0.038407 0.064744 0.0426947
0.0453803 0.0649882 0.0430915
0.0549935 0.0657054 0.0444495
0.0644541 0.0666819 0.0446784
0.0745251 0.0653697 0.0443427
0.0879683 0.0647746 0.0445258
0.105928 0.0644388 0.045594
0.131853 0.0648051 0.0477455
0.168688 0.0666056 0.0513924
0.222995 0.0705119 0.0572366
0.300359 0.0792096 0.0648966
0.390677 0.0929885 0.075639
0.488869 0.10985 0.0924544
0.593606 0.130663 0.113802
0.687907 0.151919 0.132815
0.762509 0.168994 0.148165
0.817121 0.181537 0.159442
0.856062 0.190814 0.167529
0.886641 0.197848 0.173907
0.911528 0.203479 0.178988
0.934493 0.208682 0.183749
0.951492 0.212528 0.187274
0.959594 0.214359 0.188937
0.959594 0.214359 0.188937
0.959594 0.214359 0.188937
0.959594 0.214359 0.188937
0.959594 0.214359 0.188937
0.959594 0.214359 0.188937
0.959594 0.214359 0.188937
0.0291295 0.0684062 0.0433814
0.0291295 0.0683299 0.0433661
0.02916 0.0682994 0.0433814
0.0305333 0.0687419 0.0424506
0.0340887 0.0694591 0.0411994
0.0413825 0.0695048 0.0418708
0.0510109 0.0699931 0.0433814
0.0611734 0.0714427 0.0444038
0.0724651 0.0719768 0.0440833
0.0859236 0.0705577 0.0437171
0.103655 0.0698863 0.0443427
0.129488 0.0698863 0.0464485
0.166629 0.0712902 0.0501717
0.221012 0.0746777 0.0560464
0.299565 0.083711 0.0638285
0.391226 0.0975814 0.0751507
0.490898 0.114931 0.0924849
0.596246 0.134203 0.113787
0.691585 0.152972 0.133593
0.765515 0.16968 0.148775
0.819715 0.182116 0.159976
0.858244 0.191302 0.167971
0.888487 0.19826 0.174289
0.913359 0.203891 0.179355
0.936416 0.20911 0.184131
0.952636 0.212787 0.187503
0.959594 0.214359 0.188937
0.959594 0.214359 0.188937
0.959594 0.214359 0.188937
0.959594 0.214359 0.188937
0.959594 0.214359 0.188937
0.959594 0.214359 0.188937
0.959594 0.214359 0.188937
0.0285039 0.0737011 0.0430457
0.0285191 0.0736553 0.0430457
0.0285191 0.0736553 0.0430457
0.0287785 0.0738231 0.0428016
0.0304875 0.0747845 0.0410315
0.0362097 0.0753185 0.0406043
0.0456245 0.0755322 0.041886
0.0566873 0.0765698 0.0435645
0.0686198 0.0785077 0.0441901
0.0830549 0.078172 0.043534
0.100816 0.0769665 0.0433967
0.125933 0.0764935 0.0449073
0.163134 0.0774395 0.0484474
0.217533 0.0809033 0.0541695
0.296559 0.0896468 0.0621347
0.389578 0.102953 0.0738384
0.490562 0.120043 0.0914626
0.596902 0.139376 0.112703
0.693095 0.157107 0.133242
0.767483 0.170611 0.149157
0.8215 0.182605 0.160403
0.859602 0.191608 0.168261
0.889693 0.198535 0.174533
0.914519 0.204166 0.179629
0.937636 0.209384 0.18439
0.953506 0.212985 0.187686
0.959594 0.214359 0.188937
0.959594 0.214359 0.188937
0.959594 0.214359 0.188937
0.959594 0.214359 0.188937
0.959594 0.214359 0.188937
0.959594 0.214359 0.188937
0.959594 0.214359 0.188937
0.0273899 0.080827 0.0425574
0.0273899 0.080827 0.0425574
0.0273747 0.0809339 0.0425574
0.0273594 0.0810101 0.0425574
0.027924 0.0814527 0.0419318
0.0300603 0.0828565 0.0395666
0.0386511 0.0830701 0.0402228
0.0500801 0.0834363 0.0421607
0.0630198 0.0849622 0.0439002
0.0780346 0.0873121 0.0440223
0.0967422 0.0864271 0.0429694
0.121843 0.08542 0.0432746
0.157595 0.0858778 0.0460975
0.212146 0.0885023 0.0517281
0.29102 0.0961624 0.0598764
0.385397 0.109178 0.071809
0.487739 0.125582 0.0897078
0.595453 0.14461 0.111269
0.692607 0.162417 0.13167
0.767742 0.175616 0.147845
0.821958 0.184115 0.160174
0.860304 0.192126 0.168368
0.890135 0.198627 0.174624
0.914992 0.204273 0.179721
0.938155 0.209506 0.184497
0.95407 0.213107 0.187808
0.959594 0.214359 0.188937
0.959594 0.214359 0.188937
0.959594 0.214359 0.188937
0.959594 0.214359 0.188937
0.959594 0.214359 0.188937
0.959594 0.214359 0.188937
0.959594 0.214359 0.188937
0.0259251 0.0910658 0.0420081
0.0259251 0.0911269 0.0420081
0.0259251 0.0913405 0.0419928
0.0259251 0.0915694 0.0419928
0.0259251 0.091722 0.0419776
0.0267338 0.0924544 0.0409705
0.0298466 0.0941787 0.0382696
0.0413367 0.0940108 0.040238
0.0549172 0.0948501 0.0424201
0.0706493 0.0968032 0.0442817
0.0905776 0.0998245 0.0439002
0.116182 0.0982376 0.042298
0.150851 0.0974441 0.0435187
0.204288 0.0984665 0.0485695
0.282582 0.104356 0.056672
0.378424 0.115923 0.0694743
0.482231 0.13167 0.087068
0.591546 0.150103 0.109026
0.690272 0.167727 0.129931
0.766781 0.181216 0.14641
0.821698 0.190158 0.158495
0.860151 0.19411 0.167895
0.89015 0.199268 0.174517
0.914961 0.204395 0.179721
0.937942 0.209461 0.184451
0.954223 0.213153 0.187839
0.959594 0.214359 0.188937
0.959594 0.214359 0.188937
0.959594 0.214359 0.188937
0.959594 0.214359 0.188937
0.959594 0.214359 0.188937
0.959594 0.214359 0.188937
0.959594 0.214359 0.188937
0.0258946 0.104082 0.0415045
0.0258946 0.104189 0.0415045
0.0258946 0.10454 0.0414893
0.0258946 0.104921 0.041474
0.0258946 0.105241 0.0414588
0.0258946 0.10544 0.0414588
0.0267185 0.106432 0.0399634
0.031281 0.107698 0.0382239
0.0450446 0.107683 0.0405432
0.0620432 0.109102 0.0430915
0.0813764 0.112474 0.0448615
0.108278 0.116442 0.043595
0.143648 0.113893 0.0415961
0.194415 0.113252 0.0448005
0.271168 0.11696 0.05243
0.368658 0.126207 0.0658122
0.474113 0.139956 0.0834211
0.58497 0.156573 0.105776
0.685832 0.17319 0.127474
0.764416 0.186831 0.144518
0.820645 0.196063 0.156939
0.859907 0.201892 0.166049
0.889891 0.205005 0.173098
0.914336 0.205341 0.17937
0.937316 0.209766 0.184237
0.953948 0.213245 0.187762
0.959792 0.214466 0.188983
0.959792 0.21445 0.188983
0.959594 0.214359 0.188937
0.959594 0.214359 0.188937
0.959594 0.214359 0.188937
0.959594 0.214359 0.188937
0.959594 0.214359 0.188937
0.0259403 0.121324 0.0404822
0.0259403 0.121599 0.0404669
0.0259403 0.12221 0.0404212
0.0259403 0.122896 0.0403754
0.0259403 0.123537 0.0403449
0.0259403 0.124025 0.0403143
0.0259403 0.124285 0.0402991
0.0263676 0.125261 0.0387579
0.0331579 0.12607 0.0382086
0.0505379 0.126619 0.0410315
0.0702983 0.128817 0.0438697
0.0949874 0.133394 0.0456703
0.133501 0.138567 0.0430762
0.183246 0.135027 0.0414282
0.258061 0.135683 0.0473335
0.355428 0.141985 0.0599832
0.462974 0.152987 0.0780804
0.575418 0.167742 0.100893
0.678965 0.182681 0.123674
0.760311 0.194629 0.141711
0.818372 0.202625 0.154925
0.858701 0.208179 0.16408
0.889281 0.212253 0.171084
0.914061 0.215061 0.176867
0.936812 0.217472 0.182193
0.953445 0.217746 0.186526
0.960082 0.215335 0.188861
0.959884 0.214771 0.188937
0.959823 0.214557 0.188968
0.959808 0.214511 0.188983
0.959808 0.214527 0.188983
0.959823 0.214557 0.188968
0.959838 0.214588 0.188968
0.0259861 0.14519 0.0376593
0.0259861 0.145617 0.0376135
0.0259861 0.146548 0.0374914
0.0259861 0.147662 0.0373541
0.0259861 0.148974 0.0370642
0.0259861 0.150118 0.0369116
0.0259861 0.150912 0.0368048
0.0259861 0.151278 0.0367437
0.0260471 0.151736 0.036759
0.035935 0.152056 0.0380713
0.0552529 0.153338 0.0413367
0.0787366 0.156146 0.0445258
0.114214 0.162387 0.0467231
0.170016 0.169635 0.0423743
0.241505 0.16527 0.0420081
0.33814 0.167391 0.0524605
0.44773 0.17464 0.0696574
0.562295 0.185779 0.0931868
0.669078 0.198825 0.117342
0.754055 0.209247 0.137026
0.814633 0.215869 0.151141
0.856428 0.219684 0.160952
0.887739 0.221683 0.168399
0.91281 0.223499 0.174304
0.935668 0.225193 0.179721
0.953536 0.22707 0.184024
0.961944 0.227207 0.186252
0.961669 0.225788 0.186572
0.961456 0.224628 0.186831
0.961303 0.223804 0.186999
0.961196 0.223255 0.187121
0.96112 0.222827 0.187228
0.961074 0.222538 0.187289
0.0259861 0.178408 0.0335241
0.0259861 0.178988 0.0335088
0.0259861 0.180377 0.0334478
0.0259861 0.182055 0.0333715
0.0259861 0.183749 0.0332952
0.0259861 0.185275 0.0332341
0.0259861 0.186465 0.0331731
0.0259861 0.187213 0.0331426
0.0259861 0.187427 0.0331273
0.0259861 0.18761 0.0343938
0.0355535 0.188174 0.037171
0.0573739 0.190097 0.0407874
0.0889448 0.19379 0.0446479
0.141695 0.203555 0.0480812
0.222889 0.212497 0.0417945
0.318166 0.207446 0.0435798
0.429313 0.209812 0.0579995
0.54551 0.216678 0.0809491
0.656504 0.225513 0.107057
0.746044 0.233097 0.129015
0.809873 0.238178 0.144594
0.853529 0.239933 0.155596
0.885771 0.240635 0.163729
0.911269 0.241047 0.170123
0.934188 0.241062 0.175921
0.953307 0.241413 0.180682
0.963256 0.240024 0.183429
0.963134 0.237308 0.183948
0.963058 0.236072 0.184207
0.962997 0.234943 0.184451
0.962951 0.234089 0.184634
0.962921 0.23357 0.184741
0.962921 0.233494 0.184756
0.0259861 0.219974 0.0314641
0.0259861 0.2206 0.0314183
0.0259861 0.222202 0.0313268
0.0259861 0.224201 0.0312047
0.0259861 0.226261 0.0310826
0.0259861 0.228107 0.0309606
0.0259861 0.229633 0.030869
0.0259861 0.230716 0.030808
0.0259861 0.23125 0.0307774
0.0259861 0.231144 0.0307774
0.0259861 0.231296 0.0319829
0.0324865 0.232441 0.03505
0.0580758 0.234989 0.0388037
0.104265 0.240681 0.0442664
0.182727 0.257725 0.0507515
0.293507 0.267979 0.0417792
0.40856 0.263035 0.0451667
0.525414 0.263416 0.063859
0.640223 0.267811 0.0903487
0.736049 0.272618 0.115114
0.804211 0.274281 0.133394
0.850019 0.273228 0.146105
0.883391 0.272038 0.155291
0.909529 0.270329 0.162615
0.932448 0.268681 0.169039
0.953033 0.268116 0.174517
0.964553 0.266361 0.177935
0.964401 0.263203 0.178637
0.964294 0.261128 0.17911
0.964218 0.259709 0.179416
0.964172 0.258701 0.179644
0.964157 0.258381 0.179721
0.964172 0.258747 0.179644
0.0259861 0.267842 0.0285191
0.0259861 0.268315 0.0284886
0.0259861 0.270069 0.0284276
0.0259861 0.272267 0.0282597
0.0259861 0.27454 0.0280919
0.0259861 0.276631 0.027924
0.0259861 0.278386 0.0277867
0.0259861 0.279667 0.0276951
0.0259861 0.2804 0.0276341
0.0259861 0.280522 0.0276341
0.0259861 0.280049 0.0276646
0.0259861 0.279698 0.0282292
0.0285954 0.2813 0.0315251
0.0592813 0.284489 0.0362249
0.129992 0.294469 0.0447242
0.244862 0.324331 0.0541085
0.382132 0.331884 0.0413062
0.503075 0.327688 0.0466926
0.6215 0.327031 0.0682383
0.723125 0.327901 0.0939651
0.796933 0.327352 0.115114
0.846326 0.325063 0.129747
0.881346 0.321279 0.140642
0.90811 0.317342 0.149187
0.93106 0.313924 0.156451
0.952789 0.312169 0.162783
0.966903 0.309743 0.167254
0.966674 0.305821 0.168261
0.966537 0.303517 0.168872
0.966461 0.302174 0.169223
0.96643 0.301762 0.169329
0.966445 0.302007 0.169268
0.966522 0.303273 0.168933
0.0259861 0.319142 0.0259861
0.0259861 0.319478 0.0259861
0.0259861 0.321233 0.0259861
0.0259861 0.323491 0.0259861
0.0259861 0.325872 0.0259861
0.0259861 0.328084 0.0259861
0.0259861 0.329946 0.0259861
0.0259861 0.331319 0.0259861
0.0259861 0.332128 0.0259861
0.0259861 0.332341 0.0259861
0.0259861 0.33196 0.0259861
0.0259861 0.330922 0.0259861
0.0259861 0.330465 0.0259556
0.0260014 0.331365 0.0287327
0.0659495 0.335576 0.0344091
0.174014 0.35523 0.0484779
0.333165 0.401541 0.0568856
0.475822 0.401251 0.0410925
0.599939 0.397421 0.0480659
0.7093 0.395682 0.0695201
0.789715 0.393942 0.0906386
0.843259 0.390753 0.106859
0.880232 0.386267 0.119097
0.907607 0.381628 0.128542
0.930678 0.377859 0.136309
0.952316 0.375067 0.143282
0.970947 0.373037 0.149157
0.970687 0.369284 0.150301
0.970535 0.367102 0.150958
0.970459 0.366247 0.151217
0.970489 0.366491 0.151141
0.970565 0.367727 0.150759
0.970718 0.369924 0.150103
0.0259861 0.376867 0.0259861
0.0259861 0.377157 0.0259861
0.0259861 0.37908 0.0259861
0.0259861 0.381674 0.0259861
0.0259861 0.384421 0.0259861
0.0259861 0.386969 0.0259861
0.0259861 0.389105 0.0259861
0.0259861 0.390707 0.0259861
0.0259861 0.391699 0.0259861
0.0259861 0.392081 0.0259861
0.0259861 0.391897 0.0259861
0.0259861 0.391119 0.0259861
0.0259861 0.389731 0.0259861
0.0259861 0.388373 0.0259861
0.0268406 0.38822 0.0276036
0.0879225 0.393866 0.035172
0.246494 0.43003 0.0593423
0.436515 0.485679 0.0536965
0.572473 0.474891 0.0416419
0.691081 0.470634 0.0484016
0.780423 0.467063 0.0660563
0.839536 0.463066 0.0814984
0.879393 0.458518 0.0935225
0.908202 0.454368 0.103029
0.931502 0.450629 0.111086
0.952758 0.447761 0.118242
0.971542 0.445853 0.124346
0.976593 0.443732 0.126558
0.97644 0.442161 0.127077
0.976425 0.441901 0.127169
0.976501 0.442725 0.126894
0.976654 0.444526 0.126299
0.976913 0.447303 0.125368
0.0259861 0.438285 0.0259861
0.0259861 0.438422 0.0259861
0.0259861 0.440406 0.0259861
0.0259861 0.443824 0.0259861
0.0259861 0.446876 0.0259861
0.0259861 0.449561 0.0259861
0.0259861 0.451881 0.0259861
0.0259861 0.45362 0.0259861
0.0259861 0.454765 0.0259861
0.0259861 0.455329 0.0259861
0.0259861 0.455406 0.0259861
0.0259861 0.454963 0.0259861
0.0259861 0.454032 0.0259861
0.0259861 0.452735 0.0259861
0.0259861 0.451225 0.0259861
0.0309453 0.451453 0.0292058
0.149981 0.463798 0.0432593
0.346593 0.519173 0.0785687
0.537713 0.566491 0.0542458
0.667689 0.551904 0.0424506
0.769711 0.547295 0.0468299
0.835798 0.54258 0.0584878
0.879545 0.537743 0.0689555
0.910109 0.53341 0.0772717
0.933745 0.529442 0.0842603
0.954604 0.52639 0.0906386
0.973892 0.524346 0.0964981
0.984405 0.523049 0.0998856
0.98436 0.522057 0.100237
0.984375 0.522194 0.100175
0.984512 0.523415 0.0997787
0.984756 0.525628 0.0990616
0.985107 0.52874 0.0980392
0.0259861 0.499382 0.0259861
0.0259861 0.499306 0.0259861
0.0259861 0.500725 0.0259861
0.0259861 0.502983 0.0259861
0.0259861 0.505318 0.0259861
0.0259861 0.507607 0.0259861
0.0259861 0.509789 0.0259861
0.0259861 0.512398 0.0259861
0.0259861 0.513634 0.0259861
0.0259861 0.514351 0.0259861
0.0259861 0.514626 0.0259861
0.0259861 0.514473 0.0259861
0.0259861 0.513909 0.0259861
0.0259861 0.512932 0.0259861
0.0259861 0.511772 0.0259861
0.0259861 0.510536 0.0265049
0.051545 0.51284 0.034226
0.24683 0.54345 0.0632181
0.454292 0.607477 0.0948806
0.63679 0.637201 0.0578317
0.751705 0.626307 0.0436103
0.828595 0.621775 0.0443732
0.878218 0.617197 0.0503853
0.911528 0.613153 0.0567941
0.936614 0.609735 0.0622721
0.957565 0.606989 0.0671092
0.977142 0.605249 0.0717327
0.992386 0.604547 0.0753185
0.993774 0.603937 0.0757916
0.993805 0.604318 0.0756847
0.993957 0.605585 0.0753643
0.994186 0.607691 0.0748455
0.994522 0.610559 0.0741131
0.0259861 0.552361 0.0259861
0.0259861 0.552163 0.0259861
0.0259861 0.553262 0.0259861
0.0259861 0.554925 0.0259861
0.0259861 0.556802 0.0259861
0.0259861 0.558679 0.0259861
0.0259861 0.560494 0.0259861
0.0259861 0.562341 0.0259861
0.0259861 0.563684 0.0259861
0.0259861 0.564675 0.0259861
0.0259861 0.565209 0.0259861
0.0259861 0.565301 0.0259861
0.0259861 0.565026 0.0259861
0.0259861 0.564462 0.0259861
0.0259861 0.56347 0.0259861
0.0259861 0.562081 0.0259861
0.0259861 0.561318 0.0297704
0.135286 0.572015 0.04654
0.363104 0.625986 0.0950027
0.571191 0.689021 0.0976425
0.72546 0.694682 0.0622416
0.816556 0.691279 0.0454871
0.874113 0.68806 0.043473
0.91104 0.684993 0.0452735
0.937804 0.682353 0.0480659
0.959487 0.679988 0.0513619
0.978973 0.678401 0.0548104
0.993713 0.677928 0.0579385
0.998383 0.677791 0.0589609
0.998383 0.677989 0.0589151
0.998383 0.679026 0.0587167
0.998383 0.680812 0.0583658
0.998383 0.683131 0.0578927
0.0259861 0.594949 0.0259861
0.0259861 0.594751 0.0259861
0.0259861 0.595483 0.0259861
0.0259861 0.596643 0.0259861
0.0259861 0.597955 0.0259861
0.0259861 0.599252 0.0259861
0.0259861 0.600443 0.0259861
0.0259861 0.601419 0.0259861
0.0259861 0.602167 0.0259861
0.0259861 0.602762 0.0259861
0.0259861 0.603723 0.0259861
0.0259861 0.603937 0.0259861
0.0259861 0.603876 0.0259861
0.0259861 0.603464 0.0259861
0.0259861 0.602792 0.0259861
0.0259861 0.601984 0.0259861
0.0259861 0.600259 0.0276799
0.0360876 0.602426 0.0370489
0.266545 0.634577 0.0742351
0.489204 0.703059 0.120882
0.690623 0.759884 0.0737163
0.797742 0.744762 0.061677
0.864652 0.742855 0.0476387
0.906783 0.740505 0.0442817
0.936217 0.73843 0.0440223
0.958862 0.736782 0.0447242
0.978454 0.735698 0.0462348
0.994217 0.735348 0.0479744
0.997269 0.735393 0.0492561
0.998383 0.735576 0.0496376
0.998383 0.736217 0.0495613
0.998383 0.737285 0.049424
0.998383 0.73875 0.0492561
0.0259861 0.627482 0.0259861
0.0259861 0.627283 0.0259861
0.0259861 0.627771 0.0259861
0.0259861 0.628641 0.0259861
0.0259861 0.629633 0.0259861
0.0259861 0.63064 0.0259861
0.0259861 0.63154 0.0259861
0.0259861 0.632258 0.0259861
0.0259861 0.632761 0.0259861
0.0259861 0.633082 0.0259861
0.0259861 0.633188 0.0259861
0.0259861 0.633219 0.0259861
0.0259861 0.633707 0.0259861
0.0259861 0.633433 0.0259861
0.0259861 0.632944 0.0259861
0.0259861 0.632303 0.0259861
0.0259861 0.630579 0.0260624
0.0259861 0.629801 0.0323339
0.166812 0.644602 0.056199
0.412345 0.705837 0.115221
0.626093 0.771542 0.120043
0.779889 0.79913 0.0644083
0.852537 0.782834 0.0601511
0.900114 0.781704 0.0498665
0.932189 0.780438 0.0461433
0.956313 0.779385 0.0447547
0.976257 0.778531 0.0445563
0.993774 0.778088 0.044892
0.998184 0.778195 0.0455482
0.998383 0.778241 0.0458076
0.998383 0.778592 0.0457923
0.998383 0.779263 0.0457465
0.998383 0.780148 0.0456855
0.0259861 0.652155 0.0259861
0.0259861 0.651911 0.0259861
0.0259861 0.652216 0.0259861
0.0259861 0.652796 0.0259861
0.0259861 0.653452 0.0259861
0.0259861 0.654108 0.0259861
0.0259861 0.654704 0.0259861
0.0259861 0.655161 0.0259861
0.0259861 0.655482 0.0259861
0.0259861 0.65565 0.0259861
0.0259861 0.655665 0.0259861
0.0259861 0.655528 0.0259861
0.0259861 0.655299 0.0259861
0.0259861 0.655024 0.0259861
0.0259861 0.654719 0.0259861
0.0259861 0.654459 0.0259861
0.0259861 0.653696 0.0259861
0.0259861 0.651621 0.0299229
0.0640116 0.657389 0.0453803
0.339849 0.704128 0.0996719
0.565667 0.775113 0.135515
0.748592 0.826352 0.0848554
0.838651 0.815091 0.0735332
0.891783 0.811307 0.0598001
0.926986 0.810407 0.0520485
0.952331 0.809537 0.0483406
0.972854 0.808881 0.0464485
0.989258 0.80853 0.0454108
0.998383 0.808499 0.0450294
0.998383 0.808621 0.0450599
0.998383 0.808652 0.0450599
0.998383 0.808927 0.0450752
0.998383 0.809339 0.0450752
0.0259861 0.67129 0.0259861
0.0259861 0.671061 0.0259861
0.0259861 0.67129 0.0259861
0.0259861 0.671717 0.0259861
0.0259861 0.672206 0.0259861
0.0259861 0.672709 0.0259861
0.0259861 0.673136 0.0259861
0.0259861 0.673472 0.0259861
0.0259861 0.673686 0.0259861
0.0259861 0.673777 0.0259861
0.0259861 0.673732 0.0259861
0.0259861 0.673533 0.0259861
0.0259861 0.673228 0.0259861
0.0259861 0.672831 0.0259861
0.0259861 0.672312 0.0259861
0.0259861 0.671717 0.0259861
0.0259861 0.67126 0.0259861
0.0259861 0.669261 0.0285191
0.0259861 0.670359 0.0388952
0.269993 0.702495 0.0828565
0.508309 0.773022 0.137621
0.704479 0.831434 0.118227
0.828 0.851072 0.0688029
0.882383 0.833478 0.0720989
0.920729 0.833173 0.0596323
0.947875 0.832471 0.0534524
0.968933 0.831876 0.0499123
0.986587 0.831495 0.0478523
0.997223 0.831373 0.04654
