assets/luts/Blue&Pink.cube
TITLE "Generated by Resolve"
LUT_3D_SIZE 5
0.0322423 0.0509499 0.0484016
0.0797742 0.0480812 0.0476234
0.474968 0.104204 0.0902113
0.922545 0.205966 0.181277
0.959594 0.214359 0.188937
0.0285039 0.0737011 0.0430457
0.0686198 0.0785077 0.0441901
0.490562 0.120043 0.0914626
0.937636 0.209384 0.18439
0.959594 0.214359 0.188937
0.0259861 0.267842 0.0285191
0.0259861 0.2804 0.0276341
0.382132 0.331884 0.0413062
0.93106 0.313924 0.156451
0.966522 0.303273 0.168933
0.0259861 0.652155 0.0259861
0.0259861 0.655482 0.0259861
0.0259861 0.653696 0.0259861
0.926986 0.810407 0.0520485
0.998383 0.809339 0.0450752
0.0259861 0.739849 0.0269322
0.0259861 0.739849 0.0269322
0.0259861 0.739849 0.0269322
0.892683 0.935409 0.0706798
0.998383 0.909026 0.0572213
0.0313115 0.0513313 0.0864576
0.0760204 0.0488136 0.0908675
0.470665 0.0926528 0.120775
0.924575 0.209689 0.213062
0.962753 0.217807 0.219318
0.0265354 0.0872358 0.0922408
0.0615702 0.08365 0.0914321
0.49688 0.125887 0.136736
0.942504 0.214572 0.219699
0.962524 0.218784 0.222843
0.0259861 0.286809 0.039353
0.0259861 0.299092 0.0387732
0.391455 0.344182 0.0673991
0.933822 0.321294 0.162356
0.966735 0.308049 0.169345
0.0259861 0.660853 0.0259861
0.0259861 0.663722 0.0259861
0.0259861 0.659037 0.0259861
0.92932 0.813535 0.0523537
0.998383 0.810208 0.0450904
0.0259861 0.739849 0.0269322
0.0259861 0.739849 0.0269322
0.0259861 0.739849 0.0269322
0.895674 0.936584 0.0703288
0.998383 0.90869 0.0572671
0.0259861 0.0676738 0.352743
0.0351415 0.0603799 0.341039
0.438148 0.0581826 0.369635
0.920256 0.184512 0.372763
0.964492 0.192615 0.407767
0.0259861 0.0863813 0.344442
0.0277562 0.082948 0.3552
0.483131 0.0648051 0.420111
0.941176 0.185657 0.433783
0.964233 0.187579 0.467948
0.0259861 0.351766 0.362249
0.0259861 0.368032 0.379049
0.347677 0.360754 0.395056
0.930953 0.326574 0.421851
0.967117 0.308659 0.458946
0.0259861 0.701595 0.175952
0.0259861 0.705562 0.183597
0.0259861 0.698421 0.17023
0.919264 0.817655 0.297734
0.998383 0.813596 0.305165
0.0259861 0.789792 0.224277
0.0259861 0.784894 0.191348
0.0259861 0.775021 0.147951
0.871504 0.933654 0.250385
0.998383 0.909834 0.234318
0.0259861 0.0819257 0.725505
0.0259861 0.0815442 0.720974
0.25211 0.0714885 0.770169
0.918486 0.0605631 0.865507
0.98088 0.0629587 0.883314
0.0259861 0.0974899 0.726909
0.0259861 0.0970321 0.730465
0.322423 0.0732891 0.80383
0.943633 0.0615091 0.891691
0.978607 0.0613107 0.901991
0.0259861 0.326192 0.76434
0.0259861 0.342473 0.775265
0.179049 0.318517 0.742519
0.934768 0.259037 0.892531
0.983063 0.22887 0.903731
0.0259861 0.829755 0.81387
0.0259861 0.833005 0.815686
0.0259861 0.826383 0.81323
0.875486 0.857038 0.872496
0.983429 0.85066 0.876905
0.0259861 0.935378 0.809735
0.0259861 0.935592 0.804089
0.0259861 0.93579 0.790387
0.661463 0.920287 0.774075
0.980636 0.947707 0.857618
0.0259861 0.0882734 0.791882
0.0259861 0.0879377 0.788312
0.160433 0.0803388 0.821042
0.896406 0.066743 0.946883
0.970138 0.0659495 0.96025
0.0259861 0.10016 0.795392
0.0259861 0.0999466 0.797772
0.272877 0.078584 0.860487
0.930694 0.0672618 0.96466
0.968627 0.0668345 0.971389
0.0259861 0.331014 0.826734
0.0259861 0.348257 0.835599
0.142565 0.325032 0.80827
0.922576 0.261143 0.965179
0.973617 0.231006 0.973098
0.0259861 0.826764 0.911543
0.0259861 0.830045 0.912154
0.0259861 0.821988 0.91136
0.824796 0.829343 0.932982
0.988769 0.846311 0.962066
0.0259861 0.929839 0.893065
0.0259861 0.929992 0.890974
0.0259861 0.929168 0.885786
0.67985 0.93611 0.916487
0.967193 0.957031 0.951293
