assets/luts/Blue&Pink.cube
TITLE "Generated by Resolve"
LUT_3D_SIZE 9
0.0322423 0.0509499 0.0484016
0.0502327 0.0492561 0.0477455
0.0797742 0.0480812 0.0476234
0.172763 0.0564584 0.0537728
0.474968 0.104204 0.0902113
0.801678 0.178012 0.156268
0.922545 0.205966 0.181277
0.959594 0.214359 0.188937
0.959594 0.214359 0.188937
0.027985 0.0584878 0.0444343
0.0434119 0.0576944 0.0446174
0.0773175 0.0569314 0.0456245
0.170321 0.0604562 0.0528878
0.481575 0.105684 0.091371
0.810376 0.179995 0.158053
0.929397 0.207523 0.182696
0.959594 0.214359 0.188937
0.959594 0.214359 0.188937
0.0285039 0.0737011 0.0430457
0.0304875 0.0747845 0.0410315
0.0686198 0.0785077 0.0441901
0.163134 0.0774395 0.0484474
0.490562 0.120043 0.0914626
0.8215 0.182605 0.160403
0.937636 0.209384 0.18439
0.959594 0.214359 0.188937
0.959594 0.214359 0.188937
0.0259403 0.121324 0.0404822
0.0259403 0.123537 0.0403449
0.0331579 0.12607 0.0382086
0.133501 0.138567 0.0430762
0.462974 0.152987 0.0780804
0.818372 0.202625 0.154925
0.936812 0.217472 0.182193
0.959823 0.214557 0.188968
0.959838 0.214588 0.188968
0.0259861 0.267842 0.0285191
0.0259861 0.27454 0.0280919
0.0259861 0.2804 0.0276341
0.0285954 0.2813 0.0315251
0.382132 0.331884 0.0413062
0.796933 0.327352 0.115114
0.93106 0.313924 0.156451
0.966537 0.303517 0.168872
0.966522 0.303273 0.168933
0.0259861 0.499382 0.0259861
0.0259861 0.505318 0.0259861
0.0259861 0.513634 0.0259861
0.0259861 0.513909 0.0259861
0.051545 0.51284 0.034226
0.751705 0.626307 0.0436103
0.936614 0.609735 0.0622721
0.993774 0.603937 0.0757916
0.994522 0.610559 0.0741131
0.0259861 0.652155 0.0259861
0.0259861 0.653452 0.0259861
0.0259861 0.655482 0.0259861
0.0259861 0.655299 0.0259861
0.0259861 0.653696 0.0259861
0.565667 0.775113 0.135515
0.926986 0.810407 0.0520485
0.998383 0.808499 0.0450294
0.998383 0.809339 0.0450752
0.0259861 0.712352 0.0260319
0.0259861 0.71252 0.0260319
0.0259861 0.712764 0.0260319
0.0259861 0.711574 0.0260319
0.0259861 0.708431 0.0260166
0.369711 0.761395 0.114977
0.903136 0.880781 0.0811322
0.991135 0.875746 0.0557717
0.998383 0.874983 0.0498665
0.0259861 0.739849 0.0269322
0.0259861 0.739849 0.0269322
0.0259861 0.739849 0.0269322
0.0259861 0.739849 0.0269322
0.0259861 0.739849 0.0269322
0.280934 0.768154 0.0939651
0.892683 0.935409 0.0706798
0.98088 0.910246 0.0714733
0.998383 0.909026 0.0572213
0.0322881 0.0509194 0.0623484
0.0479133 0.0500191 0.0597391
0.0799725 0.0474098 0.060914
0.173266 0.0543832 0.0640879
0.474479 0.105119 0.107637
0.802838 0.178241 0.164782
0.922927 0.205921 0.182315
0.959594 0.214359 0.188937
0.959594 0.214359 0.188937
0.0282444 0.0623636 0.0617533
0.0415045 0.0607462 0.061326
0.0754559 0.0581369 0.0602274
0.170886 0.0601968 0.0646067
0.484306 0.107362 0.110109
0.813214 0.180545 0.168307
0.930007 0.207828 0.182574
0.959548 0.214405 0.188861
0.959609 0.214359 0.188937
0.0259709 0.0796063 0.0536355
0.0287785 0.0795758 0.0542916
0.067155 0.07953 0.0569467
0.16379 0.0794537 0.0605936
0.495186 0.123186 0.104067
0.825605 0.183505 0.169879
0.938903 0.209781 0.184482
0.959548 0.214389 0.188861
0.959564 0.214389 0.188891
0.0259403 0.124407 0.0478218
0.0259861 0.127077 0.0486305
0.0313573 0.130785 0.0438697
0.135225 0.141192 0.0503243
0.4701 0.155932 0.0840467
0.821668 0.203891 0.155535
0.938384 0.218097 0.182452
0.959808 0.214511 0.188983
0.959808 0.214527 0.188983
0.0259861 0.275547 0.0280156
0.0259861 0.282383 0.0274815
0.0259861 0.287587 0.0271
0.0276188 0.287312 0.0310216
0.389792 0.339162 0.041413
0.801404 0.332876 0.114565
0.932937 0.317906 0.155795
0.966705 0.306447 0.168109
0.966674 0.305837 0.168261
0.0259861 0.514443 0.0259861
0.0259861 0.519692 0.0259861
0.0259861 0.525536 0.0259861
0.0259861 0.523934 0.0259861
0.0552682 0.520851 0.0350347
0.758862 0.634226 0.0437629
0.938964 0.615793 0.0612955
0.994278 0.608499 0.0746319
0.994888 0.613825 0.0733043
0.0259861 0.659342 0.0259861
0.0259861 0.660548 0.0259861
0.0259861 0.662242 0.0259861
0.0259861 0.661372 0.0259861
0.0259861 0.657862 0.0259861
0.579156 0.781643 0.135821
0.928893 0.812665 0.0522316
0.998383 0.809979 0.0450446
0.998383 0.810162 0.0450904
0.0259861 0.71693 0.0261234
0.0259861 0.71693 0.0261234
0.0259861 0.716899 0.0261234
0.0259861 0.715129 0.0260624
0.0259861 0.711437 0.0260319
0.395743 0.771252 0.121752
0.905348 0.881483 0.0815442
0.991577 0.87628 0.0558175
0.998383 0.875181 0.049897
0.0259861 0.739849 0.0269322
0.0259861 0.739849 0.0269322
0.0259861 0.739849 0.0269322
0.0259861 0.739849 0.0269322
0.0259861 0.739849 0.0269322
0.314763 0.777737 0.103471
0.897688 0.936629 0.070222
0.98143 0.91075 0.0715038
0.998383 0.909102 0.0572976
0.0313115 0.0513313 0.0864576
0.042771 0.0510262 0.0854505
0.0760204 0.0488136 0.0908675
0.169436 0.0538949 0.0915084
0.470665 0.0926528 0.120775
0.800565 0.182422 0.191333
0.924575 0.209689 0.213062
0.962768 0.217731 0.219043
0.962753 0.217807 0.219318
0.030518 0.0602884 0.090837
0.0390784 0.0595254 0.0879988
0.0707713 0.057145 0.0898299
0.168643 0.0581216 0.0925612
0.484138 0.0949416 0.123827
0.812634 0.18558 0.195239
0.933043 0.212085 0.216495
0.962646 0.218265 0.220981
0.962631 0.218402 0.221454
0.0265354 0.0872358 0.0922408
0.027924 0.087129 0.0931716
0.0615702 0.08365 0.0914321
0.16199 0.0805829 0.0918593
0.49688 0.125887 0.136736
0.826886 0.189151 0.199161
0.942504 0.214572 0.219699
0.96257 0.218647 0.222339
0.962524 0.218784 0.222843
0.0258946 0.135485 0.0734112
0.0258183 0.138659 0.0745403
0.0328985 0.139925 0.0766155
0.13196 0.143328 0.083238
0.471275 0.161028 0.118883
0.822293 0.210178 0.182177
0.942367 0.222187 0.214389
0.963012 0.217884 0.218982
0.962982 0.217914 0.219272
0.0259861 0.286809 0.039353
0.0259861 0.293919 0.0391089
0.0259861 0.299092 0.0387732
0.0260777 0.297276 0.0448463
0.391455 0.344182 0.0673991
0.80322 0.337423 0.132128
0.933822 0.321294 0.162356
0.966766 0.308797 0.169543
0.966735 0.308049 0.169345
0.0259861 0.517922 0.0259861
0.0259861 0.523415 0.0259861
0.0259861 0.529427 0.0259861
0.0259861 0.527733 0.0259861
0.0549783 0.524407 0.0352178
0.761868 0.638178 0.0439307
0.940124 0.619318 0.0607004
0.994598 0.611292 0.07393
0.995102 0.615869 0.0727855
0.0259861 0.660853 0.0259861
0.0259861 0.662058 0.0259861
0.0259861 0.663722 0.0259861
0.0259861 0.662715 0.0259861
0.0259861 0.659037 0.0259861
0.581857 0.783307 0.136065
0.92932 0.813535 0.0523537
0.998383 0.810422 0.0450599
0.998383 0.810208 0.0450904
0.0259861 0.717754 0.0261387
0.0259861 0.717693 0.0261387
0.0259861 0.717571 0.0261387
0.0259861 0.715679 0.0260777
0.0259861 0.711818 0.0260319
0.394141 0.770947 0.121386
0.904906 0.881788 0.0813916
0.991119 0.876127 0.0558785
0.998383 0.87483 0.049836
0.0259861 0.739849 0.0269322
0.0259861 0.739849 0.0269322
0.0259861 0.739849 0.0269322
0.0259861 0.739849 0.0269322
0.0259861 0.739849 0.0269322
0.306416 0.775647 0.101122
0.895674 0.936584 0.0703288
0.980499 0.910399 0.0716869
0.998383 0.90869 0.0572671
0.0268559 0.0567636 0.153292
0.0341802 0.0538949 0.150698
0.0599832 0.0530709 0.152514
0.161501 0.0505379 0.160952
0.455421 0.0923171 0.173083
0.797498 0.165545 0.211002
0.921828 0.209857 0.24097
0.961715 0.222278 0.250126
0.962051 0.220813 0.251438
0.0277867 0.062974 0.152956
0.0314488 0.0608072 0.151492
0.0567788 0.0588693 0.15349
0.161425 0.0528878 0.164904
0.472724 0.0953994 0.180087
0.812696 0.168734 0.218051
0.931853 0.21001 0.244785
0.962219 0.22005 0.25214
0.962646 0.218128 0.253346
0.0290684 0.0826734 0.156939
0.0292058 0.0828412 0.159106
0.0522011 0.0820325 0.15523
0.155108 0.0753033 0.16875
0.492226 0.112062 0.187778
0.828214 0.171878 0.226032
0.942809 0.209125 0.249287
0.963134 0.216007 0.254368
0.963821 0.21297 0.255833
0.0259861 0.152392 0.160082
0.0259861 0.156054 0.164019
0.0259861 0.157443 0.16701
0.117433 0.14934 0.164508
0.467002 0.161364 0.182574
0.822019 0.217777 0.236393
0.939467 0.231128 0.254826
0.962768 0.218845 0.253422
0.963485 0.215579 0.254887
0.0259861 0.301808 0.107561
0.0259861 0.309422 0.108202
0.0259861 0.314946 0.108431
0.0259861 0.313878 0.0968032
0.38436 0.34757 0.142382
0.799893 0.341131 0.190417
0.931365 0.326589 0.218311
0.964446 0.315236 0.227802
0.964248 0.31487 0.23151
0.0259861 0.528817 0.0515602
0.0259861 0.534646 0.0522469
0.0259861 0.540902 0.0528725
0.0259861 0.539132 0.0522011
0.0336767 0.526497 0.0693675
0.758679 0.640223 0.11249
0.93846 0.620874 0.114351
0.993408 0.612329 0.124514
0.993835 0.616251 0.125551
0.0259861 0.66714 0.0456245
0.0259861 0.668376 0.0458076
0.0259861 0.670039 0.0460365
0.0259861 0.668696 0.0449836
0.0259861 0.664332 0.0428931
0.569833 0.77731 0.161654
0.92752 0.813275 0.0750591
0.998383 0.809644 0.0573739
0.998383 0.809155 0.0584268
0.0259861 0.721645 0.0411688
0.0259861 0.721187 0.0396582
0.0259861 0.720653 0.0382544
0.0259861 0.717479 0.0335851
0.0259861 0.711986 0.0279088
0.376913 0.764935 0.11812
0.901961 0.881987 0.0812695
0.989456 0.875135 0.0561837
0.998383 0.873716 0.0498054
0.0259861 0.743786 0.0424964
0.0259861 0.742779 0.0382544
0.0259861 0.741726 0.0340429
0.0259861 0.740276 0.0286107
0.0259861 0.740032 0.0276646
0.278248 0.768399 0.0935836
0.889952 0.936049 0.0706798
0.978225 0.909407 0.0720531
0.998383 0.907668 0.057084
0.0259861 0.0676738 0.352743
0.0259861 0.0665293 0.348791
0.0351415 0.0603799 0.341039
0.0995956 0.0583352 0.341207
0.438148 0.0581826 0.369635
0.78613 0.156374 0.3691
0.920256 0.184512 0.372763
0.964675 0.194385 0.384207
0.964492 0.192615 0.407767
0.0259861 0.071458 0.350774
0.0259861 0.0708629 0.351385
0.0323491 0.0634623 0.34847
0.0984512 0.059617 0.354299
0.460121 0.0581979 0.392248
0.805112 0.158221 0.396155
0.930709 0.185092 0.401038
0.964446 0.192248 0.412528
0.964309 0.190494 0.435431
0.0259861 0.0863813 0.344442
0.0259861 0.086305 0.350988
0.0277562 0.082948 0.3552
0.0921492 0.0773175 0.366278
0.483131 0.0648051 0.420111
0.821927 0.15903 0.426978
0.941176 0.185657 0.433783
0.964279 0.189593 0.445487
0.964233 0.187579 0.467948
0.0259861 0.13875 0.34313
0.0259861 0.14197 0.353338
0.0259861 0.143053 0.361196
0.0712291 0.140551 0.359045
0.459556 0.128115 0.422049
0.820294 0.186862 0.432486
0.940352 0.19791 0.436713
0.964492 0.190005 0.446128
0.964446 0.188052 0.468971
0.0259861 0.351766 0.362249
0.0259861 0.361257 0.370764
0.0259861 0.368032 0.379049
0.0259861 0.36321 0.380713
0.347677 0.360754 0.395056
0.792081 0.348501 0.410712
0.930953 0.326574 0.421851
0.967224 0.311131 0.436393
0.967117 0.308659 0.458946
0.0259861 0.569909 0.256703
0.0259861 0.577127 0.261173
0.0259861 0.58526 0.26746
0.0259861 0.583734 0.267613
0.0259861 0.559991 0.245121
0.743847 0.647974 0.350423
0.929549 0.628428 0.353536
0.985931 0.620432 0.369162
0.985473 0.624842 0.388617
0.0259861 0.701595 0.175952
0.0259861 0.703151 0.178027
0.0259861 0.705562 0.183597
0.0259861 0.703868 0.179889
0.0259861 0.698421 0.17023
0.507881 0.733135 0.26772
0.919264 0.817655 0.297734
0.996902 0.813886 0.29366
0.998383 0.813596 0.305165
0.0259861 0.760052 0.179583
0.0259861 0.75906 0.173495
0.0259861 0.758343 0.170291
0.0259861 0.75404 0.161746
0.0259861 0.746517 0.149325
0.282918 0.724834 0.200702
0.892607 0.889311 0.273701
0.982345 0.878172 0.258885
0.998383 0.876829 0.257496
0.0259861 0.789792 0.224277
0.0259861 0.787289 0.207568
0.0259861 0.784894 0.191348
0.0259861 0.780774 0.163287
0.0259861 0.775021 0.147951
0.14844 0.745922 0.181125
0.871504 0.933654 0.250385
0.970779 0.911543 0.245563
0.998383 0.909834 0.234318
0.0259861 0.074815 0.623224
0.0259861 0.0745861 0.619318
0.0259861 0.0739147 0.614221
0.04654 0.0713359 0.614298
0.331899 0.0627756 0.663645
0.781018 0.0592203 0.707942
0.921614 0.117006 0.707424
0.970993 0.134478 0.719631
0.972183 0.125963 0.741009
0.0259861 0.0771954 0.62623
0.0259861 0.0768749 0.627588
0.0259861 0.0757763 0.626093
0.0465553 0.0723735 0.628992
0.359625 0.0631113 0.688777
0.803845 0.0580758 0.736034
0.934874 0.109209 0.737667
0.972564 0.123278 0.747662
0.973587 0.115679 0.764645
0.0259861 0.0936904 0.62388
0.0259861 0.094255 0.629831
0.0259861 0.0931868 0.632593
0.0441138 0.086183 0.640772
0.38613 0.0671244 0.713237
0.823331 0.0580911 0.762875
0.94725 0.100771 0.767315
0.974197 0.11107 0.774807
0.97499 0.105028 0.787732
0.0259861 0.145296 0.618585
0.0259861 0.148943 0.627192
0.0259861 0.150256 0.632654
0.0312657 0.144594 0.634974
0.34815 0.122255 0.703319
0.82092 0.0931716 0.769162
0.946715 0.105592 0.772274
0.97435 0.109957 0.777264
0.975357 0.104082 0.790158
0.0259861 0.326116 0.669734
0.0259861 0.335912 0.679667
0.0259861 0.34287 0.686976
0.0259861 0.33753 0.683879
0.225696 0.320027 0.643702
0.791226 0.310506 0.760357
0.937911 0.281132 0.768017
0.977081 0.262791 0.776211
0.977829 0.258045 0.787915
0.0259861 0.647456 0.687144
0.0259861 0.655253 0.692287
0.0259861 0.663462 0.697551
0.0259861 0.661433 0.697734
0.0259861 0.643015 0.691478
0.698436 0.669398 0.73518
0.912001 0.648539 0.744717
0.975875 0.637568 0.751904
0.976349 0.63975 0.761151
0.0259861 0.805127 0.633204
0.0259861 0.806882 0.635859
0.0259861 0.809094 0.639445
0.0259861 0.807401 0.636912
0.0259861 0.802029 0.630564
0.392157 0.782742 0.623652
0.893462 0.843671 0.712077
0.975357 0.839506 0.711147
0.993729 0.839109 0.717403
0.0259861 0.866865 0.634363
0.0259861 0.865385 0.631113
0.0259861 0.863981 0.628885
0.0259861 0.857679 0.620996
0.0259861 0.849607 0.608011
0.141085 0.800778 0.562097
0.847929 0.903426 0.665568
0.959915 0.901564 0.689158
0.998215 0.900053 0.688167
0.0259861 0.915816 0.647883
0.0259861 0.912474 0.639231
0.0259861 0.908675 0.629816
0.0259861 0.902251 0.613931
0.0259861 0.893889 0.593591
0.026978 0.840787 0.550103
0.7785 0.901976 0.609461
0.947951 0.935225 0.67277
0.994171 0.931502 0.671763
0.0259861 0.0819257 0.725505
0.0259861 0.0817884 0.723796
0.0259861 0.0815442 0.720974
0.028397 0.0795758 0.72369
0.25211 0.0714885 0.770169
0.738811 0.0631113 0.846937
0.918486 0.0605631 0.865507
0.980514 0.0656901 0.875135
0.98088 0.0629587 0.883314
0.0259861 0.0829938 0.727581
0.0259861 0.0829633 0.728313
0.0259861 0.0826276 0.72752
0.0289616 0.0802319 0.732372
0.288945 0.0716259 0.788159
0.770809 0.0634318 0.862593
0.931914 0.0610513 0.879881
0.980407 0.0623178 0.8878
0.979767 0.0616007 0.893339
0.0259861 0.0974899 0.726909
0.0259861 0.098024 0.729274
0.0259861 0.0970321 0.730465
0.0285344 0.090837 0.737041
0.322423 0.0732891 0.80383
0.796368 0.0637369 0.875486
0.943633 0.0615091 0.891691
0.979263 0.0610513 0.897719
0.978607 0.0613107 0.901991
0.0259861 0.148363 0.724834
0.0259861 0.151995 0.728206
0.0259861 0.153262 0.730312
0.0259861 0.147784 0.731945
0.289723 0.123964 0.789761
0.794232 0.0931716 0.878416
0.942382 0.0655833 0.893812
0.979049 0.0610971 0.899138
0.978622 0.0615091 0.903563
0.0259861 0.326192 0.76434
0.0259861 0.335714 0.770703
0.0259861 0.342473 0.775265
0.0259861 0.337331 0.772732
0.179049 0.318517 0.742519
0.759945 0.302281 0.872663
0.934768 0.259037 0.892531
0.983658 0.23151 0.899901
0.983063 0.22887 0.903731
0.0259861 0.631693 0.835889
0.0259861 0.639933 0.837934
0.0259861 0.648463 0.839902
0.0259861 0.646494 0.839841
0.0259861 0.630701 0.83386
0.626215 0.640452 0.820554
0.915785 0.636194 0.885054
0.984833 0.625895 0.889036
0.985077 0.627695 0.892393
0.0259861 0.829755 0.81387
0.0259861 0.83122 0.814679
0.0259861 0.833005 0.815686
0.0259861 0.831418 0.814862
0.0259861 0.826383 0.81323
0.344564 0.796704 0.79855
0.875486 0.857038 0.872496
0.95993 0.852277 0.874586
0.983429 0.85066 0.876905
0.0259861 0.902739 0.80911
0.0259861 0.90248 0.808179
0.0259861 0.901946 0.807385
0.0259861 0.899138 0.804578
0.0259861 0.893889 0.800534
0.0289464 0.858442 0.771801
0.771801 0.903319 0.821057
0.943252 0.917632 0.863508
0.990738 0.915816 0.862806
0.0259861 0.935378 0.809735
0.0259861 0.93547 0.807141
0.0259861 0.935592 0.804089
0.0259861 0.93576 0.79826
0.0259861 0.93579 0.790387
0.0259861 0.90631 0.764553
0.661463 0.920287 0.774075
0.920897 0.948302 0.835782
0.980636 0.947707 0.857618
0.0259861 0.0857099 0.766812
0.0259861 0.0856336 0.76585
0.0259861 0.0854963 0.764004
0.0259861 0.0841535 0.765881
0.2038 0.0764324 0.805173
0.710536 0.0667277 0.896635
0.905257 0.0643015 0.918074
0.974716 0.0632792 0.927962
0.974136 0.0635996 0.931945
0.0259861 0.0865644 0.769131
0.0259861 0.0865644 0.769833
0.0259861 0.086244 0.769375
0.0259861 0.0846723 0.772961
0.250706 0.0755627 0.823636
0.75256 0.0669261 0.910033
0.921569 0.0647135 0.928771
0.973526 0.0639506 0.936202
0.973068 0.06421 0.939345
0.0259861 0.0991684 0.768917
0.0259861 0.0997635 0.770748
0.0259861 0.0987716 0.771664
0.0259861 0.0933852 0.77641
0.289387 0.0761273 0.838285
0.78262 0.0671092 0.920073
0.934783 0.0650339 0.937133
0.972625 0.0644846 0.942519
0.97229 0.064683 0.9449
0.0259861 0.149584 0.767315
0.0259861 0.153414 0.769665
0.0259861 0.154742 0.771099
0.0259861 0.149371 0.772015
0.260349 0.125444 0.824002
0.780667 0.0934005 0.921981
0.933776 0.0677958 0.938537
0.972686 0.0645914 0.943633
0.972381 0.0648661 0.946075
0.0259861 0.327855 0.802426
0.0259861 0.33753 0.807767
0.0259861 0.344411 0.811719
0.0259861 0.339284 0.809415
0.15465 0.321004 0.782757
0.741024 0.300267 0.914244
0.926543 0.258686 0.937804
0.977264 0.231479 0.944442
0.976913 0.228946 0.946563
0.0259861 0.629404 0.887404
0.0259861 0.637873 0.889067
0.0259861 0.646464 0.890517
0.0259861 0.644434 0.890379
0.0259861 0.629862 0.884947
0.591073 0.62594 0.849622
0.909209 0.619989 0.936797
0.987442 0.620035 0.941192
0.987442 0.620768 0.942657
0.0259861 0.827634 0.87631
0.0259861 0.82916 0.876844
0.0259861 0.830945 0.877302
0.0259861 0.829114 0.876905
0.0259861 0.823407 0.876219
0.289387 0.783352 0.852628
0.846601 0.842222 0.912459
0.960647 0.849653 0.930724
0.98677 0.847898 0.931868
0.0259861 0.899702 0.86482
0.0259861 0.899382 0.8645
0.0259861 0.898772 0.864118
0.0259861 0.895949 0.862654
0.0259861 0.890593 0.860456
0.0772564 0.860029 0.839429
0.78735 0.920165 0.913649
0.934859 0.923384 0.923766
0.984344 0.92134 0.924224
0.0259861 0.931899 0.863752
0.0259861 0.932006 0.862318
0.0259861 0.932128 0.860624
0.0259861 0.932342 0.857557
0.0259861 0.931701 0.853635
0.0259861 0.907088 0.83714
0.643168 0.937362 0.872038
0.879301 0.940764 0.881758
0.972244 0.953796 0.919631
0.0259861 0.0882734 0.791882
0.0259861 0.0881514 0.79057
0.0259861 0.0879377 0.788312
0.0259861 0.0870069 0.787884
0.160433 0.0803388 0.821042
0.685145 0.0691997 0.922667
0.896406 0.066743 0.946883
0.970581 0.0656901 0.957137
0.970138 0.0659495 0.96025
0.0259861 0.0889143 0.79501
0.0259861 0.0889601 0.796048
0.0259861 0.0887312 0.795712
0.0259861 0.0875563 0.797909
0.228107 0.0788128 0.844709
0.741543 0.0692302 0.937728
0.916213 0.0670634 0.957244
0.969573 0.0662852 0.964446
0.969268 0.0664683 0.96669
0.0259861 0.10016 0.795392
0.0259861 0.100923 0.797147
0.0259861 0.0999466 0.797772
0.0259861 0.0951858 0.801541
0.272877 0.078584 0.860487
0.776196 0.069276 0.947631
0.930694 0.0672618 0.96466
0.968856 0.0666972 0.969696
0.968627 0.0668345 0.971389
0.0259861 0.150866 0.793851
0.0259861 0.15494 0.795911
0.0259861 0.156344 0.796674
0.0259861 0.150958 0.797314
0.246418 0.126986 0.846906
0.774609 0.0939803 0.949416
0.9299 0.0694133 0.96582
0.968978 0.0668193 0.970565
0.968765 0.0670176 0.972259
0.0259861 0.331014 0.826734
0.0259861 0.341054 0.831876
0.0259861 0.348257 0.835599
0.0259861 0.343313 0.833509
0.142565 0.325032 0.80827
0.731762 0.301839 0.939116
0.922576 0.261143 0.965179
0.973922 0.232837 0.971817
0.973617 0.231006 0.973098
0.0259861 0.631495 0.916686
0.0259861 0.640192 0.918318
0.0259861 0.648829 0.919692
0.0259861 0.646677 0.919448
0.0259861 0.632441 0.914336
0.575357 0.621927 0.866835
0.902144 0.605005 0.966537
0.986831 0.610315 0.97145
0.987106 0.61059 0.972259
0.0259861 0.826764 0.911543
0.0259861 0.828336 0.911925
0.0259861 0.830045 0.912154
0.0259861 0.828016 0.911833
0.0259861 0.821988 0.91136
0.254658 0.777935 0.883894
0.824796 0.829343 0.932982
0.956588 0.83827 0.959045
0.988769 0.846311 0.962066
0.0259861 0.898878 0.89688
0.0259861 0.898528 0.896742
0.0259861 0.89781 0.896437
0.0259861 0.89482 0.895476
0.0259861 0.889281 0.894102
0.0535439 0.860059 0.875868
0.764065 0.90956 0.941238
0.918883 0.912276 0.946014
0.984161 0.920439 0.955581
0.0259861 0.929839 0.893065
0.0259861 0.9299 0.892241
0.0259861 0.929992 0.890974
0.0259861 0.930144 0.88867
0.0259861 0.929168 0.885786
0.0259861 0.906981 0.872587
0.67985 0.93611 0.916487
0.886458 0.955184 0.941573
0.967193 0.957031 0.951293
