assets/luts/Cool_Natural_Breeze.cube
#Created by: Affinity Photo (Serif Europe Ltd.)
TITLE "Cool Natural Breeze"
#LUT size
LUT_3D_SIZE 5
#data domain
#LUT data points
DOMAIN_MIN 0.000000 0.000000 0.000000
DOMAIN_MAX 0.903226 0.903226 0.903226
0.000000 0.000000 0.000000
0.139988 0.000000 0.000000
0.384109 0.000000 0.000000
0.626835 0.000000 0.000000
0.854808 0.000000 0.000000
0.000000 0.145180 0.000000
0.134081 0.145459 0.000000
0.382040 0.146670 0.000000
0.625717 0.149222 0.000000
0.854192 0.153375 0.000609
0.000000 0.393997 0.000000
0.105493 0.394096 0.000000
0.372854 0.394527 0.000000
0.620812 0.395445 0.000562
0.851494 0.396962 0.019554
0.000000 0.641432 0.022491
0.011527 0.641485 0.023560
0.352330 0.641718 0.028089
0.610175 0.642214 0.037101
0.845665 0.643036 0.050541
0.000000 0.871167 0.068956
0.000000 0.871196 0.069660
0.314798 0.871322 0.072681
0.591948 0.871591 0.078892
0.835757 0.872037 0.088598
0.000000 0.000000 0.159937
0.139024 0.000000 0.160327
0.383768 0.000000 0.162018
0.626650 0.000000 0.165568
0.854706 0.000000 0.171312
0.000000 0.144855 0.161308
0.133083 0.145135 0.161695
0.381696 0.146348 0.163373
0.625532 0.148905 0.166898
0.854090 0.153065 0.172602
0.000000 0.393881 0.167169
0.104298 0.393980 0.167544
0.372500 0.394412 0.169171
0.620624 0.395331 0.172590
0.851391 0.396848 0.178128
0.000000 0.641369 0.179078
0.008817 0.641423 0.179431
0.351952 0.641656 0.180960
0.609983 0.642152 0.184177
0.845561 0.642974 0.189400
0.000000 0.871134 0.197354
0.000000 0.871162 0.197675
0.314367 0.871289 0.199071
0.591748 0.871558 0.202012
0.835648 0.872003 0.206800
0.000000 0.000000 0.422073
0.134758 0.000000 0.422212
0.382274 0.000000 0.422815
0.625844 0.000000 0.424096
0.854262 0.000000 0.426211
0.000000 0.143431 0.422561
0.128661 0.143713 0.422700
0.380192 0.144936 0.423302
0.624724 0.147513 0.424581
0.853645 0.151706 0.426693
0.000000 0.393378 0.424681
0.098969 0.393477 0.424818
0.370952 0.393910 0.425417
0.619807 0.394830 0.426688
0.850942 0.396349 0.428787
0.000000 0.641098 0.429153
0.000000 0.641152 0.429288
0.350295 0.641385 0.429879
0.609145 0.641881 0.431135
0.845103 0.642703 0.433208
0.000000 0.870987 0.436446
0.000000 0.871015 0.436579
0.312477 0.871142 0.437158
0.590875 0.871411 0.438388
0.835177 0.871856 0.440419
0.000000 0.000000 0.682582
0.125289 0.000000 0.682656
0.379068 0.000000 0.682978
0.624121 0.000000 0.683662
0.853313 0.000000 0.684794
0.000000 0.140358 0.682842
0.118822 0.140645 0.682916
0.376965 0.141889 0.683237
0.622996 0.144512 0.683921
0.852695 0.148775 0.685052
0.000000 0.392303 0.683974
0.086919 0.392403 0.684048
0.367628 0.392837 0.684368
0.618060 0.393760 0.685050
0.849983 0.395284 0.686178
0.000000 0.640520 0.686375
0.000000 0.640573 0.686448
0.346736 0.640807 0.686766
0.607355 0.641304 0.687444
0.844126 0.642127 0.688566
0.000000 0.870673 0.690326
0.000000 0.870702 0.690398
0.308408 0.870829 0.690714
0.589009 0.871098 0.691386
0.834169 0.871544 0.692497
0.000000 0.000000 0.916133
0.108245 0.000000 0.916172
0.373679 0.000000 0.916341
0.621248 0.000000 0.916701
0.851734 0.000000 0.917298
0.000000 0.135136 0.916270
0.101010 0.135432 0.916309
0.371539 0.136715 0.916478
0.620117 0.139417 0.916838
0.851112 0.143806 0.917435
0.000000 0.390513 0.916866
0.064232 0.390613 0.916905
0.362035 0.391049 0.917074
0.615147 0.391977 0.917433
0.848386 0.393510 0.918029
0.000000 0.639558 0.918133
0.000000 0.639612 0.918172
0.340736 0.639846 0.918340
0.604371 0.640344 0.918699
0.842499 0.641169 0.919293
0.000000 0.870153 0.920226
0.000000 0.870182 0.920265
0.301521 0.870309 0.920432
0.585898 0.870578 0.920789
0.832491 0.871025 0.921380
