assets/luts/Cool_Natural_Breeze.cube
#Created by: Affinity Photo (Serif Europe Ltd.)
TITLE "Cool Natural Breeze"
#LUT size
LUT_3D_SIZE 8
#data domain
#LUT data points
DOMAIN_MIN 0.000000 0.000000 0.000000
DOMAIN_MAX 0.903226 0.903226 0.903226
0.000000 0.000000 0.000000
0.036866 0.000000 0.000000
0.174972 0.000000 0.000000
0.314663 0.000000 0.000000
0.453405 0.000000 0.000000
0.592191 0.000000 0.000000
0.728775 0.000000 0.000000
0.854808 0.000000 0.000000
0.000000 0.039955 0.000000
0.033355 0.040121 0.000000
0.173631 0.040770 0.000000
0.313935 0.042118 0.000000
0.452934 0.044305 0.000000
0.591854 0.047417 0.000000
0.728530 0.051496 0.000000
0.854636 0.056543 0.000000
0.000000 0.180853 0.000000
0.018243 0.180917 0.000000
0.168278 0.181169 0.000000
0.311058 0.181696 0.000000
0.451081 0.182561 0.000000
0.590529 0.183816 0.000000
0.727569 0.185501 0.000000
0.853962 0.187649 0.002411
0.000000 0.323215 0.000000
0.000000 0.323250 0.000000
0.156525 0.323387 0.000000
0.304925 0.323674 0.000000
0.447164 0.324147 0.000000
0.587737 0.324835 0.000000
0.725545 0.325763 0.000330
0.852543 0.326954 0.012692
0.000000 0.464647 0.000000
0.000000 0.464669 0.000000
0.135296 0.464758 0.000000
0.294499 0.464944 0.000000
0.440614 0.465250 0.000824
0.583097 0.465697 0.008098
0.722188 0.466300 0.017046
0.850189 0.467075 0.027411
0.000000 0.606188 0.015911
0.000000 0.606204 0.016233
0.098460 0.606267 0.017484
0.278513 0.606400 0.020053
0.430845 0.606619 0.024140
0.576245 0.606939 0.029804
0.717242 0.607370 0.036992
0.846725 0.607926 0.045578
0.000000 0.744716 0.042327
0.000000 0.744728 0.042573
0.024514 0.744773 0.043535
0.255118 0.744869 0.045526
0.417177 0.745027 0.048732
0.566799 0.745257 0.053248
0.710452 0.745567 0.059094
0.841976 0.745967 0.066224
0.000000 0.871167 0.068956
0.000000 0.871175 0.069153
0.000000 0.871207 0.069921
0.221122 0.871273 0.071518
0.398735 0.871383 0.074108
0.554334 0.871543 0.077793
0.701541 0.871759 0.082623
0.835757 0.872037 0.088598
0.000000 0.000000 0.048748
0.036293 0.000000 0.048980
0.174750 0.000000 0.049889
0.314542 0.000000 0.051771
0.453327 0.000000 0.054808
0.592135 0.000000 0.059099
0.728734 0.000000 0.064673
0.854780 0.000000 0.071498
0.000000 0.039761 0.049566
0.032763 0.039928 0.049797
0.173409 0.040578 0.050699
0.313814 0.041929 0.052568
0.452856 0.044119 0.055584
0.591798 0.047236 0.059848
0.728489 0.051322 0.065388
0.854608 0.056376 0.072176
0.000000 0.180779 0.052721
0.017550 0.180843 0.052945
0.168049 0.181095 0.053823
0.310936 0.181621 0.055643
0.451003 0.182487 0.058582
0.590473 0.183742 0.062743
0.727528 0.185428 0.068157
0.853934 0.187577 0.074803
0.000000 0.323175 0.059072
0.000000 0.323209 0.059285
0.156281 0.323347 0.060117
0.304800 0.323634 0.061843
0.447085 0.324107 0.064637
0.587681 0.324795 0.068601
0.725504 0.325723 0.073775
0.852514 0.326913 0.080146
0.000000 0.464620 0.068862
0.000000 0.464643 0.069059
0.135020 0.464732 0.069828
0.294369 0.464918 0.071426
0.440533 0.465224 0.074017
0.583040 0.465670 0.077705
0.722146 0.466274 0.082538
0.850160 0.467049 0.088516
0.000000 0.606169 0.081907
0.000000 0.606185 0.082085
0.098111 0.606248 0.082782
0.278374 0.606381 0.084231
0.430762 0.606601 0.086587
0.576187 0.606920 0.089952
0.717200 0.607352 0.094380
0.846696 0.607907 0.099887
0.000000 0.744702 0.097775
0.000000 0.744714 0.097934
0.023866 0.744760 0.098556
0.254966 0.744855 0.099853
0.417090 0.745013 0.101966
0.566739 0.745243 0.104993
0.710409 0.745554 0.108996
0.841947 0.745954 0.113998
0.000000 0.871158 0.115949
0.000000 0.871166 0.116090
0.000000 0.871198 0.116642
0.220946 0.871264 0.117794
0.398644 0.871374 0.119675
0.554273 0.871533 0.122377
0.701498 0.871749 0.125964
0.835726 0.872027 0.130468
0.000000 0.000000 0.197554
0.034014 0.000000 0.197644
0.173880 0.000000 0.197995
0.314069 0.000000 0.198730
0.453021 0.000000 0.199936
0.591916 0.000000 0.201681
0.728575 0.000000 0.204020
0.854668 0.000000 0.206992
0.000000 0.038999 0.197870
0.030402 0.039166 0.197960
0.172532 0.039821 0.198310
0.313340 0.041181 0.199044
0.452550 0.043387 0.200248
0.591579 0.046525 0.201991
0.728330 0.050635 0.204326
0.854496 0.055719 0.207293
0.000000 0.180485 0.199105
0.014777 0.180550 0.199194
0.167147 0.180802 0.199542
0.310457 0.181329 0.200272
0.450695 0.182196 0.201468
0.590253 0.183453 0.203201
0.727369 0.185141 0.205522
0.853822 0.187293 0.208473
0.000000 0.323015 0.201670
0.000000 0.323050 0.201758
0.155319 0.323187 0.202102
0.304310 0.323475 0.202823
0.446774 0.323948 0.204005
0.587460 0.324636 0.205716
0.725344 0.325565 0.208010
0.852402 0.326756 0.210926
0.000000 0.464517 0.205830
0.000000 0.464540 0.205916
0.133933 0.464629 0.206253
0.293859 0.464815 0.206960
0.440217 0.465121 0.208118
0.582817 0.465567 0.209797
0.721985 0.466171 0.212046
0.850047 0.466946 0.214908
0.000000 0.606095 0.211750
0.000000 0.606111 0.211833
0.096734 0.606175 0.212162
0.277832 0.606308 0.212848
0.430436 0.606527 0.213975
0.575960 0.606846 0.215608
0.717037 0.607278 0.217797
0.846582 0.607833 0.220584
0.000000 0.744649 0.219507
0.000000 0.744661 0.219588
0.021278 0.744707 0.219904
0.254369 0.744802 0.220566
0.416752 0.744960 0.221654
0.566508 0.745190 0.223230
0.710243 0.745501 0.225344
0.841831 0.745901 0.228037
0.000000 0.871121 0.229101
0.000000 0.871129 0.229179
0.000000 0.871161 0.229482
0.220252 0.871227 0.230116
0.398287 0.871337 0.231157
0.554034 0.871496 0.232667
0.701328 0.871713 0.234694
0.835608 0.871990 0.237277
0.000000 0.000000 0.347490
0.029061 0.000000 0.347538
0.172041 0.000000 0.347730
0.313075 0.000000 0.348130
0.452379 0.000000 0.348790
0.591457 0.000000 0.349749
0.728242 0.000000 0.351042
0.854434 0.000000 0.352698
0.000000 0.037382 0.347661
0.025263 0.037552 0.347710
0.170680 0.038217 0.347901
0.312343 0.039597 0.348302
0.451907 0.041835 0.348961
0.591119 0.045017 0.349919
0.727997 0.049182 0.351211
0.854262 0.054329 0.352866
0.000000 0.179869 0.348335
0.008665 0.179933 0.348384
0.165241 0.180186 0.348574
0.309449 0.180715 0.348974
0.450049 0.181585 0.349632
0.589792 0.182846 0.350588
0.727034 0.184539 0.351877
0.853587 0.186698 0.353528
0.000000 0.322680 0.349743
0.000000 0.322715 0.349791
0.153286 0.322852 0.349981
0.303279 0.323140 0.350379
0.446121 0.323614 0.351033
0.586996 0.324303 0.351985
0.725008 0.325233 0.353268
0.852166 0.326425 0.354912
0.000000 0.464301 0.352048
0.000000 0.464323 0.352096
0.131631 0.464412 0.352285
0.292787 0.464598 0.352680
0.439551 0.464905 0.353329
0.582348 0.465351 0.354274
0.721646 0.465955 0.355547
0.849809 0.466731 0.357178
0.000000 0.605940 0.355379
0.000000 0.605956 0.355426
0.093803 0.606020 0.355612
0.276690 0.606153 0.356003
0.429753 0.606372 0.356645
0.575484 0.606692 0.357579
0.716694 0.607124 0.358839
0.846341 0.607679 0.360453
0.000000 0.744538 0.359827
0.000000 0.744549 0.359874
0.015607 0.744595 0.360058
0.253112 0.744691 0.360443
0.416041 0.744849 0.361076
0.566021 0.745079 0.361996
0.709894 0.745390 0.363238
0.841587 0.745790 0.364829
0.000000 0.871044 0.365461
0.000000 0.871052 0.365507
0.000000 0.871083 0.365687
0.218790 0.871150 0.366065
0.397535 0.871259 0.366686
0.553534 0.871419 0.367590
0.700972 0.871635 0.368809
0.835360 0.871913 0.370372
0.000000 0.000000 0.496596
0.020313 0.000000 0.496628
0.168971 0.000000 0.496752
0.311428 0.000000 0.497012
0.451319 0.000000 0.497440
0.590698 0.000000 0.498064
0.727692 0.000000 0.498907
0.854048 0.000000 0.499989
0.000000 0.034661 0.496707
0.016140 0.034836 0.496739
0.167587 0.035518 0.496863
0.310691 0.036934 0.497123
0.450845 0.039228 0.497552
0.590360 0.042486 0.498175
0.727446 0.046745 0.499018
0.853876 0.052000 0.500100
0.000000 0.178848 0.497145
0.000000 0.178913 0.497176
0.162056 0.179167 0.497300
0.307780 0.179699 0.497560
0.448982 0.180573 0.497988
0.589031 0.181840 0.498611
0.726483 0.183542 0.499453
0.853200 0.185712 0.500534
0.000000 0.322127 0.498060
0.000000 0.322162 0.498092
0.149882 0.322300 0.498215
0.301571 0.322588 0.498475
0.445042 0.323063 0.498902
0.586230 0.323753 0.499523
0.724454 0.324685 0.500363
0.851777 0.325880 0.501441
0.000000 0.463943 0.499565
0.000000 0.463966 0.499596
0.127765 0.464055 0.499719
0.291009 0.464241 0.499978
0.438452 0.464548 0.500403
0.581574 0.464995 0.501022
0.721087 0.465599 0.501859
0.849418 0.466376 0.502934
0.000000 0.605685 0.501748
0.000000 0.605701 0.501780
0.088836 0.605765 0.501902
0.274796 0.605898 0.502159
0.428623 0.606117 0.502582
0.574698 0.606437 0.503198
0.716128 0.606869 0.504030
0.845945 0.607425 0.505099
0.000000 0.744354 0.504685
0.000000 0.744366 0.504716
0.005390 0.744411 0.504837
0.251025 0.744507 0.505092
0.414865 0.744665 0.505512
0.565218 0.744895 0.506124
0.709319 0.745206 0.506950
0.841185 0.745607 0.508011
0.000000 0.870916 0.508434
0.000000 0.870924 0.508465
0.000000 0.870956 0.508585
0.216359 0.871022 0.508838
0.396293 0.871132 0.509254
0.552708 0.871292 0.509860
0.700383 0.871508 0.510679
0.834950 0.871786 0.511730
0.000000 0.000000 0.645789
0.005854 0.000000 0.645812
0.164402 0.000000 0.645900
0.309008 0.000000 0.646084
0.449767 0.000000 0.646388
0.589591 0.000000 0.646831
0.726888 0.000000 0.647429
0.853485 0.000000 0.648198
0.000000 0.030561 0.645868
0.000901 0.030743 0.645891
0.162984 0.031453 0.645979
0.308265 0.032925 0.646163
0.449291 0.035308 0.646467
0.589252 0.038686 0.646910
0.726643 0.043094 0.647508
0.853312 0.048519 0.648277
0.000000 0.177350 0.646178
0.000000 0.177415 0.646201
0.157311 0.177671 0.646289
0.305327 0.178208 0.646473
0.447420 0.179089 0.646777
0.587919 0.180365 0.647219
0.725677 0.182080 0.647817
0.852635 0.184266 0.648585
0.000000 0.321319 0.646828
0.000000 0.321354 0.646850
0.144800 0.321492 0.646938
0.299061 0.321782 0.647122
0.443463 0.322257 0.647425
0.585111 0.322950 0.647867
0.723644 0.323884 0.648464
0.851209 0.325083 0.649231
0.000000 0.463422 0.647897
0.000000 0.463444 0.647919
0.121960 0.463533 0.648006
0.288395 0.463720 0.648190
0.436844 0.464027 0.648493
0.580443 0.464475 0.648933
0.720270 0.465080 0.649529
0.848846 0.465858 0.650294
0.000000 0.605312 0.649450
0.000000 0.605329 0.649472
0.081261 0.605392 0.649559
0.272010 0.605525 0.649742
0.426969 0.605745 0.650044
0.573549 0.606065 0.650483
0.715301 0.606498 0.651076
0.845367 0.607054 0.651839
0.000000 0.744086 0.651543
0.000000 0.744098 0.651565
0.000000 0.744143 0.651652
0.247949 0.744239 0.651834
0.413144 0.744397 0.652134
0.564045 0.744628 0.652571
0.708478 0.744939 0.653162
0.840597 0.745339 0.653921
0.000000 0.870730 0.654223
0.000000 0.870738 0.654245
0.000000 0.870770 0.654332
0.212764 0.870836 0.654512
0.394473 0.870946 0.654811
0.551501 0.871106 0.655245
0.699524 0.871322 0.655832
0.834351 0.871600 0.656586
0.000000 0.000000 0.789039
0.000000 0.000000 0.789055
0.158035 0.000000 0.789117
0.305699 0.000000 0.789246
0.447656 0.000000 0.789459
0.588087 0.000000 0.789769
0.725799 0.000000 0.790189
0.852720 0.000000 0.790728
0.000000 0.024731 0.789095
0.000000 0.024923 0.789110
0.156567 0.025676 0.789172
0.304947 0.027236 0.789301
0.447178 0.029755 0.789514
0.587747 0.033317 0.789824
0.725552 0.037949 0.790244
0.852547 0.043629 0.790783
0.000000 0.175304 0.789312
0.000000 0.175370 0.789328
0.150686 0.175629 0.789389
0.301973 0.176171 0.789518
0.445295 0.177061 0.789731
0.586410 0.178352 0.790041
0.724584 0.180084 0.790460
0.851868 0.182292 0.790999
0.000000 0.320222 0.789767
0.000000 0.320257 0.789783
0.137677 0.320396 0.789844
0.295626 0.320686 0.789973
0.441315 0.321164 0.790186
0.583592 0.321859 0.790496
0.722545 0.322797 0.790914
0.850440 0.324000 0.791452
0.000000 0.462715 0.790516
0.000000 0.462737 0.790532
0.113754 0.462826 0.790593
0.284816 0.463013 0.790722
0.434656 0.463321 0.790934
0.578908 0.463770 0.791243
0.719162 0.464376 0.791661
0.848070 0.465155 0.792198
0.000000 0.604808 0.791606
0.000000 0.604824 0.791621
0.070276 0.604888 0.791682
0.268189 0.605021 0.791811
0.424719 0.605241 0.792022
0.571990 0.605561 0.792330
0.714179 0.605994 0.792747
0.844582 0.606551 0.793282
0.000000 0.743723 0.793074
0.000000 0.743735 0.793090
0.000000 0.743780 0.793151
0.243721 0.743877 0.793279
0.410801 0.744035 0.793489
0.562452 0.744265 0.793796
0.707338 0.744577 0.794211
0.839801 0.744978 0.794744
0.000000 0.870478 0.794957
0.000000 0.870486 0.794972
0.000000 0.870518 0.795033
0.207800 0.870584 0.795160
0.391995 0.870694 0.795370
0.549862 0.870854 0.795675
0.698359 0.871071 0.796087
0.833539 0.871349 0.796618
0.000000 0.000000 0.916133
0.000000 0.000000 0.916144
0.149496 0.000000 0.916186
0.301378 0.000000 0.916275
0.444920 0.000000 0.916422
0.586144 0.000000 0.916636
0.724391 0.000000 0.916926
0.851734 0.000000 0.917298
0.000000 0.016662 0.916171
0.000000 0.016872 0.916182
0.147956 0.017692 0.916224
0.300614 0.019388 0.916314
0.444439 0.022117 0.916461
0.585802 0.025961 0.916674
0.724144 0.030933 0.916964
0.851560 0.036993 0.917336
0.000000 0.172638 0.916321
0.000000 0.172705 0.916332
0.141776 0.172967 0.916374
0.297591 0.173517 0.916463
0.442542 0.174419 0.916610
0.584459 0.175728 0.916824
0.723172 0.177484 0.917114
0.850879 0.179721 0.917486
0.000000 0.318803 0.916635
0.000000 0.318839 0.916646
0.128043 0.318978 0.916688
0.291136 0.319270 0.916777
0.438531 0.319750 0.916924
0.581629 0.320449 0.917138
0.721127 0.321391 0.917427
0.849446 0.322600 0.917799
0.000000 0.461802 0.917152
0.000000 0.461825 0.917163
0.102506 0.461915 0.917205
0.280133 0.462102 0.917294
0.431819 0.462411 0.917441
0.576925 0.462860 0.917654
0.717732 0.463468 0.917943
0.847068 0.464249 0.918315
0.000000 0.604157 0.917905
0.000000 0.604173 0.917916
0.054564 0.604237 0.917958
0.263180 0.604371 0.918047
0.421800 0.604591 0.918193
0.569975 0.604912 0.918406
0.712731 0.605346 0.918694
0.843570 0.605903 0.919065
0.000000 0.743255 0.918921
0.000000 0.743267 0.918932
0.000000 0.743313 0.918974
0.238161 0.743409 0.919063
0.407761 0.743567 0.919209
0.560393 0.743798 0.919421
0.705865 0.744110 0.919709
0.838773 0.744511 0.920079
0.000000 0.870153 0.920226
0.000000 0.870161 0.920237
0.000000 0.870193 0.920279
0.201231 0.870260 0.920367
0.388776 0.870370 0.920513
0.547743 0.870530 0.920725
0.696854 0.870746 0.921011
0.832491 0.871025 0.921380
