assets/luts/Cool_Natural_Breeze.cube
#Created by: Affinity Photo (Serif Europe Ltd.)
TITLE "Cool Natural Breeze"
#LUT size
LUT_3D_SIZE 32
#data domain
DOMAIN_MIN 0.0 0.0 0.0
DOMAIN_MAX 1.0 1.0 1.0
#LUT data points
0.000000 0.000000 0.000000
0.000000 0.000000 0.000000
0.000000 0.000000 0.000000
0.004228 0.000000 0.000000
0.036866 0.000000 0.000000
0.070713 0.000000 0.000000
0.105176 0.000000 0.000000
0.139988 0.000000 0.000000
0.174972 0.000000 0.000000
0.209990 0.000000 0.000000
0.244954 0.000000 0.000000
0.279845 0.000000 0.000000
0.314663 0.000000 0.000000
0.349413 0.000000 0.000000
0.384109 0.000000 0.000000
0.418766 0.000000 0.000000
0.453405 0.000000 0.000000
0.488047 0.000000 0.000000
0.522718 0.000000 0.000000
0.557443 0.000000 0.000000
0.592191 0.000000 0.000000
0.626835 0.000000 0.000000
0.661239 0.000000 0.000000
0.695265 0.000000 0.000000
0.728775 0.000000 0.000000
0.761626 0.000000 0.000000
0.793678 0.000000 0.000000
0.824786 0.000000 0.000000
0.854808 0.000000 0.000000
0.883716 0.000000 0.000000
0.911767 0.000000 0.003520
0.939268 0.000000 0.007502
0.000000 0.000000 0.000000
0.000000 0.000000 0.000000
0.000000 0.000000 0.000000
0.004228 0.000000 0.000000
0.036866 0.000000 0.000000
0.070713 0.000000 0.000000
0.105176 0.000000 0.000000
0.139988 0.000000 0.000000
0.174972 0.000000 0.000000
0.209990 0.000000 0.000000
0.244954 0.000000 0.000000
0.279845 0.000000 0.000000
0.314663 0.000000 0.000000
0.349413 0.000000 0.000000
0.384109 0.000000 0.000000
0.418766 0.000000 0.000000
0.453405 0.000000 0.000000
0.488047 0.000000 0.000000
0.522718 0.000000 0.000000
0.557443 0.000000 0.000000
0.592191 0.000000 0.000000
0.626835 0.000000 0.000000
0.661239 0.000000 0.000000
0.695265 0.000000 0.000000
0.728775 0.000000 0.000000
0.761626 0.000000 0.000000
0.793678 0.000000 0.000000
0.824786 0.000000 0.000000
0.854808 0.000000 0.000000
0.883716 0.000000 0.000000
0.911767 0.000000 0.003520
0.939268 0.000000 0.007502
0.000000 0.000000 0.000000
0.000000 0.000000 0.000000
0.000000 0.000000 0.000000
0.003228 0.000000 0.000000
0.036164 0.000000 0.000000
0.070189 0.000000 0.000000
0.104768 0.000000 0.000000
0.139659 0.000000 0.000000
0.174701 0.000000 0.000000
0.209762 0.000000 0.000000
0.244760 0.000000 0.000000
0.279677 0.000000 0.000000
0.314515 0.000000 0.000000
0.349283 0.000000 0.000000
0.383993 0.000000 0.000000
0.418661 0.000000 0.000000
0.453310 0.000000 0.000000
0.487960 0.000000 0.000000
0.522638 0.000000 0.000000
0.557369 0.000000 0.000000
0.592122 0.000000 0.000000
0.626772 0.000000 0.000000
0.661181 0.000000 0.000000
0.695212 0.000000 0.000000
0.728725 0.000000 0.000000
0.761580 0.000000 0.000000
0.793636 0.000000 0.000000
0.824748 0.000000 0.000000
0.854773 0.000983 0.000000
0.883684 0.003446 0.000000
0.911738 0.005963 0.003785
0.939240 0.008531 0.007755
0.000000 0.006636 0.000000
0.000000 0.006636 0.000000
0.000000 0.006684 0.000000
0.001491 0.006765 0.000000
0.034953 0.006871 0.000000
0.069289 0.007022 0.000000
0.104068 0.007223 0.000000
0.139096 0.007477 0.000000
0.174237 0.007790 0.000000
0.209373 0.008163 0.000000
0.244427 0.008602 0.000000
0.279389 0.009108 0.000000
0.314263 0.009684 0.000000
0.349060 0.010331 0.000000
0.383793 0.011052 0.000000
0.418482 0.011847 0.000000
0.453147 0.012718 0.000000
0.487811 0.013664 0.000000
0.522501 0.014687 0.000000
0.557243 0.015787 0.000000
0.592006 0.016962 0.000000
0.626664 0.018213 0.000000
0.661081 0.019538 0.000000
0.695120 0.020937 0.000000
0.728640 0.022409 0.000000
0.761502 0.023952 0.000000
0.793564 0.025564 0.000000
0.824683 0.027244 0.000000
0.854714 0.028991 0.000000
0.883630 0.030802 0.000298
0.911688 0.032676 0.004236
0.939193 0.034611 0.008185
0.000000 0.039955 0.000000
0.000000 0.039955 0.000000
0.000000 0.039988 0.000000
0.000000 0.040046 0.000000
0.033355 0.040121 0.000000
0.068108 0.040227 0.000000
0.103151 0.040369 0.000000
0.138361 0.040549 0.000000
0.173631 0.040770 0.000000
0.208865 0.041035 0.000000
0.243994 0.041346 0.000000
0.279014 0.041707 0.000000
0.313935 0.042118 0.000000
0.348769 0.042582 0.000000
0.383533 0.043100 0.000000
0.418248 0.043674 0.000000
0.452934 0.044305 0.000000
0.487617 0.044994 0.000000
0.522323 0.045742 0.000000
0.557078 0.046549 0.000000
0.591854 0.047417 0.000000
0.626523 0.048345 0.000000
0.660951 0.049335 0.000000
0.695000 0.050385 0.000000
0.728530 0.051496 0.000000
0.761401 0.052668 0.000000
0.793471 0.053900 0.000000
0.824598 0.055192 0.000000
0.854636 0.056543 0.000000
0.883559 0.057953 0.000911
0.911622 0.059420 0.004821
0.939131 0.060945 0.008743
0.000000 0.074501 0.000000
0.000000 0.074501 0.000000
0.000000 0.074526 0.000000
0.000000 0.074569 0.000000
0.031036 0.074625 0.000000
0.066406 0.074705 0.000000
0.101836 0.074811 0.000000
0.137307 0.074945 0.000000
0.172765 0.075111 0.000000
0.208139 0.075309 0.000000
0.243375 0.075543 0.000000
0.278479 0.075814 0.000000
0.313466 0.076123 0.000000
0.348354 0.076472 0.000000
0.383163 0.076863 0.000000
0.417914 0.077297 0.000000
0.452632 0.077775 0.000000
0.487341 0.078298 0.000000
0.522069 0.078867 0.000000
0.556844 0.079483 0.000000
0.591637 0.080147 0.000000
0.626323 0.080859 0.000000
0.660767 0.081620 0.000000
0.694829 0.082431 0.000000
0.728373 0.083291 0.000000
0.761257 0.084202 0.000000
0.793339 0.085163 0.000000
0.824477 0.086174 0.000000
0.854526 0.087235 0.000000
0.883458 0.088347 0.001776
0.911528 0.089509 0.005645
0.939044 0.090721 0.009530
0.000000 0.109669 0.000000
0.000000 0.109669 0.000000
0.000000 0.109688 0.000000
0.000000 0.109722 0.000000
0.027863 0.109765 0.000000
0.064104 0.109827 0.000000
0.100067 0.109910 0.000000
0.135895 0.110015 0.000000
0.171607 0.110144 0.000000
0.207169 0.110299 0.000000
0.242549 0.110482 0.000000
0.277765 0.110694 0.000000
0.312841 0.110936 0.000000
0.347801 0.111210 0.000000
0.382669 0.111516 0.000000
0.417470 0.111857 0.000000
0.452229 0.112232 0.000000
0.486973 0.112643 0.000000
0.521731 0.113092 0.000000
0.556532 0.113578 0.000000
0.591349 0.114102 0.000000
0.626057 0.114666 0.000000
0.660520 0.115270 0.000000
0.694602 0.115914 0.000000
0.728164 0.116598 0.000000
0.761064 0.117324 0.000000
0.793162 0.118092 0.000000
0.824315 0.118902 0.000000
0.854379 0.119754 0.000000
0.883323 0.120649 0.002913
0.911404 0.121586 0.006731
0.938927 0.122566 0.010567
0.000000 0.145180 0.000000
0.000000 0.145180 0.000000
0.000000 0.145196 0.000000
0.000000 0.145223 0.000000
0.023672 0.145258 0.000000
0.061112 0.145308 0.000000
0.097785 0.145375 0.000000
0.134081 0.145459 0.000000
0.170123 0.145563 0.000000
0.205929 0.145688 0.000000
0.241494 0.145836 0.000000
0.276853 0.146006 0.000000
0.312044 0.146202 0.000000
0.347096 0.146423 0.000000
0.382040 0.146670 0.000000
0.416903 0.146945 0.000000
0.451715 0.147249 0.000000
0.486504 0.147582 0.000000
0.521301 0.147945 0.000000
0.556135 0.148339 0.000000
0.590982 0.148764 0.000000
0.625717 0.149222 0.000000
0.660207 0.149713 0.000000
0.694313 0.150237 0.000000
0.727897 0.150795 0.000000
0.760819 0.151387 0.000000
0.792938 0.152014 0.000000
0.824110 0.152677 0.000000
0.854192 0.153375 0.000609
0.883152 0.154109 0.004338
0.911245 0.154879 0.008092
0.938778 0.155686 0.011869
0.000000 0.180853 0.000000
0.000000 0.180853 0.000000
0.000000 0.180866 0.000000
0.000000 0.180889 0.000000
0.018243 0.180917 0.000000
0.057321 0.180959 0.000000
0.094924 0.181013 0.000000
0.131819 0.181083 0.000000
0.168278 0.181169 0.000000
0.204390 0.181272 0.000000
0.240187 0.181394 0.000000
0.275726 0.181535 0.000000
0.311058 0.181696 0.000000
0.346225 0.181878 0.000000
0.381262 0.182083 0.000000
0.416204 0.182310 0.000000
0.451081 0.182561 0.000000
0.485926 0.182836 0.000000
0.520770 0.183137 0.000000
0.555645 0.183463 0.000000
0.590529 0.183816 0.000000
0.625299 0.184195 0.000000
0.659820 0.184602 0.000000
0.693957 0.185037 0.000000
0.727569 0.185501 0.000000
0.760517 0.185993 0.000000
0.792661 0.186515 0.000000
0.823857 0.187067 0.000000
0.853962 0.187649 0.002411
0.882941 0.188261 0.006060
0.911050 0.188905 0.009739
0.938595 0.189579 0.013447
0.000000 0.216545 0.000000
0.000000 0.216545 0.000000
0.000000 0.216556 0.000000
0.000000 0.216575 0.000000
0.011261 0.216599 0.000000
0.052598 0.216634 0.000000
0.091408 0.216680 0.000000
0.129059 0.216738 0.000000
0.166036 0.216810 0.000000
0.202526 0.216897 0.000000
0.238607 0.216999 0.000000
0.274364 0.217118 0.000000
0.309869 0.217253 0.000000
0.345175 0.217406 0.000000
0.380326 0.217578 0.000000
0.415362 0.217770 0.000000
0.450318 0.217981 0.000000
0.485230 0.218212 0.000000
0.520131 0.218465 0.000000
0.555056 0.218740 0.000000
0.589984 0.219037 0.000000
0.624795 0.219357 0.000000
0.659356 0.219700 0.000000
0.693528 0.220067 0.000000
0.727174 0.220459 0.000000
0.760154 0.220875 0.000000
0.792328 0.221316 0.000000
0.823553 0.221783 0.001005
0.853685 0.222275 0.004524
0.882687 0.222794 0.008083
0.910815 0.223339 0.011678
0.938375 0.223911 0.015307
0.000000 0.252176 0.000000
0.000000 0.252176 0.000000
0.000000 0.252185 0.000000
0.000000 0.252201 0.000000
0.002238 0.252222 0.000000
0.046773 0.252252 0.000000
0.087149 0.252291 0.000000
0.125746 0.252341 0.000000
0.163360 0.252403 0.000000
0.200307 0.252477 0.000000
0.236730 0.252564 0.000000
0.272750 0.252665 0.000000
0.308461 0.252781 0.000000
0.343933 0.252912 0.000000
0.379219 0.253059 0.000000
0.414367 0.253222 0.000000
0.449417 0.253403 0.000000
0.484408 0.253601 0.000000
0.519377 0.253817 0.000000
0.554360 0.254052 0.000000
0.589341 0.254307 0.000000
0.624202 0.254580 0.000000
0.658807 0.254874 0.000000
0.693022 0.255189 0.000000
0.726708 0.255524 0.000000
0.759726 0.255881 0.000000
0.791935 0.256259 0.000167
0.823194 0.256660 0.003532
0.853358 0.257083 0.006947
0.882388 0.257528 0.010407
0.910538 0.257997 0.013909
0.938115 0.258489 0.017450
0.000000 0.287733 0.000000
0.000000 0.287733 0.000000
0.000000 0.287741 0.000000
0.000000 0.287755 0.000000
0.000000 0.287772 0.000000
0.039609 0.287798 0.000000
0.082037 0.287832 0.000000
0.121816 0.287875 0.000000
0.160205 0.287929 0.000000
0.197703 0.287993 0.000000
0.234533 0.288068 0.000000
0.270864 0.288156 0.000000
0.306818 0.288256 0.000000
0.342485 0.288370 0.000000
0.377930 0.288497 0.000000
0.413208 0.288639 0.000000
0.448368 0.288795 0.000000
0.483452 0.288967 0.000000
0.518501 0.289155 0.000000
0.553552 0.289359 0.000000
0.588594 0.289579 0.000000
0.623511 0.289817 0.000000
0.658170 0.290072 0.000000
0.692434 0.290345 0.000000
0.726166 0.290636 0.000000
0.759228 0.290946 0.000000
0.791479 0.291275 0.003122
0.822776 0.291623 0.006370
0.852978 0.291991 0.009673
0.882041 0.292378 0.013027
0.910216 0.292786 0.016429
0.937814 0.293214 0.019875
0.000000 0.323215 0.000000
0.000000 0.323215 0.000000
0.000000 0.323222 0.000000
0.000000 0.323234 0.000000
0.000000 0.323250 0.000000
0.030766 0.323273 0.000000
0.075936 0.323302 0.000000
0.117194 0.323340 0.000000
0.156525 0.323387 0.000000
0.194679 0.323443 0.000000
0.231991 0.323510 0.000000
0.268687 0.323586 0.000000
0.304925 0.323674 0.000000
0.340818 0.323774 0.000000
0.376447 0.323886 0.000000
0.411877 0.324010 0.000000
0.447164 0.324147 0.000000
0.482355 0.324298 0.000000
0.517495 0.324463 0.000000
0.552624 0.324641 0.000000
0.587737 0.324835 0.000000
0.622720 0.325044 0.000000
0.657439 0.325268 0.000000
0.691760 0.325507 0.000000
0.725545 0.325763 0.000330
0.758657 0.326035 0.003319
0.790955 0.326324 0.006379
0.822298 0.326630 0.009505
0.852543 0.326954 0.012692
0.881642 0.327294 0.015935
0.909848 0.327653 0.019232
0.937469 0.328030 0.022577
0.000000 0.358632 0.000000
0.000000 0.358632 0.000000
0.000000 0.358638 0.000000
0.000000 0.358649 0.000000
0.000000 0.358663 0.000000
0.019706 0.358683 0.000000
0.068665 0.358709 0.000000
0.111791 0.358743 0.000000
0.152265 0.358784 0.000000
0.191199 0.358834 0.000000
0.229077 0.358893 0.000000
0.266197 0.358961 0.000000
0.302765 0.359039 0.000000
0.338919 0.359127 0.000000
0.374759 0.359226 0.000000
0.410364 0.359336 0.000000
0.445795 0.359458 0.000000
0.481109 0.359591 0.000000
0.516353 0.359737 0.000000
0.551571 0.359896 0.000000
0.586765 0.360067 0.000000
0.621822 0.360252 0.000000
0.656610 0.360451 0.000000
0.690995 0.360663 0.001360
0.724841 0.360890 0.004134
0.758010 0.361132 0.006990
0.790362 0.361388 0.009921
0.821756 0.361660 0.012922
0.852049 0.361947 0.015990
0.881191 0.362249 0.019120
0.909430 0.362568 0.022306
0.937077 0.362903 0.025547
0.000000 0.393997 0.000000
0.000000 0.393997 0.000000
0.000000 0.394002 0.000000
0.000000 0.394012 0.000000
0.000000 0.394024 0.000000
0.005476 0.394042 0.000000
0.059973 0.394066 0.000000
0.105493 0.394096 0.000000
0.147361 0.394133 0.000000
0.187220 0.394177 0.000000
0.225761 0.394230 0.000000
0.263373 0.394291 0.000000
0.300319 0.394360 0.000000
0.336772 0.394439 0.000000
0.372854 0.394527 0.000000
0.408657 0.394626 0.000000
0.444254 0.394735 0.000000
0.479706 0.394854 0.000000
0.515067 0.394985 0.000000
0.550387 0.395127 0.000000
0.585671 0.395280 0.000000
0.620812 0.395445 0.000562
0.655677 0.395623 0.003016
0.690135 0.395813 0.005565
0.724049 0.396017 0.008203
0.757282 0.396233 0.010926
0.789695 0.396462 0.013729
0.821146 0.396705 0.016606
0.851494 0.396962 0.019554
0.880683 0.397233 0.022567
0.908961 0.397519 0.025642
0.936638 0.397818 0.028775
0.000000 0.429328 0.000000
0.000000 0.429328 0.000000
0.000000 0.429333 0.000000
0.000000 0.429341 0.000000
0.000000 0.429353 0.000000
0.000000 0.429369 0.000000
0.049496 0.429390 0.000000
0.098157 0.429417 0.000000
0.141735 0.429450 0.000000
0.182695 0.429490 0.000000
0.222010 0.429538 0.000000
0.260191 0.429593 0.000000
0.297571 0.429655 0.000000
0.334365 0.429726 0.000000
0.370720 0.429806 0.000000
0.406747 0.429895 0.000000
0.442529 0.429993 0.000000
0.478138 0.430101 0.000000
0.513632 0.430218 0.000000
0.549065 0.430346 0.000944
0.584451 0.430484 0.003056
0.619685 0.430634 0.005273
0.654637 0.430794 0.007592
0.689176 0.430965 0.010007
0.723166 0.431148 0.012514
0.756471 0.431343 0.015108
0.788951 0.431550 0.017785
0.820466 0.431770 0.020539
0.850875 0.432002 0.023366
0.880117 0.432246 0.026263
0.908437 0.432504 0.029225
0.936148 0.432774 0.032248
0.000000 0.464647 0.000000
0.000000 0.464647 0.000000
0.000000 0.464651 0.000000
0.000000 0.464659 0.000000
0.000000 0.464669 0.000000
0.000000 0.464684 0.000000
0.036657 0.464703 0.000000
0.089593 0.464728 0.000000
0.135296 0.464758 0.000000
0.177569 0.464794 0.000000
0.217788 0.464837 0.000000
0.256624 0.464887 0.000000
0.294499 0.464944 0.000000
0.331679 0.465009 0.000000
0.368344 0.465081 0.000000
0.404623 0.465161 0.000000
0.440614 0.465250 0.000824
0.476397 0.465348 0.002472
0.512039 0.465455 0.004237
0.547599 0.465571 0.006113
0.583097 0.465697 0.008098
0.618435 0.465832 0.010187
0.653485 0.465978 0.012378
0.688113 0.466133 0.014666
0.722188 0.466300 0.017046
0.755571 0.466477 0.019515
0.788126 0.466665 0.022068
0.819713 0.466864 0.024701
0.850189 0.467075 0.027411
0.879491 0.467297 0.030192
0.907858 0.467531 0.033041
0.935606 0.467777 0.035955
0.000000 0.499978 0.000000
0.000000 0.499978 0.000000
0.000000 0.499982 0.000000
0.000000 0.499990 0.000000
0.000000 0.499999 0.000000
0.000000 0.500012 0.000000
0.020442 0.500030 0.000000
0.079538 0.500052 0.000000
0.127926 0.500080 0.000000
0.171776 0.500113 0.000000
0.213051 0.500152 0.000000
0.252642 0.500198 0.000507
0.291082 0.500250 0.001474
0.328700 0.500309 0.002557
0.365713 0.500375 0.003754
0.402274 0.500448 0.005066
0.438498 0.500530 0.006493
0.474475 0.500619 0.008033
0.510282 0.500717 0.009685
0.545983 0.500823 0.011445
0.581606 0.500938 0.013312
0.617059 0.501061 0.015282
0.652215 0.501194 0.017352
0.686943 0.501337 0.019519
0.721110 0.501489 0.021778
0.754581 0.501651 0.024127
0.787219 0.501822 0.026561
0.818883 0.502005 0.029077
0.849434 0.502197 0.031670
0.878801 0.502400 0.034338
0.907221 0.502614 0.037076
0.935009 0.502839 0.039881
0.000000 0.535349 0.002808
0.000000 0.535349 0.002808
0.000000 0.535353 0.002884
0.000000 0.535360 0.003014
0.000000 0.535368 0.003183
0.000000 0.535380 0.003422
0.000000 0.535397 0.003740
0.067605 0.535417 0.004143
0.119475 0.535443 0.004636
0.165237 0.535473 0.005225
0.207752 0.535509 0.005914
0.248214 0.535551 0.006706
0.287297 0.535599 0.007603
0.325409 0.535653 0.008608
0.362812 0.535714 0.009723
0.399688 0.535781 0.010946
0.436171 0.535856 0.012279
0.472365 0.535938 0.013720
0.508354 0.536028 0.015268
0.544210 0.536125 0.016922
0.579971 0.536231 0.018679
0.615550 0.536345 0.020538
0.650823 0.536467 0.022494
0.685660 0.536598 0.024547
0.719929 0.536738 0.026692
0.753496 0.536886 0.028925
0.786224 0.537044 0.031245
0.817975 0.537212 0.033647
0.848607 0.537389 0.036128
0.878046 0.537576 0.038685
0.906523 0.537773 0.041314
0.934357 0.537979 0.044012
0.000000 0.570779 0.009350
0.000000 0.570779 0.009350
0.000000 0.570783 0.009420
0.000000 0.570789 0.009540
0.000000 0.570797 0.009696
0.000000 0.570808 0.009918
0.000000 0.570823 0.010212
0.053192 0.570842 0.010585
0.109745 0.570865 0.011042
0.157855 0.570894 0.011588
0.201833 0.570927 0.012228
0.243301 0.570965 0.012964
0.283117 0.571009 0.013799
0.321785 0.571059 0.014735
0.359625 0.571115 0.015775
0.396853 0.571178 0.016918
0.433624 0.571247 0.018165
0.470057 0.571323 0.019516
0.506247 0.571405 0.020970
0.542274 0.571495 0.022525
0.578185 0.571593 0.024181
0.613903 0.571698 0.025936
0.649304 0.571811 0.027787
0.684260 0.571931 0.029732
0.718641 0.572060 0.031768
0.752313 0.572198 0.033893
0.785140 0.572344 0.036104
0.816984 0.572498 0.038397
0.847705 0.572662 0.040769
0.877223 0.572834 0.043219
0.905763 0.573016 0.045741
0.933647 0.573207 0.048334
0.000000 0.606188 0.015911
0.000000 0.606188 0.015911
0.000000 0.606191 0.015977
0.000000 0.606197 0.016088
0.000000 0.606204 0.016233
0.000000 0.606214 0.016439
0.000000 0.606228 0.016712
0.035239 0.606246 0.017059
0.098460 0.606267 0.017484
0.149510 0.606293 0.017992
0.195228 0.606324 0.018588
0.237862 0.606359 0.019274
0.278513 0.606400 0.020053
0.317809 0.606446 0.020928
0.356138 0.606498 0.021900
0.393755 0.606556 0.022970
0.430845 0.606619 0.024140
0.467542 0.606689 0.025408
0.503954 0.606766 0.026776
0.540169 0.606849 0.028241
0.576245 0.606939 0.029804
0.612113 0.607036 0.031462
0.647654 0.607140 0.033214
0.682740 0.607251 0.035058
0.717242 0.607370 0.036992
0.751028 0.607497 0.039014
0.783962 0.607632 0.041121
0.815908 0.607775 0.043310
0.846725 0.607926 0.045578
0.876329 0.608085 0.047924
0.904939 0.608253 0.050344
0.932876 0.608429 0.052835
0.000000 0.641432 0.022491
0.000000 0.641432 0.022491
0.000000 0.641435 0.022552
0.000000 0.641440 0.022656
0.000000 0.641447 0.022791
0.000000 0.641456 0.022982
0.000000 0.641469 0.023237
0.011527 0.641485 0.023560
0.085220 0.641505 0.023957
0.140045 0.641529 0.024432
0.187853 0.641557 0.024988
0.231847 0.641590 0.025629
0.273451 0.641628 0.026358
0.313455 0.641670 0.027178
0.352330 0.641718 0.028089
0.390382 0.641771 0.029094
0.427823 0.641830 0.030192
0.464811 0.641895 0.031386
0.501466 0.641965 0.032674
0.537887 0.642042 0.034056
0.574142 0.642125 0.035533
0.610175 0.642214 0.037101
0.645867 0.642310 0.038761
0.681094 0.642413 0.040511
0.715727 0.642523 0.042350
0.749637 0.642640 0.044274
0.782688 0.642765 0.046282
0.814744 0.642896 0.048372
0.845665 0.643036 0.050541
0.875363 0.643183 0.052787
0.904048 0.643337 0.055107
0.932044 0.643500 0.057499
0.000000 0.676366 0.029088
0.000000 0.676366 0.029088
0.000000 0.676369 0.029144
0.000000 0.676374 0.029241
0.000000 0.676380 0.029368
0.000000 0.676389 0.029547
0.000000 0.676400 0.029785
0.000000 0.676415 0.030087
0.069399 0.676434 0.030459
0.129255 0.676456 0.030903
0.179610 0.676482 0.031424
0.225197 0.676512 0.032025
0.267895 0.676547 0.032709
0.308699 0.676586 0.033478
0.348184 0.676630 0.034334
0.386717 0.676679 0.035279
0.424547 0.676733 0.036314
0.461853 0.676793 0.037438
0.498775 0.676858 0.038654
0.535421 0.676928 0.039960
0.571871 0.677005 0.041356
0.608082 0.677087 0.042842
0.643938 0.677176 0.044417
0.679318 0.677271 0.046079
0.714094 0.677372 0.047826
0.748137 0.677480 0.049659
0.781313 0.677595 0.051574
0.813488 0.677716 0.053570
0.844523 0.677845 0.055644
0.874322 0.677980 0.057795
0.903088 0.678123 0.060020
0.931147 0.678273 0.062317
0.000000 0.710844 0.035700
0.000000 0.710844 0.035700
0.000000 0.710846 0.035753
0.000000 0.710851 0.035844
0.000000 0.710856 0.035962
0.000000 0.710864 0.036130
0.000000 0.710875 0.036354
0.000000 0.710889 0.036637
0.049910 0.710906 0.036986
0.116855 0.710926 0.037403
0.170374 0.710950 0.037892
0.217844 0.710978 0.038457
0.261800 0.711010 0.039100
0.303509 0.711046 0.039823
0.343678 0.711087 0.040630
0.382745 0.711132 0.041520
0.421002 0.711182 0.042496
0.458660 0.711237 0.043558
0.495872 0.711296 0.044706
0.532764 0.711361 0.045942
0.569425 0.711432 0.047264
0.605829 0.711508 0.048673
0.641863 0.711589 0.050168
0.677407 0.711677 0.051748
0.712337 0.711770 0.053411
0.746523 0.711870 0.055158
0.779835 0.711975 0.056985
0.812138 0.712087 0.058891
0.843294 0.712205 0.060875
0.873203 0.712330 0.062935
0.902056 0.712461 0.065069
0.930185 0.712600 0.067274
0.000000 0.744716 0.042327
0.000000 0.744716 0.042327
0.000000 0.744718 0.042377
0.000000 0.744722 0.042462
0.000000 0.744728 0.042573
0.000000 0.744735 0.042731
0.000000 0.744745 0.042941
0.000000 0.744758 0.043208
0.024514 0.744773 0.043535
0.102433 0.744792 0.043928
0.159984 0.744814 0.044388
0.209703 0.744840 0.044920
0.255118 0.744869 0.045526
0.297853 0.744902 0.046208
0.338787 0.744939 0.046969
0.378447 0.744981 0.047810
0.417177 0.745027 0.048732
0.455218 0.745077 0.049736
0.492749 0.745132 0.050823
0.529908 0.745192 0.051994
0.566799 0.745257 0.053248
0.603410 0.745326 0.054586
0.639636 0.745401 0.056006
0.675357 0.745482 0.057509
0.710452 0.745567 0.059094
0.744793 0.745659 0.060759
0.778250 0.745756 0.062503
0.810690 0.745859 0.064325
0.841976 0.745967 0.066224
0.872003 0.746082 0.068197
0.900952 0.746203 0.070244
0.929156 0.746330 0.072362
0.000000 0.777833 0.048967
0.000000 0.777833 0.048967
0.000000 0.777836 0.049014
0.000000 0.777839 0.049094
0.000000 0.777844 0.049199
0.000000 0.777851 0.049348
0.000000 0.777860 0.049546
0.000000 0.777872 0.049797
0.000000 0.777886 0.050106
0.085345 0.777903 0.050476
0.148227 0.777923 0.050910
0.200671 0.777947 0.051412
0.247787 0.777974 0.051984
0.291693 0.778004 0.052629
0.333486 0.778038 0.053348
0.373804 0.778076 0.054143
0.413054 0.778118 0.055016
0.451517 0.778165 0.055967
0.489395 0.778215 0.056998
0.526844 0.778270 0.058108
0.563983 0.778329 0.059299
0.600820 0.778393 0.060571
0.637251 0.778462 0.061922
0.673162 0.778536 0.063354
0.708434 0.778614 0.064864
0.742941 0.778698 0.066453
0.776554 0.778787 0.068119
0.809141 0.778881 0.069862
0.840567 0.778981 0.071679
0.870721 0.779086 0.073571
0.899772 0.779197 0.075534
0.928056 0.779313 0.077568
0.000000 0.810045 0.055619
0.000000 0.810045 0.055619
0.000000 0.810047 0.055664
0.000000 0.810050 0.055739
0.000000 0.810055 0.055838
0.000000 0.810061 0.055979
0.000000 0.810069 0.056166
0.000000 0.810080 0.056403
0.000000 0.810093 0.056695
0.064489 0.810109 0.057044
0.134810 0.810127 0.057455
0.190618 0.810148 0.057930
0.239738 0.810173 0.058471
0.284984 0.810201 0.059081
0.327744 0.810232 0.059762
0.368794 0.810267 0.060515
0.408619 0.810305 0.061343
0.447543 0.810347 0.062245
0.485801 0.810394 0.063224
0.523566 0.810444 0.064279
0.560973 0.810498 0.065411
0.598050 0.810556 0.066621
0.634702 0.810619 0.067909
0.670818 0.810687 0.069273
0.706280 0.810758 0.070714
0.740964 0.810835 0.072232
0.774744 0.810916 0.073824
0.807488 0.811002 0.075492
0.839062 0.811093 0.077232
0.869353 0.811190 0.079046
0.898514 0.811291 0.080930
0.926885 0.811397 0.082884
0.000000 0.841198 0.062283
0.000000 0.841198 0.062283
0.000000 0.841200 0.062325
0.000000 0.841203 0.062397
0.000000 0.841207 0.062490
0.000000 0.841212 0.062623
0.000000 0.841220 0.062800
0.000000 0.841229 0.063024
0.000000 0.841241 0.063301
0.037635 0.841256 0.063632
0.119312 0.841273 0.064021
0.179379 0.841292 0.064470
0.230885 0.841314 0.064983
0.277676 0.841340 0.065562
0.321528 0.841368 0.066207
0.363394 0.841400 0.066922
0.403852 0.841435 0.067708
0.443283 0.841473 0.068565
