assets/luts/Dark_Man_X.cube
LUT_3D_SIZE 6
0.015527 0.014867 0.013533
0.249339 0.031161 0.012593
0.533507 0.000000 0.000000
0.657350 0.000000 0.000000
0.733228 0.000000 0.000000
0.775466 0.000000 0.000000
0.023412 0.125936 0.023449
0.181269 0.162894 0.019975
0.409373 0.199618 0.000260
0.621375 0.216249 0.000000
0.772918 0.220486 0.000000
0.880467 0.222872 0.000000
0.092630 0.338231 0.014617
0.264200 0.375421 0.000000
0.470917 0.417184 0.000000
0.680953 0.449857 0.000000
0.834460 0.468135 0.000000
0.948243 0.480226 0.000000
0.239553 0.545058 0.023207
0.368450 0.571966 0.000000
0.537217 0.605785 0.000000
0.725865 0.638815 0.000000
0.867002 0.660059 0.000000
0.979506 0.676253 0.000000
0.400898 0.717789 0.122714
0.484626 0.733894 0.113336
0.615912 0.758607 0.095594
0.765085 0.784861 0.072819
0.893473 0.805451 0.060293
0.990553 0.821937 0.066620
0.535973 0.844329 0.245101
0.600692 0.856248 0.242256
0.709837 0.875790 0.237059
0.807232 0.892378 0.234832
0.922000 0.911138 0.233996
0.995848 0.925507 0.239598
0.005600 0.018021 0.150903
0.230770 0.033140 0.154583
0.501273 0.000000 0.154226
0.656600 0.000000 0.150126
0.751171 0.000000 0.151296
0.797652 0.000000 0.159252
0.000000 0.141133 0.151580
0.189146 0.176716 0.164161
0.427689 0.209094 0.168775
0.641664 0.223648 0.167495
0.792969 0.228183 0.169192
0.902782 0.231734 0.177061
0.021895 0.362434 0.203562
0.252202 0.397097 0.207098
0.474531 0.435723 0.206156
0.689700 0.465610 0.201879
0.848337 0.482961 0.201169
0.960204 0.494505 0.207768
0.197022 0.572270 0.255992
0.350059 0.597903 0.255504
0.530500 0.629529 0.252713
0.724326 0.660267 0.248093
0.871000 0.680313 0.247074
0.982078 0.694903 0.251432
0.378045 0.742135 0.317959
0.466345 0.756999 0.317222
0.606686 0.781067 0.315402
0.758558 0.805476 0.313501
0.891333 0.825192 0.314047
0.989850 0.840189 0.318793
0.519296 0.864770 0.397114
0.587801 0.876451 0.397096
0.698421 0.895057 0.396851
0.799303 0.911194 0.397752
0.917471 0.928429 0.400033
0.994261 0.940070 0.405636
0.003157 0.000000 0.318528
0.196518 0.002787 0.356961
0.472701 0.000000 0.378373
0.645891 0.000000 0.381503
0.760708 0.000000 0.383573
0.817695 0.000000 0.386490
0.000000 0.166429 0.354133
0.187065 0.198633 0.386111
0.438089 0.227600 0.406626
0.655621 0.240663 0.415162
0.808678 0.244756 0.419497
0.919662 0.248071 0.424655
0.000000 0.393448 0.419827
0.228614 0.425363 0.435032
0.471111 0.460936 0.447405
0.692029 0.488088 0.453832
0.855916 0.504023 0.456969
0.966474 0.514148 0.460443
0.128027 0.601921 0.470913
0.324427 0.626467 0.477278
0.518871 0.655776 0.483078
0.718346 0.684203 0.486886
0.870713 0.702784 0.489122
0.981974 0.715781 0.492108
0.343459 0.768232 0.515980
0.442737 0.782707 0.518174
0.594380 0.805891 0.521116
0.748766 0.828301 0.523251
0.886742 0.846938 0.525108
0.987430 0.860471 0.527856
0.500179 0.887481 0.562223
0.573458 0.898946 0.563586
0.684989 0.915802 0.565295
0.789691 0.930405 0.566738
0.912050 0.944427 0.568722
0.991800 0.953335 0.571516
0.002470 0.000000 0.438342
0.195695 0.000000 0.504529
0.454028 0.000000 0.541727
0.648673 0.000000 0.555138
0.771269 0.000000 0.560743
0.846265 0.000000 0.564711
0.000000 0.187908 0.511037
0.193805 0.217059 0.556049
0.449643 0.243848 0.587076
0.667896 0.257006 0.601455
0.822165 0.261971 0.608010
0.933659 0.266268 0.612595
0.000000 0.418722 0.588809
0.218762 0.448107 0.611067
0.472560 0.481240 0.630817
0.695075 0.506788 0.642789
0.861647 0.522150 0.648615
0.970771 0.531776 0.651889
0.066054 0.624992 0.642112
0.311627 0.648406 0.652786
0.513436 0.675753 0.663227
0.714494 0.702172 0.671529
0.870565 0.720125 0.676095
0.981353 0.732253 0.678786
0.318382 0.788924 0.680336
0.427208 0.802823 0.684707
0.587528 0.825260 0.690919
0.741502 0.846151 0.695614
0.883262 0.863994 0.699285
0.984970 0.876638 0.701650
0.486688 0.906692 0.711233
0.563878 0.917548 0.714075
0.673702 0.932345 0.717566
0.782113 0.944379 0.720295
0.907470 0.956463 0.723201
0.989105 0.965095 0.725316
0.000000 0.001197 0.531847
0.208422 0.000000 0.603591
0.456771 0.000000 0.646663
0.657208 0.000000 0.666142
0.790794 0.000000 0.676257
0.880742 0.000000 0.683432
0.000000 0.218716 0.615155
0.208463 0.245811 0.662677
0.463201 0.271509 0.698413
0.680167 0.285595 0.717598
0.835629 0.291880 0.727173
0.946711 0.297274 0.733268
0.000000 0.444351 0.696601
0.228002 0.471279 0.721232
0.480817 0.502305 0.745269
0.701044 0.526645 0.761512
0.868255 0.541887 0.770457
0.975345 0.551371 0.775055
0.067793 0.643502 0.751385
0.319207 0.665879 0.764777
0.518413 0.691355 0.778220
0.716123 0.716177 0.789838
0.873326 0.733894 0.796915
0.982070 0.745475 0.800981
0.315563 0.803335 0.788071
0.427689 0.817003 0.793835
0.591475 0.838718 0.802646
0.740705 0.858054 0.809459
0.884155 0.875686 0.815042
0.984284 0.887619 0.818483
0.487455 0.919796 0.812943
0.566325 0.929660 0.816429
0.670953 0.941688 0.821088
0.780678 0.952367 0.825231
0.907670 0.964499 0.829526
0.987963 0.974952 0.832039
0.000000 0.076631 0.615451
0.226086 0.086460 0.680976
0.470881 0.092928 0.725472
0.674478 0.081839 0.748508
0.815314 0.066929 0.761032
0.915810 0.062960 0.769862
0.000000 0.262321 0.690905
0.227825 0.287802 0.735398
0.478259 0.313256 0.772238
0.692758 0.328711 0.794239
0.848957 0.336723 0.806114
0.959628 0.343098 0.813724
0.000000 0.472123 0.767898
0.249934 0.497945 0.792899
0.493488 0.527834 0.818697
0.708628 0.551980 0.837162
0.875382 0.567431 0.848202
0.979617 0.576624 0.853738
0.115503 0.662634 0.822900
0.332331 0.682844 0.836809
0.530303 0.707473 0.852195
0.721136 0.730824 0.865635
0.878324 0.748206 0.874230
0.983478 0.759274 0.878799
0.328680 0.816013 0.859335
0.439523 0.829259 0.866239
0.602834 0.850359 0.876452
0.744534 0.868315 0.884353
0.888057 0.885580 0.890643
0.984962 0.896795 0.894517
0.498636 0.929302 0.883495
0.577202 0.938203 0.887776
0.673686 0.948170 0.892887
0.783708 0.958564 0.898562
0.909318 0.971692 0.904387
0.988171 0.999849 0.908094
