assets/luts/Dark_Man_X.cube
LUT_3D_SIZE 16
0.015527 0.014867 0.013533
0.048917 0.019381 0.014986
0.139469 0.027422 0.015526
0.249339 0.031161 0.012593
0.359542 0.023668 0.006044
0.460770 0.006608 0.000802
0.533507 0.000000 0.000000
0.585474 0.000000 0.000000
0.623318 0.000000 0.000000
0.657350 0.000000 0.000000
0.689955 0.000000 0.000000
0.716467 0.000000 0.000000
0.733228 0.000000 0.000000
0.747682 0.000000 0.000000
0.762114 0.000000 0.000000
0.775466 0.000000 0.000000
0.018585 0.029163 0.015897
0.037471 0.033284 0.016785
0.083035 0.041000 0.017673
0.150573 0.050527 0.017421
0.229711 0.057985 0.015080
0.314089 0.061578 0.010719
0.394770 0.060184 0.005071
0.473982 0.053073 0.000385
0.534534 0.044723 0.000000
0.591874 0.034146 0.000000
0.641679 0.026398 0.000000
0.681919 0.024371 0.000000
0.719622 0.022552 0.000000
0.755377 0.020516 0.000000
0.783163 0.018576 0.000000
0.803608 0.018332 0.000000
0.020974 0.069073 0.020009
0.049374 0.076820 0.020687
0.097330 0.087719 0.020930
0.160463 0.100541 0.019925
0.234342 0.112384 0.016799
0.316016 0.122207 0.011524
0.393956 0.128662 0.005013
0.472984 0.131676 0.000385
0.544134 0.132220 0.000000
0.601076 0.131072 0.000000
0.656672 0.128348 0.000000
0.705104 0.125405 0.000000
0.743675 0.122938 0.000000
0.780606 0.120269 0.000000
0.816769 0.117750 0.000000
0.846775 0.117186 0.000000
0.023412 0.125936 0.023449
0.066391 0.136717 0.023394
0.118242 0.148867 0.022445
0.181269 0.162894 0.019975
0.252680 0.176582 0.015288
0.331139 0.189252 0.008384
0.409373 0.199618 0.000260
0.484957 0.207195 0.000000
0.562210 0.213023 0.000000
0.621375 0.216249 0.000000
0.675830 0.218252 0.000000
0.731074 0.219577 0.000000
0.772918 0.220486 0.000000
0.809217 0.221343 0.000000
0.845084 0.222129 0.000000
0.880467 0.222872 0.000000
0.031822 0.191601 0.024248
0.088439 0.204015 0.022621
0.144287 0.217006 0.019938
0.206830 0.231290 0.015591
0.275387 0.245470 0.009162
0.351351 0.259451 0.002250
0.428518 0.271776 0.000000
0.501151 0.281352 0.000000
0.578916 0.290032 0.000000
0.641920 0.295867 0.000000
0.694930 0.300014 0.000000
0.748676 0.303627 0.000000
0.799187 0.306680 0.000000
0.835107 0.308809 0.000000
0.870595 0.310961 0.000000
0.905550 0.313145 0.000000
0.054354 0.261715 0.022066
0.118398 0.275008 0.018397
0.174149 0.287799 0.013884
0.234747 0.301708 0.007680
0.300536 0.315802 0.001624
0.374422 0.330421 0.000204
0.448981 0.343616 0.000000
0.519146 0.354402 0.000000
0.594094 0.364658 0.000000
0.661531 0.372689 0.000000
0.713221 0.378063 0.000000
0.765572 0.383004 0.000000
0.818593 0.387839 0.000000
0.858163 0.391240 0.000000
0.893197 0.394440 0.000000
0.927708 0.397486 0.000000
0.092630 0.338231 0.014617
0.154113 0.350857 0.008979
0.208238 0.362929 0.002687
0.264200 0.375421 0.000000
0.328400 0.389296 0.000000
0.400660 0.404088 0.000000
0.470917 0.417184 0.000000
0.538953 0.428685 0.000000
0.611568 0.439961 0.000000
0.680953 0.449857 0.000000
0.731494 0.456129 0.000000
0.782510 0.462313 0.000000
0.834460 0.468135 0.000000
0.879804 0.472902 0.000000
0.914133 0.476616 0.000000
0.948243 0.480226 0.000000
0.141602 0.407146 0.012073
0.196264 0.418820 0.005420
0.243936 0.429391 0.000852
0.295967 0.441046 0.000000
0.358058 0.454641 0.000000
0.427354 0.469294 0.000000
0.491893 0.481899 0.000000
0.557791 0.493823 0.000000
0.628217 0.505733 0.000000
0.696789 0.516377 0.000000
0.745814 0.523308 0.000000
0.795588 0.530043 0.000000
0.846315 0.536577 0.000000
0.894047 0.542366 0.000000
0.929056 0.546567 0.000000
0.962115 0.550575 0.000000
0.192296 0.475826 0.014451
0.238514 0.485434 0.007564
0.281332 0.494605 0.001506
0.330826 0.505341 0.000000
0.390591 0.518146 0.000000
0.454000 0.531238 0.000000
0.513819 0.542887 0.000000
0.577504 0.554617 0.000000
0.645597 0.566439 0.000000
0.711021 0.577020 0.000000
0.758615 0.584076 0.000000
0.807124 0.591052 0.000000
0.856439 0.597876 0.000000
0.904180 0.604142 0.000000
0.940923 0.608867 0.000000
0.971587 0.613070 0.000000
0.239553 0.545058 0.023207
0.280947 0.553629 0.015880
0.321282 0.562080 0.008156
0.368450 0.571966 0.000000
0.425268 0.583728 0.000000
0.481196 0.594979 0.000000
0.537217 0.605785 0.000000
0.598958 0.617154 0.000000
0.665032 0.628795 0.000000
0.725865 0.638815 0.000000
0.771873 0.645998 0.000000
0.819080 0.653040 0.000000
0.867002 0.660059 0.000000
0.914580 0.666663 0.000000
0.952113 0.671878 0.000000
0.979506 0.676253 0.000000
0.292023 0.602229 0.048110
0.329569 0.609855 0.041106
0.366838 0.617535 0.033539
0.411126 0.626763 0.023849
0.459788 0.636772 0.013505
0.508080 0.646435 0.007789
0.561774 0.656838 0.003651
0.621215 0.668090 0.000350
0.685019 0.679422 0.000000
0.738691 0.688758 0.000000
0.783088 0.696037 0.000000
0.828847 0.703303 0.000000
0.875578 0.710502 0.000000
0.922265 0.717407 0.000000
0.959607 0.722937 0.000000
0.984188 0.727521 0.000000
0.345477 0.660036 0.085291
0.379919 0.666837 0.080091
0.413703 0.673666 0.074432
0.450183 0.680862 0.067803
0.490467 0.688862 0.060179
0.536537 0.697878 0.050775
0.587965 0.707646 0.039320
0.645083 0.718217 0.026608
0.704886 0.728935 0.017035
0.751656 0.736810 0.011269
0.794671 0.743954 0.006903
0.838949 0.750929 0.002929
0.884317 0.758010 0.000000
0.929697 0.764855 0.000000
0.966002 0.770451 0.000000
0.987648 0.774874 0.001678
0.400898 0.717789 0.122714
0.428972 0.723256 0.119671
0.454206 0.727944 0.116871
0.484626 0.733894 0.113336
0.522684 0.741096 0.108574
0.566616 0.749417 0.102696
0.615912 0.758607 0.095594
0.670920 0.768534 0.086701
0.723250 0.777692 0.078187
0.765085 0.784861 0.072819
0.806605 0.791639 0.068244
0.849373 0.798593 0.064011
0.893473 0.805451 0.060293
0.937671 0.812104 0.057948
0.971415 0.817470 0.060462
0.990553 0.821937 0.066620
0.445732 0.769041 0.163101
0.468720 0.773463 0.161282
0.492273 0.777799 0.159379
0.520917 0.783200 0.156979
0.556970 0.790007 0.153786
0.598846 0.797824 0.149898
0.645965 0.806372 0.145286
0.697446 0.815596 0.139954
0.740816 0.823285 0.136147
0.778731 0.829545 0.133782
0.818895 0.836389 0.131679
0.860174 0.843020 0.129913
0.903089 0.849883 0.128554
0.945489 0.856458 0.127964
0.975961 0.861520 0.130201
0.993036 0.866001 0.134303
0.490416 0.807595 0.205874
0.511732 0.811593 0.204642
0.533519 0.815655 0.203348
0.560078 0.820599 0.201716
0.593977 0.826956 0.199550
0.633470 0.834332 0.196942
0.678062 0.842277 0.193876
0.720981 0.850050 0.191076
0.756255 0.856000 0.189508
0.792685 0.862523 0.188174
0.831068 0.868920 0.187038
0.870940 0.875626 0.186151
0.912152 0.882280 0.185560
0.952470 0.888572 0.185535
0.979414 0.893503 0.187436
0.994532 0.897977 0.190365
0.535973 0.844329 0.245101
0.555587 0.847959 0.244239
0.575813 0.851641 0.243398
0.600692 0.856248 0.242256
0.632447 0.861967 0.240815
0.669548 0.868558 0.238993
0.709837 0.875790 0.237059
0.740022 0.881033 0.236241
0.772639 0.886553 0.235514
0.807232 0.892378 0.234832
0.843951 0.898464 0.234327
0.882235 0.904628 0.234074
0.922000 0.911138 0.233996
0.959977 0.917116 0.234681
0.982542 0.921227 0.236826
0.995848 0.925507 0.239598
0.013697 0.016462 0.032935
0.058106 0.021809 0.031980
0.157993 0.029661 0.033818
0.272992 0.031716 0.031436
0.376339 0.022807 0.025743
0.460796 0.008240 0.019432
0.523933 0.000000 0.013999
0.580424 0.000000 0.010537
0.623132 0.000000 0.009298
0.658727 0.000000 0.008492
0.692785 0.000000 0.007935
0.721100 0.000000 0.007748
0.739164 0.000000 0.008268
0.754527 0.000000 0.009185
0.769332 0.000000 0.010354
0.783077 0.000000 0.011770
0.016635 0.029488 0.031108
0.039698 0.034048 0.031184
0.090984 0.042146 0.033058
0.161978 0.051491 0.033912
0.243088 0.058188 0.032461
0.327605 0.060819 0.029106
0.408661 0.058356 0.024347
0.485221 0.050773 0.018484
0.544935 0.041885 0.013503
0.602457 0.030662 0.010376
0.650551 0.025108 0.009477
0.690623 0.023230 0.009093
0.728747 0.021481 0.008928
0.764469 0.019545 0.009084
0.791466 0.017906 0.009888
0.811762 0.018008 0.011291
0.018404 0.067805 0.037663
0.051467 0.076208 0.038589
0.103105 0.087206 0.039813
0.169042 0.099805 0.039982
0.243979 0.111037 0.038052
0.326717 0.120300 0.034029
0.404369 0.126155 0.028807
0.484212 0.128734 0.021704
0.553251 0.129055 0.014977
0.609774 0.127846 0.012110
0.665618 0.125203 0.010728
0.712842 0.122699 0.009873
0.751332 0.120643 0.009608
0.788844 0.118397 0.009593
0.824937 0.116446 0.009846
0.853935 0.116748 0.010782
0.020291 0.125681 0.046343
0.068141 0.136831 0.046903
0.123204 0.148951 0.046944
0.188207 0.162665 0.045795
0.260390 0.175850 0.042637
0.340813 0.188281 0.037316
0.417888 0.198079 0.030800
0.494841 0.205512 0.023028
0.570489 0.211153 0.016096
0.629008 0.214551 0.013573
0.684160 0.216863 0.011952
0.738645 0.218503 0.010428
0.779971 0.219834 0.009838
0.816489 0.221050 0.009760
0.853001 0.222274 0.009923
0.888658 0.223507 0.010336
0.026955 0.193287 0.055763
0.088372 0.205692 0.055295
0.147165 0.218505 0.054050
0.211665 0.232431 0.051485
0.281133 0.246186 0.047128
0.358939 0.259972 0.040724
0.435333 0.271782 0.033176
0.509333 0.281339 0.024652
0.587540 0.289954 0.017450
0.648611 0.295759 0.014789
0.702107 0.300141 0.012929
0.756607 0.303948 0.011077
0.805752 0.307287 0.009732
0.841886 0.309773 0.009642
0.877572 0.312304 0.009971
0.912794 0.314839 0.010900
0.045075 0.265726 0.065384
0.115625 0.278867 0.063588
0.174460 0.291397 0.061006
0.236658 0.304845 0.057105
0.304150 0.318683 0.051397
0.379953 0.333081 0.043508
0.454099 0.345786 0.034619
0.525549 0.356459 0.025320
0.601795 0.366703 0.018896
0.667127 0.374462 0.015967
0.719496 0.380033 0.013868
0.772282 0.385256 0.011957
0.825704 0.390129 0.010315
0.864078 0.393634 0.010322
0.899375 0.396968 0.011061
0.933985 0.400204 0.012217
0.079805 0.344089 0.073868
0.148000 0.356464 0.070634
0.205222 0.368252 0.066646
0.263172 0.380499 0.061555
0.329550 0.394172 0.054319
0.403885 0.408642 0.044795
0.473938 0.421325 0.034972
0.543457 0.432702 0.025811
0.617370 0.443780 0.021093
0.685097 0.453079 0.017984
0.736135 0.459453 0.016042
0.787806 0.465539 0.014232
0.840381 0.471408 0.012577
0.884370 0.476072 0.012186
0.919009 0.479952 0.013048
0.953027 0.483617 0.014362
0.128519 0.415572 0.085238
0.188133 0.426860 0.081499
0.238620 0.437221 0.077362
0.293041 0.448661 0.071818
0.357442 0.462026 0.063709
0.428379 0.476133 0.053480
0.493492 0.488412 0.043479
0.560792 0.500129 0.032970
0.632498 0.511792 0.026265
0.699803 0.521913 0.023152
0.749476 0.528817 0.021422
0.799903 0.535483 0.019762
0.851049 0.541908 0.018222
0.898486 0.547636 0.017467
0.933014 0.551852 0.018419
0.966048 0.555856 0.019879
0.180151 0.484264 0.098391
0.229720 0.493657 0.094834
0.275062 0.502721 0.090897
0.326812 0.513303 0.085544
0.388781 0.525885 0.077524
0.453067 0.538555 0.067931
0.513848 0.549957 0.058310
0.578859 0.561535 0.047305
0.648281 0.573177 0.036281
0.712635 0.583251 0.030455
0.760793 0.590283 0.029108
0.809807 0.597170 0.027864
0.859767 0.603914 0.026744
0.907370 0.610076 0.026133
0.943458 0.614737 0.026908
0.974048 0.618956 0.028269
0.227757 0.553892 0.116202
0.271907 0.562209 0.112939
0.314336 0.570496 0.109320
0.363570 0.580235 0.104500
0.421823 0.591740 0.097649
0.478548 0.602665 0.090225
0.535865 0.613377 0.081826
0.598929 0.624661 0.071149
0.666256 0.636125 0.059132
0.726082 0.645678 0.049067
0.772823 0.652691 0.043395
0.820489 0.659799 0.038197
0.869205 0.666653 0.035909
0.916639 0.673230 0.035504
0.953862 0.678068 0.036155
0.980902 0.682459 0.037437
0.281278 0.611665 0.140583
0.320916 0.619308 0.137853
0.359908 0.626902 0.134847
0.405654 0.635922 0.130906
0.454953 0.645467 0.126165
0.504639 0.655076 0.121096
0.559605 0.665336 0.114981
0.620223 0.676401 0.107345
0.685124 0.687646 0.098167
0.737929 0.696457 0.091184
0.783146 0.703655 0.086630
0.829488 0.710718 0.082496
0.876773 0.717785 0.078918
0.923501 0.724452 0.076615
0.960624 0.729903 0.078349
0.984886 0.734120 0.082982
0.336535 0.668812 0.167585
0.372622 0.675728 0.165351
0.407187 0.682370 0.163052
0.444227 0.689414 0.160418
0.485520 0.697196 0.157348
0.532804 0.706123 0.153610
0.585354 0.715793 0.149128
0.643678 0.726112 0.143730
0.703634 0.736574 0.137852
0.750196 0.744295 0.134292
0.793828 0.751144 0.131762
0.838638 0.758152 0.129558
0.884490 0.765009 0.127776
0.930041 0.771785 0.126826
0.965778 0.776958 0.128607
0.987899 0.781396 0.132493
0.393521 0.726167 0.196759
0.421452 0.731349 0.195270
0.447415 0.736062 0.193904
0.478760 0.741874 0.192124
0.517825 0.749090 0.189851
0.562804 0.757312 0.187036
0.613054 0.766228 0.183699
0.669090 0.776135 0.179750
0.721176 0.785063 0.176261
0.763192 0.791811 0.174375
0.805118 0.798694 0.172857
0.848597 0.805458 0.171653
0.893212 0.812237 0.170805
0.937306 0.818699 0.170660
0.971029 0.823759 0.172564
0.990486 0.828079 0.175950
0.438388 0.776743 0.228444
0.462016 0.780995 0.227404
0.486272 0.785470 0.226345
0.515603 0.790832 0.225041
0.552504 0.797500 0.223276
0.595172 0.805147 0.221147
0.643124 0.813649 0.218614
0.694932 0.822750 0.215814
0.738064 0.830147 0.214015
0.776546 0.836357 0.212787
0.817073 0.842873 0.211776
0.859044 0.849369 0.210994
0.902170 0.856199 0.210421
0.944740 0.862532 0.210449
0.975286 0.867523 0.212093
0.992782 0.871802 0.214803
0.484621 0.814794 0.261646
0.506245 0.818745 0.260952
0.528561 0.822770 0.260149
0.555702 0.827633 0.259199
0.590241 0.833890 0.257893
0.630343 0.841156 0.256310
0.675689 0.849387 0.254443
0.718114 0.856636 0.252866
0.753785 0.862685 0.252030
0.790426 0.868831 0.251376
0.829275 0.875226 0.250883
0.869580 0.881930 0.250595
0.911100 0.888483 0.250524
0.951618 0.894683 0.251035
0.978555 0.899394 0.252916
0.994118 0.903722 0.255489
0.531010 0.850866 0.295391
0.550909 0.854495 0.294905
0.571623 0.858115 0.294390
0.596850 0.862611 0.293693
0.629141 0.868351 0.292804
0.666913 0.875154 0.291712
0.706569 0.881939 0.290574
0.737085 0.887156 0.290239
0.769894 0.892525 0.289904
0.804927 0.898350 0.289712
0.842134 0.904498 0.289670
0.880690 0.910632 0.289841
0.920851 0.916907 0.290192
0.958760 0.922582 0.291097
0.981585 0.926492 0.293175
0.995365 0.930252 0.295736
0.009615 0.018331 0.086388
0.053931 0.023494 0.078144
0.148166 0.030817 0.083390
0.252640 0.033615 0.084539
0.352011 0.027311 0.082095
0.443836 0.013429 0.078071
0.512650 0.000000 0.074125
0.573030 0.000000 0.070295
0.621375 0.000000 0.067389
0.658643 0.000000 0.065666
0.693839 0.000000 0.064663
0.725530 0.000000 0.064571
0.745782 0.000000 0.066266
0.761098 0.000000 0.069131
0.776070 0.000000 0.072693
0.790308 0.000000 0.076946
0.012344 0.033513 0.072042
0.037955 0.038249 0.070233
0.092536 0.046430 0.074052
0.165645 0.055535 0.077305
0.248225 0.061880 0.078263
0.333589 0.064074 0.077493
0.415642 0.061140 0.075414
0.492459 0.053122 0.072493
0.552683 0.044093 0.070206
0.611039 0.032777 0.067997
0.659249 0.026042 0.066852
0.699400 0.024194 0.066935
0.737466 0.022465 0.067681
0.773363 0.020552 0.069328
0.799999 0.019019 0.072587
0.820146 0.019236 0.077210
0.011510 0.073914 0.079763
0.047796 0.082293 0.080899
0.103277 0.093000 0.083870
0.172040 0.105084 0.086325
0.248548 0.115729 0.086949
0.332373 0.124438 0.085997
0.411045 0.129890 0.083897
0.492011 0.132130 0.080494
0.560874 0.132213 0.077338
0.617680 0.130888 0.074994
0.673847 0.128070 0.072828
0.720717 0.125571 0.071928
0.759226 0.123529 0.072458
0.796841 0.121332 0.073764
0.832927 0.119494 0.075838
0.861065 0.120052 0.079535
0.008910 0.132438 0.092382
0.061059 0.143582 0.094513
0.121434 0.155444 0.096579
0.189528 0.168678 0.097948
0.263464 0.181324 0.097811
0.345954 0.193302 0.096181
0.423362 0.202607 0.093556
0.501714 0.209712 0.089716
0.577101 0.214907 0.085360
0.635640 0.218060 0.082315
0.691349 0.220205 0.079680
0.745520 0.221735 0.077414
0.786519 0.223027 0.077296
0.823401 0.224280 0.078434
0.859932 0.225565 0.080249
0.895914 0.226757 0.082747
0.011326 0.200782 0.106855
0.078959 0.212955 0.108371
0.143432 0.225436 0.109446
0.211105 0.238947 0.109745
0.282597 0.252258 0.108747
0.362528 0.265637 0.106389
0.439304 0.276857 0.103106
0.514606 0.286117 0.098861
0.593220 0.294364 0.093462
0.653887 0.299844 0.089578
0.708217 0.304082 0.086593
0.763062 0.307867 0.083719
0.811438 0.311049 0.082145
0.847565 0.313612 0.083202
0.883597 0.316133 0.085139
0.918997 0.318696 0.088134
0.024172 0.273728 0.121395
0.105034 0.286643 0.122062
0.169057 0.298828 0.122127
0.234060 0.311854 0.121465
0.304032 0.325350 0.119672
0.382085 0.339455 0.116587
0.456489 0.351614 0.112744
0.529347 0.362024 0.108092
0.606919 0.372066 0.102151
0.671206 0.379368 0.097214
0.724030 0.384878 0.093887
0.777468 0.390003 0.090904
0.830972 0.394723 0.088463
0.868723 0.398129 0.089399
0.904391 0.401416 0.091745
0.939007 0.404608 0.094965
0.056565 0.352383 0.135769
0.136369 0.364518 0.135457
0.197935 0.375952 0.134648
0.258868 0.387884 0.133239
0.327816 0.401249 0.130716
0.404344 0.415516 0.126918
0.474876 0.427694 0.122769
0.545637 0.438835 0.117842
0.620904 0.449722 0.111823
0.687768 0.458573 0.106287
0.739254 0.464731 0.103085
0.791617 0.470676 0.100161
0.844538 0.476507 0.097617
0.887829 0.480963 0.097628
0.922572 0.484822 0.100086
0.956984 0.488466 0.103459
0.109831 0.424685 0.151208
0.176387 0.435739 0.150307
0.230326 0.445916 0.149114
0.287733 0.457120 0.147352
0.354670 0.470235 0.144518
0.426873 0.484068 0.140669
0.493201 0.496085 0.136644
0.561862 0.507528 0.131836
0.634909 0.519015 0.126048
0.701388 0.528695 0.120659
0.751706 0.535468 0.117719
0.802708 0.541989 0.115027
0.854481 0.548323 0.112682
0.901456 0.553750 0.111984
0.936055 0.557869 0.114496
0.968575 0.561795 0.118032
0.164390 0.493336 0.168012
0.218244 0.502532 0.166889
0.266547 0.511487 0.165563
0.320867 0.521856 0.163692
0.385136 0.534275 0.160808
0.450557 0.546580 0.157355
0.512430 0.557799 0.153747
0.578809 0.569131 0.149373
0.649459 0.580535 0.144236
0.713248 0.590225 0.139663
0.761966 0.597066 0.137285
0.811547 0.603858 0.135197
0.861889 0.610452 0.133468
0.909748 0.616387 0.132872
0.945449 0.620853 0.135098
0.975588 0.624995 0.138521
0.214008 0.562688 0.186534
0.261299 0.570876 0.185286
0.306074 0.579034 0.183919
0.357497 0.588686 0.181976
0.417335 0.599967 0.179236
0.474783 0.610559 0.176361
0.533676 0.621079 0.173159
0.597908 0.632200 0.169250
0.666425 0.643465 0.164724
0.725607 0.652691 0.161151
0.772891 0.659587 0.159284
0.821166 0.666359 0.157722
0.870250 0.673068 0.156502
0.917835 0.679405 0.156212
0.954625 0.684322 0.158212
0.981565 0.688369 0.161522
0.269828 0.620675 0.208401
0.311683 0.628163 0.207256
0.352499 0.635744 0.205944
0.399606 0.644482 0.204239
0.449664 0.653943 0.202131
0.500664 0.663260 0.199869
0.556855 0.673580 0.197168
0.618704 0.684348 0.193920
0.684550 0.695410 0.190151
0.736839 0.703878 0.187727
0.782611 0.710935 0.186355
0.829475 0.717873 0.185237
0.877115 0.724776 0.184504
0.924120 0.731362 0.184262
0.960734 0.736335 0.185856
0.985143 0.740618 0.188692
0.327379 0.677243 0.231717
0.364932 0.684014 0.230693
0.400300 0.690507 0.229600
0.437904 0.697299 0.228372
0.480345 0.705102 0.226865
0.528748 0.713845 0.224959
0.582464 0.723431 0.222766
0.641784 0.733667 0.220101
0.701931 0.743645 0.217279
0.748561 0.751190 0.215758
0.792630 0.757940 0.214758
0.837968 0.764727 0.213996
0.884392 0.771630 0.213510
0.930056 0.778122 0.213598
0.965601 0.783093 0.215094
0.987783 0.787479 0.217681
0.386462 0.733702 0.256290
0.414123 0.738656 0.255562
0.440830 0.743361 0.254858
0.472990 0.749070 0.253916
0.513026 0.756245 0.252683
0.558973 0.764349 0.251152
0.610223 0.773318 0.249324
0.667011 0.783087 0.247112
0.719085 0.791682 0.245273
0.760998 0.798262 0.244307
0.803667 0.804873 0.243663
0.847448 0.811587 0.243193
0.892458 0.818315 0.242976
0.936768 0.824613 0.243218
0.970290 0.829587 0.244787
0.990257 0.833745 0.247275
0.431352 0.783686 0.282944
0.455690 0.787843 0.282393
0.480492 0.792248 0.281816
0.510525 0.797669 0.281095
0.548195 0.804267 0.280070
0.591626 0.811862 0.278870
0.640367 0.820457 0.277416
0.692463 0.829263 0.275789
0.735375 0.836371 0.274819
0.774390 0.842550 0.274302
0.815385 0.848928 0.273962
0.857749 0.855486 0.273817
0.901236 0.861953 0.273886
0.943928 0.868287 0.274437
0.974441 0.873033 0.276161
0.992267 0.877437 0.278583
0.478548 0.821795 0.312278
0.500620 0.825663 0.311880
0.523440 0.829507 0.311497
0.551143 0.834446 0.310927
0.586289 0.840722 0.310248
0.627047 0.847958 0.309337
0.673023 0.855902 0.308265
0.715190 0.863111 0.307478
0.750887 0.869090 0.307161
0.787979 0.875172 0.306969
0.827319 0.881461 0.306950
0.867978 0.887982 0.307147
0.910047 0.894326 0.307493
0.950436 0.900638 0.308327
0.977667 0.905074 0.310263
0.993637 0.909395 0.312611
0.525784 0.857391 0.342929
0.546152 0.861036 0.342663
0.567117 0.864603 0.342396
0.592849 0.869180 0.342056
0.625628 0.874647 0.341610
0.663938 0.881265 0.340991
0.703028 0.888117 0.340474
0.733925 0.893027 0.340421
0.767047 0.898646 0.340437
0.802445 0.904243 0.340532
0.840045 0.910255 0.340827
0.879046 0.916346 0.341345
0.919373 0.922410 0.341958
0.957523 0.927547 0.343094
0.980460 0.931487 0.345150
0.994900 0.934897 0.347507
0.005600 0.018021 0.150903
0.044607 0.023097 0.139596
0.131957 0.029715 0.149081
0.230770 0.033140 0.154583
0.332214 0.028379 0.156209
0.428332 0.015290 0.155745
0.501273 0.000000 0.154226
0.563263 0.000000 0.152539
0.616706 0.000000 0.151041
0.656600 0.000000 0.150126
0.693064 0.000000 0.149826
0.728492 0.000000 0.150071
0.751171 0.000000 0.151296
0.766714 0.000000 0.153301
0.782038 0.000000 0.155943
0.797652 0.000000 0.159252
0.006688 0.037646 0.130718
0.034783 0.042813 0.129278
0.092624 0.050857 0.135777
0.167913 0.059643 0.141888
0.251686 0.065646 0.145597
0.337950 0.067521 0.147647
0.420788 0.064289 0.148388
0.498823 0.056425 0.148414
0.559827 0.047629 0.148403
0.618632 0.036195 0.148517
0.667509 0.027693 0.149148
0.707653 0.025897 0.150450
0.745878 0.024210 0.152233
0.781844 0.022364 0.154678
0.808879 0.020919 0.157991
0.828549 0.021184 0.162085
0.002135 0.081661 0.138085
0.041605 0.090152 0.140721
0.101595 0.100489 0.145982
0.173676 0.112026 0.151085
0.251968 0.122150 0.154406
0.337029 0.130421 0.156460
0.416818 0.135524 0.157276
0.498845 0.137501 0.157245
0.567952 0.137411 0.157052
0.624915 0.135949 0.157099
0.681646 0.133090 0.157352
0.728424 0.130593 0.158290
0.766943 0.128582 0.159990
0.804653 0.126407 0.162283
0.840906 0.124656 0.165177
0.868536 0.125327 0.168947
0.000000 0.141133 0.151580
0.049884 0.152336 0.155927
0.117043 0.163939 0.160245
0.189146 0.176716 0.164161
0.265109 0.188798 0.166737
0.349823 0.200359 0.168279
0.427689 0.209094 0.168775
0.507312 0.215896 0.168427
0.582883 0.220717 0.167798
0.641664 0.223648 0.167495
0.697893 0.225638 0.167499
0.751911 0.227004 0.167838
0.792969 0.228183 0.169192
0.830137 0.229343 0.171286
0.866641 0.230561 0.173919
0.902782 0.231734 0.177061
0.000000 0.210282 0.168586
0.063958 0.222313 0.172115
0.136621 0.234468 0.175382
0.208447 0.247565 0.178137
0.282415 0.260379 0.179857
0.364782 0.273339 0.180744
0.442072 0.284039 0.180754
0.518812 0.292970 0.180126
0.598003 0.300821 0.179028
0.658508 0.306021 0.178411
0.713384 0.310048 0.178212
0.768773 0.313684 0.178209
0.816509 0.316656 0.178981
0.853069 0.319151 0.180937
0.889140 0.321577 0.183474
0.924685 0.324041 0.186484
0.000630 0.283722 0.185859
0.088386 0.296334 0.188584
0.160399 0.308280 0.190710
0.229139 0.320808 0.192370
0.302106 0.333990 0.193324
0.382696 0.347699 0.193589
0.457774 0.359300 0.193196
0.532118 0.369485 0.192219
0.611075 0.379152 0.190760
0.674459 0.386156 0.189751
0.727906 0.391379 0.189410
0.782163 0.396375 0.189295
0.835770 0.400881 0.189508
0.872990 0.404097 0.191286
0.908614 0.407308 0.193693
0.943492 0.410432 0.196636
0.021895 0.362434 0.203562
0.119274 0.374415 0.205190
0.187337 0.385483 0.206311
0.252202 0.397097 0.207098
0.324275 0.410224 0.207356
0.403262 0.424014 0.206974
0.474531 0.435723 0.206156
0.546888 0.446632 0.204929
0.623534 0.457200 0.203226
0.689700 0.465610 0.201879
0.741747 0.471634 0.201365
0.794838 0.477399 0.201152
0.848337 0.482961 0.201169
0.890778 0.487230 0.202499
0.925843 0.490904 0.204849
0.960204 0.494505 0.207768
0.081993 0.435297 0.220839
0.160153 0.446077 0.221706
0.219005 0.455921 0.222228
0.280165 0.467039 0.222475
0.350113 0.479959 0.222283
0.423947 0.493284 0.221544
0.491748 0.504931 0.220511
0.561944 0.516243 0.219106
