assets/luts/Gamma Correction.cube
#Created by: Affinity Photo (Serif Europe Ltd.)
TITLE "REC709_Gam_Corr"
#LUT size
LUT_3D_SIZE 8
#data domain
#LUT data points
DOMAIN_MIN 0.000000 0.000000 0.000000
DOMAIN_MAX 0.954545 0.954545 0.954545
0.000000 0.000000 0.000000
0.153069 0.000000 0.000000
0.290442 0.000000 0.000000
0.446166 0.022897 0.005049
0.632067 0.058580 0.013594
0.810979 0.076343 0.018300
0.955710 0.093353 0.029365
1.164027 0.118957 0.049402
0.000000 0.156513 0.000000
0.151293 0.151257 0.000000
0.285154 0.145852 0.000000
0.432581 0.144219 0.000000
0.617024 0.151390 0.011775
0.799725 0.162919 0.025507
0.949434 0.173385 0.038592
1.158972 0.191085 0.054595
0.000000 0.287339 0.000000
0.132260 0.278382 0.000000
0.267423 0.269275 0.000000
0.425735 0.259026 0.000000
0.623185 0.254123 0.000000
0.811270 0.258107 0.000000
0.958875 0.266287 0.021483
1.157917 0.283975 0.054919
0.000000 0.430823 0.000000
0.097299 0.424293 0.000000
0.240555 0.416684 0.000000
0.404795 0.409425 0.000000
0.623004 0.399665 0.000000
0.822533 0.395074 0.000000
0.975058 0.395026 0.000000
1.151021 0.401840 0.000000
0.000000 0.624985 0.000000
0.000000 0.624747 0.000000
0.198458 0.619256 0.000000
0.374803 0.614584 0.000000
0.598956 0.606759 0.000000
0.812842 0.595953 0.000000
0.974134 0.587656 0.000000
1.135832 0.585965 0.000000
0.000000 0.822629 0.000000
0.000000 0.822419 0.000000
0.136764 0.818852 0.000000
0.336934 0.812530 0.000000
0.567510 0.802630 0.000000
0.780909 0.791135 0.000000
0.945851 0.781002 0.000000
1.117327 0.773910 0.000000
0.000000 0.977287 0.000000
0.000000 0.977078 0.000000
0.061488 0.974521 0.000000
0.300560 0.964438 0.000000
0.539723 0.952473 0.000000
0.754989 0.940899 0.000000
0.920871 0.932116 0.000000
1.104651 0.925778 0.000000
0.000000 1.145168 0.000000
0.000000 1.145168 0.000000
0.000000 1.145168 0.000000
0.252336 1.134127 0.000000
0.511487 1.121570 0.000000
0.733292 1.111314 0.000000
0.901518 1.104883 0.000000
1.103577 1.103577 0.000000
0.000000 0.000000 0.164735
0.161547 0.000000 0.162032
0.312316 0.000000 0.156169
0.475523 0.000000 0.145464
0.672304 0.000000 0.136458
0.855156 0.000000 0.132246
1.000367 0.000000 0.131615
1.183498 0.015149 0.135270
0.000000 0.154051 0.154069
0.148878 0.149263 0.149386
0.273602 0.147557 0.147148
0.419417 0.147874 0.145271
0.609651 0.153073 0.144910
0.796432 0.163072 0.147058
0.947079 0.173741 0.150085
1.156747 0.191478 0.155822
0.000000 0.283084 0.139930
0.138836 0.273012 0.138967
0.266048 0.266105 0.134191
0.414366 0.260704 0.136738
0.604082 0.262922 0.144194
0.792171 0.270247 0.149752
0.944100 0.277023 0.153084
1.152941 0.289372 0.158787
0.000000 0.427125 0.115521
0.111284 0.419522 0.117479
0.246839 0.413405 0.114487
0.406089 0.407812 0.107870
0.616364 0.401376 0.113583
0.808863 0.401171 0.129059
0.957072 0.404599 0.139782
1.147843 0.415746 0.154764
0.000000 0.623574 0.075117
0.023086 0.622051 0.078029
0.207828 0.617352 0.075349
0.379293 0.613121 0.068815
0.600479 0.605836 0.057278
0.812361 0.595593 0.047247
0.967570 0.589202 0.076378
1.133515 0.589878 0.104722
0.000000 0.822315 0.000000
0.000000 0.821833 0.000000
0.145362 0.818086 0.000000
0.340801 0.811947 0.000000
0.569461 0.802304 0.000000
0.782196 0.790892 0.000000
0.947193 0.780701 0.000000
1.117253 0.774681 0.000000
0.000000 0.977203 0.000000
0.000000 0.976952 0.000000
0.066309 0.974265 0.000000
0.302090 0.964335 0.000000
0.540322 0.952509 0.000000
0.755493 0.940961 0.000000
0.921582 0.932116 0.000000
1.104670 0.925493 0.000000
0.000000 1.145168 0.000000
0.000000 1.145168 0.000000
0.000000 1.145168 0.000000
0.247809 1.134340 0.000000
0.509003 1.121691 0.000000
0.731734 1.111381 0.000000
0.900579 1.104914 0.000000
1.103577 1.103577 0.000000
0.000000 0.000000 0.339502
0.160173 0.000000 0.323664
0.308863 0.000000 0.310308
0.479312 0.000000 0.291853
0.690558 0.000000 0.267144
0.875783 0.000000 0.252369
1.024156 0.000000 0.246976
1.182279 0.000000 0.247563
0.000000 0.152711 0.302008
0.146883 0.147073 0.289016
0.279389 0.141373 0.279389
0.441909 0.128655 0.270324
0.638816 0.123644 0.258376
0.828696 0.124908 0.253737
0.979983 0.130288 0.253189
1.164924 0.143827 0.256310
0.000000 0.278673 0.278810
0.140301 0.269554 0.269554
0.263519 0.263965 0.264132
0.406172 0.261968 0.261676
0.599396 0.264231 0.261867
0.790245 0.270508 0.264269
0.942127 0.277348 0.266800
1.150704 0.289704 0.271656
0.000000 0.423087 0.254582
0.115659 0.416214 0.252548
0.253231 0.409721 0.253338
0.405990 0.406010 0.249624
0.605965 0.404123 0.256102
0.792708 0.408217 0.264718
0.939587 0.413411 0.269993
1.145570 0.421668 0.274469
0.000000 0.621467 0.222879
0.046065 0.619476 0.224182
0.219588 0.614313 0.226886
0.386248 0.610139 0.224584
0.601455 0.603747 0.215332
0.806826 0.595145 0.216919
0.957343 0.591047 0.231408
1.130340 0.594447 0.248493
0.000000 0.820350 0.188296
0.000000 0.819798 0.189147
0.159401 0.814799 0.190794
0.348850 0.808237 0.188134
0.572045 0.798957 0.178773
0.782175 0.788092 0.167795
0.946428 0.778358 0.158330
1.113974 0.773565 0.185157
0.000000 0.974954 0.155352
0.000000 0.974666 0.155136
0.081215 0.970983 0.155299
0.308110 0.961060 0.151757
0.542330 0.949743 0.143009
0.755954 0.938872 0.133136
0.922003 0.930566 0.124785
1.103374 0.923890 0.114315
0.000000 1.143544 0.105024
0.000000 1.143586 0.102373
0.000000 1.143645 0.098631
0.246312 1.132720 0.093821
0.507275 1.120179 0.086412
0.730141 1.110191 0.078329
0.899582 1.104058 0.072123
1.102865 1.102865 0.065207
0.000000 0.000000 0.554709
0.148506 0.000000 0.531472
0.301242 0.000000 0.500203
0.470999 0.000000 0.474073
0.685133 0.000000 0.441906
0.889825 0.000000 0.417935
1.052180 0.000000 0.405145
1.177477 0.000000 0.398461
0.000000 0.149220 0.499277
0.136153 0.142510 0.478851
0.277346 0.135143 0.456243
0.439919 0.122249 0.441113
0.661471 0.091088 0.425970
0.867402 0.063363 0.410405
1.019900 0.061024 0.402125
1.169035 0.069286 0.399323
0.000000 0.274959 0.447908
0.130434 0.267429 0.434525
0.261142 0.261289 0.422503
0.414717 0.255541 0.414697
0.630223 0.243176 0.408809
0.827033 0.240762 0.402124
0.980832 0.241651 0.399615
1.155867 0.248345 0.400729
0.000000 0.418402 0.418843
0.121998 0.412428 0.412567
0.255568 0.407430 0.407430
0.404531 0.405019 0.405213
0.597735 0.406580 0.406270
0.787508 0.409943 0.408048
0.937087 0.413435 0.409426
1.142876 0.421645 0.413484
0.000000 0.618893 0.392773
0.059729 0.616722 0.392543
0.224799 0.611993 0.392210
0.394648 0.606354 0.394878
0.601102 0.601267 0.389581
0.795483 0.596242 0.394237
0.940179 0.595341 0.400758
1.126419 0.602153 0.411595
0.000000 0.818157 0.364173
0.000000 0.817528 0.364695
0.167444 0.811946 0.364360
0.360006 0.803616 0.366319
0.577815 0.794256 0.360992
0.782310 0.784658 0.350052
0.943389 0.776017 0.343487
1.110774 0.774280 0.367036
0.000000 0.971988 0.338453
0.000000 0.971638 0.338426
0.093290 0.967258 0.337866
0.319010 0.956207 0.337569
0.549245 0.944889 0.332545
0.758543 0.935298 0.322679
0.922989 0.928058 0.314546
1.101455 0.921790 0.307279
0.000000 1.140262 0.307796
0.000000 1.140280 0.306674
0.000000 1.140304 0.305245
0.253182 1.128573 0.301476
0.510700 1.116232 0.295499
0.730802 1.107038 0.286920
0.899668 1.101803 0.280133
1.100902 1.100902 0.272390
0.000000 0.000000 0.825843
0.115962 0.000000 0.802786
0.283455 0.000000 0.763093
0.456449 0.000000 0.718444
0.673783 0.000000 0.678854
0.882344 0.000000 0.651192
1.049820 0.000000 0.635904
1.171785 0.000000 0.622535
0.000000 0.140765 0.763117
0.103785 0.134143 0.741859
0.263988 0.123879 0.710826
0.433666 0.111370 0.679816
0.656463 0.080299 0.660193
0.877937 0.005609 0.646715
1.047868 0.000000 0.632992
1.171836 0.000000 0.620280
0.000000 0.269197 0.696783
0.096795 0.263422 0.682483
0.248975 0.255728 0.663643
0.414743 0.248313 0.645468
0.634015 0.234377 0.635684
0.854180 0.209970 0.627941
1.028802 0.185068 0.619433
1.157730 0.179397 0.608226
0.000000 0.414810 0.640910
0.101602 0.410997 0.634204
0.242822 0.406916 0.626486
0.402903 0.403194 0.618218
0.612639 0.398102 0.612618
0.828872 0.384148 0.610045
0.985705 0.379620 0.601819
1.143797 0.380508 0.598046
0.000000 0.615083 0.616089
0.075589 0.612801 0.613470
0.232787 0.608538 0.608788
0.398347 0.603528 0.603528
0.598698 0.599253 0.599458
0.782507 0.598259 0.598137
0.927348 0.597975 0.597122
1.122673 0.602948 0.600272
0.000000 0.814564 0.592984
0.000000 0.813841 0.592931
0.177012 0.807530 0.589491
0.365308 0.799065 0.586282
0.586009 0.787624 0.586029
0.780415 0.780373 0.579063
0.930884 0.775441 0.580530
1.106930 0.778487 0.591674
0.000000 0.967739 0.568204
0.000000 0.967268 0.568206
0.106214 0.962056 0.566051
0.325498 0.951037 0.562303
0.560783 0.937954 0.562908
0.764258 0.929768 0.557761
0.923802 0.924810 0.550170
1.099532 0.921295 0.554833
0.000000 1.136250 0.542218
0.000000 1.136258 0.541740
0.000000 1.136267 0.541221
0.260536 1.123854 0.535369
0.521381 1.111685 0.533075
0.739332 1.103632 0.528627
0.904517 1.099738 0.520983
1.099244 1.099244 0.511941
0.000000 0.000000 1.064463
0.076951 0.000000 1.047384
0.258079 0.000000 1.001978
0.438245 0.000000 0.956603
0.660981 0.000000 0.910410
0.873662 0.000000 0.880484
1.042497 0.000000 0.863187
1.167372 0.000000 0.847066
0.000000 0.130932 1.001844
0.059309 0.125290 0.988956
0.240854 0.113459 0.952669
0.421767 0.096679 0.922580
0.649043 0.066981 0.892946
0.870951 0.000000 0.877030
1.041470 0.000000 0.861208
1.167389 0.000000 0.846123
0.000000 0.261704 0.937347
0.029944 0.258661 0.931257
0.225722 0.249252 0.906162
0.405715 0.239717 0.887097
0.630886 0.226947 0.864264
0.851561 0.202126 0.855890
1.025848 0.177297 0.846549
1.157457 0.139422 0.835733
0.000000 0.411958 0.880403
0.020072 0.410453 0.877146
0.216461 0.404774 0.865108
0.393501 0.399283 0.853417
0.614482 0.391913 0.836544
0.828432 0.378528 0.830176
1.001336 0.361988 0.824565
1.143787 0.337936 0.817868
0.000000 0.612436 0.830000
0.064512 0.610888 0.827293
0.221395 0.607480 0.821674
0.387221 0.603102 0.813954
0.596872 0.596954 0.802157
0.794624 0.590231 0.794560
0.959102 0.579463 0.791323
1.121773 0.575795 0.786613
0.000000 0.810235 0.811907
0.000000 0.809488 0.810834
0.187827 0.802542 0.803426
0.371521 0.794205 0.794505
0.587966 0.783865 0.783865
0.777335 0.777944 0.778154
0.919820 0.776601 0.776685
1.104263 0.780332 0.779684
0.000000 0.962963 0.788954
0.000000 0.962378 0.788594
0.117092 0.956512 0.784184
0.331537 0.945737 0.776556
0.564268 0.933551 0.770420
0.770490 0.924782 0.770490
0.922639 0.922617 0.767663
1.098436 0.923825 0.775299
0.000000 1.132259 0.765187
0.000000 1.132264 0.764913
0.000000 1.132271 0.764535
0.266268 1.119494 0.755824
0.525718 1.108122 0.749854
0.749448 1.101095 0.750941
0.912490 1.098497 0.749375
1.098320 1.098320 0.741672
0.000000 0.000000 1.239453
0.055643 0.000000 1.228703
0.242033 0.000000 1.180843
0.423958 0.000000 1.138256
0.651128 0.000000 1.095760
0.866455 0.000000 1.063088
1.035995 0.000000 1.043683
1.164951 0.000000 1.024950
0.000000 0.125381 1.180106
0.000000 0.121345 1.183701
0.223524 0.108097 1.135700
0.409207 0.089328 1.108389
0.642225 0.054930 1.081554
0.864526 0.000000 1.060830
1.035605 0.000000 1.042948
1.164951 0.000000 1.025385
0.000000 0.256804 1.121265
0.000000 0.254772 1.121128
0.204535 0.244892 1.093775
0.393467 0.234224 1.076103
0.627088 0.217538 1.056010
0.847805 0.195148 1.039240
1.022182 0.170680 1.028381
1.155882 0.134179 1.015903
0.000000 0.409097 1.071400
0.000000 0.407917 1.069763
0.189225 0.402188 1.057477
0.380280 0.395640 1.045294
0.611808 0.385501 1.027041
0.826469 0.373440 1.009052
0.999084 0.356631 1.002912
1.141601 0.333053 0.996290
0.000000 0.612752 1.018960
0.000000 0.612127 1.017449
0.183630 0.607876 1.009611
0.368793 0.602248 0.998799
0.591572 0.593695 0.981938
0.795722 0.585470 0.963912
0.958612 0.575227 0.959247
1.120041 0.560242 0.960047
0.000000 0.806345 0.979118
0.000000 0.805589 0.976982
0.201659 0.798116 0.965654
0.372738 0.791161 0.955316
0.581493 0.782725 0.942841
0.776118 0.776076 0.931873
0.927713 0.771961 0.927627
1.103311 0.766765 0.928744
0.000000 0.958672 0.960879
0.000000 0.958057 0.960043
0.128210 0.951700 0.953170
0.337782 0.941331 0.942136
0.567999 0.930210 0.930361
0.772012 0.923141 0.923162
0.921696 0.922317 0.922552
1.098104 0.925902 0.925902
0.000000 1.129034 0.940670
0.000000 1.129040 0.940367
0.000000 1.129050 0.939782
0.270476 1.116185 0.928247
0.529249 1.105625 0.918949
0.752272 1.099768 0.915815
0.918981 1.098098 0.918874
1.098070 1.098070 0.916711
0.000000 0.000000 1.352490
0.074251 0.000000 1.330186
0.238442 0.000000 1.279342
0.412054 0.000000 1.231987
0.637182 0.000000 1.191385
0.856928 0.000000 1.171772
1.027332 0.000000 1.164951
1.164951 0.000000 1.164951
0.000000 0.124999 1.277250
0.000000 0.121254 1.279461
0.214818 0.108510 1.228316
0.396077 0.089462 1.200648
0.629934 0.046459 1.182101
0.855752 0.000000 1.171842
1.027675 0.000000 1.164951
1.164951 0.000000 1.164951
0.000000 0.253441 1.213603
0.000000 0.251499 1.214344
0.185888 0.242027 1.188472
0.377955 0.230721 1.173400
0.615564 0.211157 1.163561
0.841030 0.185581 1.157416
1.016324 0.161910 1.154167
1.156250 0.128473 1.156250
0.000000 0.405709 1.175783
0.000000 0.404456 1.175964
0.153505 0.399076 1.167514
0.360273 0.391619 1.159994
0.601480 0.379409 1.152782
0.824208 0.364347 1.145505
0.996157 0.349892 1.140141
1.142090 0.327326 1.142090
0.000000 0.611946 1.157550
0.000000 0.611180 1.157600
0.122293 0.607719 1.153799
0.340630 0.600960 1.146294
0.580264 0.590415 1.136389
0.796513 0.578886 1.126496
0.960336 0.569973 1.119101
1.120524 0.555269 1.120524
0.000000 0.807876 1.143516
0.000000 0.807427 1.143555
0.120255 0.802904 1.138462
0.331498 0.794367 1.128690
0.563147 0.783621 1.117748
0.772504 0.774013 1.108828
0.932262 0.767867 1.103399
1.103477 0.761298 1.103477
0.000000 0.955813 1.129446
0.000000 0.955163 1.129512
0.150265 0.948102 1.122380
0.339820 0.939632 1.113665
0.560390 0.930563 1.105140
0.764165 0.924288 1.099930
0.921869 0.921783 1.098172
1.098123 0.920200 1.098123
0.000000 1.128599 1.128599
0.000000 1.128599 1.128599
0.000000 1.128599 1.128599
0.279413 1.115339 1.115339
0.536749 1.105045 1.105045
0.758091 1.099520 1.099520
0.922731 1.098077 1.098077
1.098066 1.098066 1.098066
