assets/luts/Gamma Correction.cube
#Created by: Affinity Photo (Serif Europe Ltd.)
TITLE "REC709_Gam_Corr"
#LUT size
LUT_3D_SIZE 23
#data domain
DOMAIN_MIN 0.0 0.0 0.0
DOMAIN_MAX 1.0 1.0 1.0
#LUT data points
0.000000 0.000000 0.000000
0.058489 0.000000 0.000000
0.104953 0.000000 0.000000
0.153069 0.000000 0.000000
0.198919 0.000000 0.000000
0.244296 0.000000 0.000000
0.290442 0.000000 0.000000
0.338311 0.005150 0.000000
0.389739 0.012958 0.001558
0.446166 0.022897 0.005049
0.506565 0.034978 0.008315
0.568740 0.048190 0.011226
0.632067 0.058580 0.013594
0.695507 0.064128 0.015518
0.755847 0.070257 0.016940
0.810979 0.076343 0.018300
0.860178 0.081999 0.020824
0.906962 0.087523 0.024639
0.955710 0.093353 0.029365
1.011500 0.100163 0.034866
1.081668 0.108695 0.041603
1.164027 0.118957 0.049402
1.169624 0.130250 0.055085
0.000000 0.062112 0.000000
0.062040 0.062421 0.000000
0.106075 0.063066 0.000000
0.152642 0.064264 0.000000
0.197318 0.064793 0.000000
0.240471 0.065892 0.000000
0.284655 0.066974 0.000000
0.330841 0.068412 0.000546
0.380984 0.070274 0.003455
0.436929 0.072767 0.006510
0.497883 0.076003 0.009404
0.561646 0.080008 0.012062
0.626382 0.084573 0.014223
0.690226 0.089661 0.016020
0.751253 0.094949 0.017309
0.807122 0.100101 0.019323
0.856961 0.104923 0.022606
0.904304 0.109665 0.026893
0.953548 0.114807 0.031575
1.009796 0.120794 0.037035
1.079985 0.128488 0.043567
1.162414 0.137732 0.051105
1.167889 0.148015 0.055733
0.000000 0.108025 0.000000
0.062014 0.107035 0.000000
0.106364 0.106331 0.000000
0.154379 0.105307 0.000000
0.199438 0.104639 0.000000
0.242703 0.104376 0.000000
0.285708 0.104516 0.000000
0.330379 0.105119 0.000000
0.378669 0.106416 0.000000
0.432118 0.108671 0.005730
0.491089 0.111589 0.010840
0.554859 0.114197 0.013142
0.620045 0.117466 0.015041
0.684633 0.121265 0.016599
0.746558 0.125386 0.018366
0.803199 0.129541 0.021522
0.853667 0.133589 0.025692
0.901592 0.137596 0.029991
0.951361 0.141991 0.034650
1.008008 0.147159 0.039930
1.078235 0.153952 0.046258
1.160645 0.162204 0.053584
1.165824 0.171451 0.056737
0.000000 0.156513 0.000000
0.057503 0.154514 0.000000
0.103535 0.153037 0.000000
0.151293 0.151257 0.000000
0.197779 0.149205 0.000000
0.241911 0.147296 0.000000
0.285154 0.145852 0.000000
0.329968 0.144780 0.000000
0.378496 0.144161 0.000000
0.432581 0.144219 0.000000
0.491746 0.145325 0.000000
0.553819 0.147667 0.005410
0.617024 0.151390 0.011775
0.679716 0.156268 0.017758
0.742392 0.159537 0.021048
0.799725 0.162919 0.025507
0.850842 0.166270 0.029863
0.899245 0.169684 0.034115
0.949434 0.173385 0.038592
1.006389 0.177871 0.043614
1.076571 0.183803 0.049638
1.158972 0.191085 0.054595
1.163621 0.199348 0.058126
0.000000 0.201925 0.000000
0.048700 0.199708 0.000000
0.098729 0.197415 0.000000
0.146246 0.194997 0.000000
0.192199 0.192475 0.000000
0.237000 0.189802 0.000000
0.281859 0.187008 0.000000
0.327371 0.184684 0.000000
0.376530 0.182698 0.000000
0.431392 0.181254 0.000000
0.491552 0.180630 0.000000
0.555053 0.181155 0.000000
0.619852 0.183020 0.000000
0.683893 0.186060 0.006169
0.744889 0.190050 0.014852
0.800566 0.194537 0.023583
0.850028 0.199131 0.031958
0.897478 0.203246 0.038758
0.947918 0.206466 0.043014
1.005104 0.210330 0.047796
1.075109 0.215600 0.053433
1.157472 0.222079 0.056123
1.161456 0.229452 0.059849
0.000000 0.245018 0.000000
0.034703 0.243062 0.000000
0.092278 0.239716 0.000000
0.139920 0.236823 0.000000
0.185609 0.233945 0.000000
0.230086 0.231059 0.000000
0.275065 0.228002 0.000000
0.322709 0.224640 0.000000
0.373078 0.221703 0.000000
0.429120 0.219182 0.000000
0.490543 0.217398 0.000000
0.555441 0.216642 0.000000
0.621738 0.217084 0.000000
0.687228 0.218748 0.000000
0.749575 0.221327 0.002846
0.806172 0.224480 0.011273
0.856347 0.227857 0.019342
0.903589 0.231520 0.027459
0.952296 0.235747 0.036268
1.007375 0.241053 0.045896
1.074449 0.248332 0.054587
1.156119 0.254595 0.058072
1.159310 0.261201 0.061879
0.000000 0.287339 0.000000
0.015357 0.286268 0.000000
0.084125 0.281643 0.000000
0.132260 0.278382 0.000000
0.178157 0.275283 0.000000
0.222562 0.272300 0.000000
0.267423 0.269275 0.000000
0.314951 0.266042 0.000000
0.367644 0.262407 0.000000
0.425735 0.259026 0.000000
0.488825 0.256408 0.000000
0.555349 0.254709 0.000000
0.623185 0.254123 0.000000
0.690068 0.254628 0.000000
0.753680 0.256043 0.000000
0.811270 0.258107 0.000000
0.862092 0.260458 0.004875
0.909830 0.263096 0.012813
0.958875 0.266287 0.021483
1.014507 0.270463 0.031928
1.081810 0.276315 0.044288
1.157917 0.283975 0.054919
1.157236 0.293096 0.062005
0.000000 0.330796 0.000000
0.000000 0.330727 0.000000
0.073776 0.325328 0.000000
0.123034 0.321848 0.000000
0.169499 0.318679 0.000000
0.214250 0.315712 0.000000
0.259263 0.312800 0.000000
0.306967 0.309809 0.000000
0.359788 0.306527 0.000000
0.420341 0.302779 0.000000
0.486128 0.299354 0.000000
0.554661 0.296910 0.000000
0.624238 0.295473 0.000000
0.692580 0.295019 0.000000
0.757304 0.295425 0.000000
0.815765 0.296462 0.000000
0.867232 0.297917 0.000000
0.915525 0.299664 0.000000
0.964979 0.301852 0.003583
1.021157 0.304950 0.013937
1.088727 0.309554 0.027101
1.156006 0.315683 0.042987
1.155357 0.323207 0.055178
0.000000 0.377749 0.000000
0.000000 0.377697 0.000000
0.060987 0.373148 0.000000
0.111792 0.369600 0.000000
0.159546 0.366499 0.000000
0.204983 0.363725 0.000000
0.250559 0.361086 0.000000
0.298600 0.358428 0.000000
0.351863 0.355589 0.000000
0.412804 0.352373 0.000000
0.481262 0.348729 0.000000
0.552863 0.345448 0.000000
0.624493 0.343232 0.000000
0.694425 0.341900 0.000000
0.760375 0.341330 0.000000
0.819735 0.341448 0.000000
0.871831 0.341979 0.000000
0.920544 0.342844 0.000000
0.970428 0.344077 0.000000
1.027287 0.346289 0.000000
1.095366 0.349653 0.004424
1.153855 0.354346 0.021203
1.153254 0.360259 0.040192
0.000000 0.430823 0.000000
0.000000 0.430770 0.000000
0.031034 0.428535 0.000000
0.097299 0.424293 0.000000
0.147275 0.421409 0.000000
0.194091 0.418935 0.000000
0.240555 0.416684 0.000000
0.289426 0.414441 0.000000
0.343289 0.412082 0.000000
0.404795 0.409425 0.000000
0.473820 0.406399 0.000000
0.547952 0.402952 0.000000
0.623004 0.399665 0.000000
0.694860 0.397448 0.000000
0.762222 0.395948 0.000000
0.822533 0.395074 0.000000
0.875364 0.394695 0.000000
0.924688 0.394717 0.000000
0.975058 0.395026 0.000000
1.032584 0.396333 0.000000
1.101211 0.398512 0.000000
1.151021 0.401840 0.000000
1.150556 0.406227 0.011887
0.000000 0.490604 0.000000
0.000000 0.490531 0.000000
0.000000 0.490476 0.000000
0.077717 0.486185 0.000000
0.131617 0.483620 0.000000
0.180734 0.481547 0.000000
0.228789 0.479695 0.000000
0.278773 0.477877 0.000000
0.333643 0.475935 0.000000
0.396015 0.473766 0.000000
0.465588 0.471246 0.000000
0.540175 0.468271 0.000000
0.617044 0.464889 0.000000
0.692643 0.461314 0.000000
0.761669 0.458849 0.000000
0.823365 0.457071 0.000000
0.877030 0.455828 0.000000
0.926905 0.454923 0.000000
0.977702 0.454307 0.000000
1.036071 0.454748 0.000000
1.105293 0.455854 0.000000
1.146923 0.457818 0.000000
1.146688 0.460833 0.000000
0.000000 0.555978 0.000000
0.000000 0.555921 0.000000
0.000000 0.555845 0.000000
0.052141 0.553565 0.000000
0.111607 0.551376 0.000000
0.164468 0.549628 0.000000
0.214802 0.548119 0.000000
0.266502 0.546582 0.000000
0.322658 0.544970 0.000000
0.386021 0.543103 0.000000
0.456387 0.540829 0.000000
0.531388 0.538129 0.000000
0.608448 0.534999 0.000000
0.684844 0.531535 0.000000
0.757341 0.527775 0.000000
0.820788 0.524881 0.000000
0.875436 0.522753 0.000000
0.926065 0.521005 0.000000
0.977588 0.519458 0.000000
1.036808 0.519188 0.000000
1.106822 0.519323 0.000000
1.141800 0.520152 0.000000
1.141653 0.521849 0.000000
0.000000 0.624985 0.000000
0.000000 0.624945 0.000000
0.000000 0.624866 0.000000
0.000000 0.624747 0.000000
0.086023 0.622182 0.000000
0.144661 0.620613 0.000000
0.198458 0.619256 0.000000
0.252348 0.617907 0.000000
0.310208 0.616380 0.000000
0.374803 0.614584 0.000000
0.446019 0.612369 0.000000
0.521641 0.609811 0.000000
0.598956 0.606759 0.000000
0.675224 0.603302 0.000000
0.747462 0.599618 0.000000
0.812842 0.595953 0.000000
0.870158 0.592499 0.000000
0.921750 0.589966 0.000000
0.974134 0.587656 0.000000
1.034319 0.586762 0.000000
1.105312 0.586101 0.000000
1.135832 0.585965 0.000000
1.135779 0.586528 0.000000
0.000000 0.694726 0.000000
0.000000 0.694706 0.000000
0.000000 0.694604 0.000000
0.000000 0.694522 0.000000
0.054342 0.693126 0.000000
0.120986 0.691538 0.000000
0.179503 0.690149 0.000000
0.236445 0.688752 0.000000
0.296350 0.687150 0.000000
0.362526 0.685337 0.000000
0.434854 0.683068 0.000000
0.511002 0.680296 0.000000
0.588540 0.677090 0.000000
0.664788 0.673545 0.000000
0.736878 0.669836 0.000000
0.801908 0.666152 0.000000
0.859163 0.662702 0.000000
0.912779 0.659312 0.000000
0.967470 0.655867 0.000000
1.028800 0.654401 0.000000
1.100921 0.653091 0.000000
1.129403 0.652172 0.000000
1.129434 0.651860 0.000000
0.000000 0.761788 0.000000
0.000000 0.761725 0.000000
0.000000 0.761642 0.000000
0.000000 0.761559 0.000000
0.000000 0.761414 0.000000
0.093256 0.759240 0.000000
0.158600 0.757628 0.000000
0.219280 0.756134 0.000000
0.281736 0.754394 0.000000
0.349642 0.752304 0.000000
0.423137 0.749736 0.000000
0.499967 0.746710 0.000000
0.577799 0.743275 0.000000
0.654123 0.739560 0.000000
0.726170 0.735721 0.000000
0.791049 0.732043 0.000000
0.848096 0.728635 0.000000
0.901520 0.725261 0.000000
0.956240 0.721736 0.000000
1.019993 0.719451 0.000000
1.094211 0.717368 0.000000
1.123048 0.715776 0.000000
1.123150 0.714755 0.000000
0.000000 0.822629 0.000000
0.000000 0.822587 0.000000
0.000000 0.822503 0.000000
0.000000 0.822419 0.000000
0.000000 0.822294 0.000000
0.062338 0.820744 0.000000
0.136764 0.818852 0.000000
0.202007 0.817002 0.000000
0.267183 0.814938 0.000000
0.336934 0.812530 0.000000
0.411674 0.809608 0.000000
0.489280 0.806294 0.000000
0.567510 0.802630 0.000000
0.644038 0.798745 0.000000
0.716042 0.794832 0.000000
0.780909 0.791135 0.000000
0.837872 0.787726 0.000000
0.891204 0.784446 0.000000
0.945851 0.781002 0.000000
1.009185 0.778835 0.000000
1.085010 0.776382 0.000000
1.117327 0.773910 0.000000
1.117481 0.772309 0.000000
0.000000 0.876282 0.000000
0.000000 0.876240 0.000000
0.000000 0.876177 0.000000
0.000000 0.876071 0.000000
0.000000 0.875966 0.000000
0.002404 0.875760 0.000000
0.114468 0.872624 0.000000
0.185015 0.870369 0.000000
0.253261 0.867949 0.000000
0.324972 0.865196 0.000000
0.400975 0.861997 0.000000
0.479366 0.858426 0.000000
0.558142 0.854539 0.000000
0.634842 0.850565 0.000000
0.707026 0.846577 0.000000
0.771906 0.842850 0.000000
0.828860 0.839538 0.000000
0.882223 0.836351 0.000000
0.936904 0.833049 0.000000
0.999906 0.830889 0.000000
1.075442 0.828655 0.000000
1.112494 0.825885 0.000000
1.112704 0.823534 0.000000
0.000000 0.926369 0.000000
0.000000 0.926306 0.000000
0.000000 0.926243 0.000000
0.000000 0.926159 0.000000
0.000000 0.926033 0.000000
0.000000 0.925907 0.000000
0.090144 0.922962 0.000000
0.167713 0.920215 0.000000
0.239401 0.917419 0.000000
0.313180 0.914347 0.000000
0.390525 0.910834 0.000000
0.469795 0.907028 0.000000
0.549099 0.902977 0.000000
0.626071 0.898904 0.000000
0.698443 0.894919 0.000000
0.763448 0.891253 0.000000
0.820531 0.888028 0.000000
0.873981 0.884981 0.000000
0.928777 0.881854 0.000000
0.991525 0.879716 0.000000
1.066887 0.877681 0.000000
1.108337 0.875124 0.000000
1.108567 0.872226 0.000000
0.000000 0.977287 0.000000
0.000000 0.977224 0.000000
0.000000 0.977182 0.000000
0.000000 0.977078 0.000000
0.000000 0.976973 0.000000
0.000000 0.976848 0.000000
0.061488 0.974521 0.000000
0.148347 0.971117 0.000000
0.224284 0.967889 0.000000
0.300560 0.964438 0.000000
0.379482 0.960683 0.000000
0.459830 0.956631 0.000000
0.539723 0.952473 0.000000
0.617153 0.948365 0.000000
0.689741 0.944444 0.000000
0.754989 0.940899 0.000000
0.812221 0.937837 0.000000
0.865842 0.935008 0.000000
0.920871 0.932116 0.000000
0.983472 0.930026 0.000000
1.058714 0.928146 0.000000
1.104651 0.925778 0.000000
1.104828 0.923106 0.000000
0.000000 1.038093 0.000000
0.000000 1.038070 0.000000
0.000000 1.037957 0.000000
0.000000 1.037867 0.000000
0.000000 1.037776 0.000000
0.000000 1.037618 0.000000
0.000000 1.037460 0.000000
0.125181 1.032480 0.000000
0.207517 1.028832 0.000000
0.287464 1.025011 0.000000
0.368724 1.020929 0.000000
0.450620 1.016619 0.000000
0.531616 1.012188 0.000000
0.609753 1.007853 0.000000
0.682873 1.003730 0.000000
0.748449 1.000071 0.000000
0.805941 0.996901 0.000000
0.859720 0.993997 0.000000
0.914833 0.991111 0.000000
0.977396 0.988915 0.000000
1.052643 0.987088 0.000000
1.103577 0.984826 0.000000
1.103577 0.982262 0.000000
0.000000 1.110726 0.000000
0.000000 1.110680 0.000000
0.000000 1.110611 0.000000
0.000000 1.110520 0.000000
0.000000 1.110406 0.000000
0.000000 1.110268 0.000000
0.000000 1.110108 0.000000
0.093454 1.106128 0.000000
0.186454 1.101841 0.000000
0.271423 1.097649 0.000000
0.355793 1.093205 0.000000
0.439739 1.088607 0.000000
0.522214 1.083908 0.000000
0.601453 1.079350 0.000000
0.675265 1.075064 0.000000
0.741352 1.071281 0.000000
0.799177 1.068006 0.000000
0.853198 1.065063 0.000000
0.908558 1.062145 0.000000
0.971125 1.059813 0.000000
1.046600 1.058163 0.000000
1.103577 1.056117 0.000000
1.103577 1.053786 0.000000
0.000000 1.145168 0.000000
0.000000 1.145168 0.000000
0.000000 1.145168 0.000000
0.000000 1.145168 0.000000
0.000000 1.145168 0.000000
0.000000 1.145168 0.000000
0.000000 1.145168 0.000000
0.050417 1.143115 0.000000
0.160074 1.138371 0.000000
0.252336 1.134127 0.000000
0.340758 1.129902 0.000000
0.427318 1.125681 0.000000
0.511487 1.121570 0.000000
0.591911 1.117708 0.000000
0.666650 1.114246 0.000000
0.733292 1.111314 0.000000
0.791500 1.108912 0.000000
0.845879 1.106829 0.000000
0.901518 1.104883 0.000000
0.964189 1.103577 0.000000
1.039796 1.103577 0.000000
1.103577 1.103577 0.000000
1.103577 1.103577 0.000000
0.000000 1.145168 0.000000
0.000000 1.145168 0.000000
0.000000 1.145168 0.000000
0.000000 1.145168 0.000000
0.000000 1.145168 0.000000
0.000000 1.145168 0.000000
0.000000 1.145168 0.000000
0.000000 1.145168 0.000000
0.130803 1.139672 0.000000
0.232163 1.135071 0.000000
0.325324 1.130648 0.000000
0.414615 1.126303 0.000000
0.500695 1.122095 0.000000
0.582468 1.118156 0.000000
0.658030 1.114637 0.000000
0.725306 1.111656 0.000000
0.784039 1.109210 0.000000
0.838652 1.107096 0.000000
0.894571 1.105115 0.000000
0.957304 1.103577 0.000000
1.033174 1.103577 0.000000
1.103577 1.103577 0.000000
1.103577 1.103577 0.000000
0.000000 0.000000 0.060558
0.060868 0.000000 0.061348
0.108552 0.000000 0.062684
0.158743 0.000000 0.062506
0.206995 0.000000 0.062043
0.253244 0.000000 0.061897
0.299570 0.000000 0.062189
0.348076 0.000000 0.062675
0.400822 0.000000 0.062562
0.459643 0.000000 0.062221
0.523567 0.000000 0.061866
0.587989 0.007776 0.061341
0.651651 0.018285 0.060763
0.713474 0.029994 0.060560
0.772015 0.042280 0.060848
0.825826 0.053303 0.061415
0.875078 0.058025 0.062237
0.921883 0.062518 0.063130
0.970546 0.067669 0.064238
1.027104 0.074010 0.065742
1.097363 0.082238 0.067926
1.173550 0.092384 0.070757
1.172084 0.103916 0.074080
0.000000 0.062042 0.062257
0.061726 0.062461 0.062722
0.104865 0.063648 0.063907
0.150922 0.064385 0.064330
0.195646 0.064929 0.064640
0.239277 0.065721 0.064946
0.283134 0.066783 0.065229
0.328994 0.068193 0.065425
0.378902 0.070057 0.065574
0.434648 0.072548 0.065617
0.495455 0.075818 0.065523
0.559272 0.079803 0.065429
0.624102 0.084446 0.065747
0.688059 0.089575 0.066671
0.749251 0.094888 0.067831
0.805326 0.100107 0.069106
0.855378 0.104980 0.070385
0.902984 0.109755 0.071761
0.952467 0.114883 0.073274
1.008894 0.120921 0.075108
1.079166 0.128581 0.077685
1.161661 0.137836 0.080867
1.167365 0.148186 0.084446
0.000000 0.107565 0.062596
0.063286 0.106361 0.063707
0.105721 0.105833 0.063320
0.151897 0.105291 0.063491
0.195558 0.105245 0.064067
0.237620 0.105610 0.064677
0.279707 0.106343 0.065225
0.324598 0.106935 0.065252
0.373550 0.107868 0.065231
0.428530 0.109257 0.065199
0.488951 0.111242 0.065103
0.552788 0.113893 0.065319
0.617991 0.117224 0.066094
0.682761 0.121110 0.067178
0.744803 0.125301 0.068455
0.801686 0.129537 0.069842
0.852362 0.133629 0.071196
0.900495 0.137685 0.072615
0.950451 0.142062 0.074150
1.007235 0.147234 0.076047
1.077477 0.154069 0.078611
1.159986 0.162284 0.081756
1.165363 0.171531 0.085363
0.000000 0.155680 0.057137
0.059691 0.153417 0.059552
0.103728 0.151981 0.058940
0.150430 0.150413 0.056782
0.195643 0.148703 0.056033
0.238053 0.147398 0.060092
0.280091 0.146597 0.060886
0.323831 0.146192 0.061685
0.371264 0.146369 0.062590
0.424326 0.147349 0.063728
0.482828 0.149258 0.065180
0.546790 0.150869 0.065880
0.612610 0.153163 0.066865
0.678086 0.156106 0.068102
0.740975 0.159415 0.069484
0.798523 0.162920 0.070946
0.849796 0.166282 0.072359
0.898399 0.169711 0.073820
0.948653 0.173469 0.075385
1.005724 0.177955 0.077330
1.075908 0.183912 0.079871
1.158313 0.191216 0.083007
1.163206 0.199463 0.086565
0.000000 0.200963 0.050766
0.052809 0.198165 0.053464
0.099832 0.195974 0.052519
0.146243 0.193771 0.050233
0.191269 0.191508 0.047629
0.235425 0.189126 0.044761
0.278558 0.186862 0.049112
0.322814 0.185107 0.053988
0.370791 0.183832 0.057549
0.424616 0.183219 0.058828
0.483776 0.183561 0.060773
0.546375 0.185141 0.063242
0.610517 0.188040 0.066265
0.674569 0.191833 0.069358
0.738094 0.194550 0.070841
0.796174 0.197498 0.072351
0.847889 0.200352 0.073847
0.896763 0.203288 0.075315
0.947252 0.206512 0.076915
1.004499 0.210405 0.078825
1.074566 0.215682 0.081354
1.156854 0.222144 0.084481
1.161080 0.229499 0.088041
0.000000 0.243926 0.043633
0.041815 0.241115 0.046409
0.094302 0.238081 0.045124
0.140763 0.235400 0.042993
0.185597 0.232782 0.040559
0.229393 0.230138 0.037725
0.273814 0.227391 0.034531
0.320094 0.224534 0.036348
0.369214 0.222116 0.043378
0.424032 0.220277 0.049885
0.484383 0.219324 0.055568
0.548396 0.219500 0.057906
0.613941 0.220904 0.060967
0.678809 0.223530 0.064460
0.740719 0.227028 0.068146
0.797008 0.231008 0.071787
0.846915 0.235091 0.075227
0.895585 0.237935 0.077065
0.946209 0.240740 0.078704
1.003460 0.244171 0.080623
1.073409 0.248864 0.083166
1.155573 0.254622 0.086257
1.158955 0.261228 0.089768
0.000000 0.286192 0.034330
0.025681 0.284039 0.037244
0.087344 0.279975 0.035691
0.134184 0.276961 0.033301
0.179192 0.274102 0.030729
0.222937 0.271349 0.027785
0.267259 0.268580 0.024529
0.314359 0.265630 0.020671
0.366172 0.262392 0.019747
0.422675 0.259599 0.029967
0.484569 0.257582 0.039631
0.550026 0.256660 0.048450
0.616950 0.256904 0.054927
0.683149 0.258258 0.058253
0.746108 0.260494 0.062013
0.803223 0.263262 0.065691
0.853655 0.266271 0.069154
0.901074 0.269532 0.072552
0.949804 0.273271 0.076186
1.004838 0.278020 0.080456
1.072340 0.284079 0.085186
1.154346 0.289288 0.088267
1.156721 0.295246 0.091754
0.000000 0.329860 0.021550
0.004275 0.329117 0.024511
0.078301 0.323833 0.022687
0.126202 0.320571 0.020441
0.171708 0.317617 0.017985
0.215716 0.314879 0.015151
0.260230 0.312193 0.011979
0.307457 0.309421 0.008184
0.359923 0.306380 0.003613
0.419846 0.302933 0.000244
0.483895 0.300056 0.013417
0.551161 0.298220 0.025732
0.619673 0.297406 0.037515
0.687138 0.297668 0.047824
0.751105 0.298772 0.054635
0.808953 0.300475 0.058139
0.859991 0.302441 0.061648
0.907815 0.304712 0.065157
0.956853 0.307411 0.068860
1.012398 0.311084 0.073218
1.079498 0.316360 0.078694
1.154981 0.323268 0.085343
1.154399 0.331581 0.092675
0.000000 0.377250 0.005217
0.000000 0.376902 0.007655
0.066370 0.372076 0.006022
0.115898 0.368736 0.004036
0.162501 0.365838 0.001617
0.207228 0.363167 0.000000
0.252226 0.360636 0.000000
0.299802 0.358094 0.000000
0.352587 0.355348 0.000000
0.413136 0.352273 0.000000
0.481200 0.348767 0.000000
0.551072 0.346195 0.000000
0.621590 0.344527 0.006420
0.690556 0.343717 0.020019
0.755620 0.343757 0.032621
0.814291 0.344381 0.043427
0.865813 0.345328 0.052126
0.914068 0.346641 0.055668
0.963487 0.348320 0.059377
1.019678 0.351011 0.063922
1.087171 0.355000 0.069603
1.152792 0.360417 0.076522
1.152261 0.367065 0.084167
0.000000 0.430488 0.000000
0.000000 0.430276 0.000000
0.045220 0.427120 0.000000
0.101898 0.423564 0.000000
0.150631 0.420788 0.000000
0.196583 0.418424 0.000000
0.242517 0.416223 0.000000
0.290890 0.414059 0.000000
0.344346 0.411773 0.000000
0.405513 0.409221 0.000000
0.474159 0.406299 0.000000
0.548033 0.402951 0.000000
0.621497 0.400291 0.000000
0.692514 0.398517 0.000000
0.759102 0.397514 0.000000
0.818720 0.397088 0.006609
0.870902 0.397103 0.018371
0.919698 0.397453 0.029324
0.969460 0.398101 0.040392
1.026221 0.399743 0.051591
1.094181 0.402477 0.057446
1.149822 0.406353 0.064755
1.149344 0.411395 0.072972
0.000000 0.490275 0.000000
0.000000 0.490129 0.000000
0.000000 0.490056 0.000000
0.082707 0.485539 0.000000
0.135218 0.483099 0.000000
0.183476 0.481092 0.000000
0.230916 0.479289 0.000000
0.280474 0.477527 0.000000
0.334933 0.475656 0.000000
0.396922 0.473517 0.000000
0.466223 0.471061 0.000000
0.540581 0.468168 0.000000
0.617231 0.464829 0.000000
0.691519 0.461773 0.000000
0.759837 0.459663 0.000000
0.820832 0.458277 0.000000
0.873985 0.457366 0.000000
0.923450 0.456790 0.000000
0.973832 0.456482 0.000000
1.031450 0.457210 0.009345
1.099861 0.458669 0.027132
1.145951 0.461068 0.046962
1.145501 0.464548 0.058112
0.000000 0.555654 0.000000
0.000000 0.555559 0.000000
0.000000 0.555502 0.000000
0.057466 0.553037 0.000000
0.115390 0.550927 0.000000
0.167275 0.549240 0.000000
0.217068 0.547752 0.000000
0.268328 0.546268 0.000000
0.324104 0.544706 0.000000
0.387132 0.542827 0.000000
0.457195 0.540618 0.000000
0.531953 0.537982 0.000000
0.608819 0.534895 0.000000
0.685095 0.531491 0.000000
0.756997 0.527937 0.000000
0.819486 0.525449 0.000000
0.873638 0.523581 0.000000
0.923855 0.522033 0.000000
0.974810 0.520760 0.000000
1.033594 0.520769 0.000000
1.103076 0.521309 0.000000
1.141591 0.522563 0.000000
1.141034 0.524574 0.022501
0.000000 0.624687 0.000000
0.000000 0.624647 0.000000
0.000000 0.624568 0.000000
0.000000 0.624469 0.000000
0.090060 0.621801 0.000000
0.147518 0.620310 0.000000
0.200647 0.618971 0.000000
0.254203 0.617630 0.000000
0.311585 0.616134 0.000000
0.375942 0.614363 0.000000
0.446879 0.612173 0.000000
0.522303 0.609639 0.000000
0.599448 0.606630 0.000000
0.675600 0.603195 0.000000
0.747841 0.599551 0.000000
0.813162 0.595867 0.000000
0.869353 0.592850 0.000000
0.920546 0.590462 0.000000
0.972502 0.588336 0.000000
1.032222 0.587656 0.000000
1.102705 0.587306 0.000000
1.135685 0.587520 0.000000
1.135593 0.588492 0.000000
0.000000 0.694522 0.000000
0.000000 0.694461 0.000000
0.000000 0.694379 0.000000
0.000000 0.694297 0.000000
0.057939 0.692842 0.000000
0.123873 0.691275 0.000000
0.181673 0.689922 0.000000
0.238167 0.688514 0.000000
0.297674 0.686940 0.000000
0.363617 0.685174 0.000000
0.435668 0.682888 0.000000
0.511637 0.680181 0.000000
0.589047 0.676998 0.000000
0.665179 0.673475 0.000000
0.737235 0.669727 0.000000
0.802308 0.666082 0.000000
0.859525 0.662613 0.000000
0.913124 0.659204 0.000000
0.966718 0.656140 0.000000
1.027643 0.654850 0.000000
1.099297 0.653775 0.000000
1.129310 0.653111 0.000000
1.129308 0.653130 0.000000
0.000000 0.761601 0.000000
0.000000 0.761559 0.000000
0.000000 0.761497 0.000000
0.000000 0.761393 0.000000
0.000000 0.761268 0.000000
0.096133 0.759033 0.000000
0.160624 0.757439 0.000000
0.220869 0.755956 0.000000
0.282935 0.754264 0.000000
0.350572 0.752159 0.000000
0.423827 0.749616 0.000000
0.500538 0.746594 0.000000
0.578282 0.743180 0.000000
0.654511 0.739488 0.000000
0.726520 0.735671 0.000000
0.791405 0.731973 0.000000
0.848435 0.728545 0.000000
0.901860 0.725191 0.000000
0.956650 0.721606 0.000000
1.020377 0.719373 0.000000
1.093372 0.717682 0.000000
1.122993 0.716327 0.000000
1.123071 0.715541 0.000000
0.000000 0.822524 0.000000
0.000000 0.822482 0.000000
0.000000 0.822398 0.000000
0.000000 0.822315 0.000000
0.000000 0.822189 0.000000
0.064984 0.820582 0.000000
0.138451 0.818708 0.000000
0.203262 0.816867 0.000000
