assets/luts/Gamma Correction.cube
#Created by: Affinity Photo (Serif Europe Ltd.)
TITLE "REC709_Gam_Corr"
#LUT size
LUT_3D_SIZE 5
#data domain
#LUT data points
DOMAIN_MIN 0.000000 0.000000 0.000000
DOMAIN_MAX 0.909091 0.909091 0.909091
0.000000 0.000000 0.000000
0.244296 0.000000 0.000000
0.506565 0.034978 0.008315
0.810979 0.076343 0.018300
1.081668 0.108695 0.041603
0.000000 0.245018 0.000000
0.230086 0.231059 0.000000
0.490543 0.217398 0.000000
0.806172 0.224480 0.011273
1.074449 0.248332 0.054587
0.000000 0.490604 0.000000
0.180734 0.481547 0.000000
0.465588 0.471246 0.000000
0.823365 0.457071 0.000000
1.105293 0.455854 0.000000
0.000000 0.822629 0.000000
0.062338 0.820744 0.000000
0.411674 0.809608 0.000000
0.780909 0.791135 0.000000
1.085010 0.776382 0.000000
0.000000 1.110726 0.000000
0.000000 1.110268 0.000000
0.355793 1.093205 0.000000
0.741352 1.071281 0.000000
1.046600 1.058163 0.000000
0.000000 0.000000 0.279569
0.260889 0.000000 0.261913
0.549974 0.000000 0.234327
0.869027 0.000000 0.210309
1.147589 0.000000 0.207467
0.000000 0.238635 0.238712
0.225969 0.226410 0.226557
0.469501 0.223579 0.222215
0.791624 0.233231 0.224690
1.070603 0.249271 0.230324
0.000000 0.485459 0.197883
0.197434 0.475917 0.200227
0.467819 0.468836 0.192786
0.805461 0.463312 0.208293
1.074187 0.470299 0.225722
0.000000 0.820906 0.135973
0.087604 0.817747 0.138313
0.418038 0.806776 0.130780
0.782086 0.789069 0.112095
1.082727 0.775193 0.113842
0.000000 1.109998 0.056626
0.000000 1.109754 0.053097
0.354722 1.092994 0.037132
0.740819 1.071782 0.000563
1.047545 1.058339 0.000000
0.000000 0.000000 0.642305
0.247156 0.000000 0.595609
0.535522 0.000000 0.539263
0.887560 0.000000 0.490951
1.175490 0.000000 0.470048
0.000000 0.232544 0.542931
0.217442 0.220263 0.513211
0.489672 0.205445 0.490327
0.855061 0.169463 0.473744
1.138753 0.168825 0.463123
0.000000 0.478790 0.479378
0.205162 0.471517 0.471617
0.466198 0.466735 0.466914
0.786308 0.469508 0.468462
1.058400 0.475432 0.471030
0.000000 0.817100 0.436509
0.106042 0.812946 0.436144
0.434635 0.798503 0.437241
0.782007 0.783190 0.423815
1.066334 0.774714 0.433427
0.000000 1.104288 0.393960
0.000000 1.103731 0.393279
0.367560 1.084198 0.389381
0.744144 1.064763 0.377637
1.048225 1.054143 0.364339
0.000000 0.000000 1.064463
0.203037 0.000000 1.016153
0.509584 0.000000 0.939953
0.873662 0.000000 0.880484
1.167266 0.000000 0.853166
0.000000 0.219165 0.957239
0.175262 0.208203 0.927544
0.482495 0.188813 0.889297
0.857160 0.147470 0.862147
1.160700 0.088134 0.844963
0.000000 0.475177 0.861985
0.162776 0.470647 0.852838
0.460027 0.462560 0.835587
0.817432 0.447589 0.818212
1.134540 0.420825 0.811330
0.000000 0.810235 0.811907
0.128043 0.804920 0.805957
0.442202 0.790746 0.790895
0.777335 0.777944 0.778154
1.040172 0.778544 0.778272
0.000000 1.096342 0.774677
0.000000 1.095332 0.774256
0.376903 1.074713 0.762128
0.759794 1.054302 0.760064
1.049350 1.049503 0.753867
0.000000 0.000000 1.352490
0.182956 0.000000 1.296348
0.487611 0.000000 1.215552
0.860929 0.000000 1.171533
1.164951 0.000000 1.164951
0.000000 0.211671 1.231163
0.138393 0.201856 1.206776
0.463688 0.178841 1.174482
0.848843 0.132540 1.160687
1.159643 0.075767 1.159643
0.000000 0.471797 1.168029
0.085399 0.468062 1.164578
0.439248 0.456700 1.153131
0.817129 0.437238 1.139456
1.131820 0.412217 1.134457
0.000000 0.807161 1.127323
0.089437 0.803603 1.121413
0.420144 0.790250 1.100207
0.774571 0.774927 1.073219
1.064399 0.766460 1.064355
0.000000 1.090284 1.093055
0.000000 1.089022 1.091253
0.386970 1.068058 1.069077
0.765338 1.050746 1.050768
1.048021 1.048677 1.048918
