assets/luts/Light Rays.cube
TITLE "Generated by Resolve"
LUT_3D_SIZE 5
0 0 0
0.463233 0 0
1 0 0
1 0 0
1 0 0
0 0.166094 0.00988785
0.112718 0.0993973 0.00756847
0.885206 0 0
1 0 0
1 0 0
0 0.537392 0.0112306
0 0.479164 0.011841
0.416495 0.377279 0.0123293
1 0.291844 0.0120089
1 0.248081 0.0115358
0 0.925048 0.00244144
0 0.873899 0.0039826
0 0.780591 0.00653086
0.740215 0.704204 0.00833143
0.988495 0.672557 0.00898756
0 1 0
0 1 0
0 1 0
0.616541 1 0
1 1 0
0 0 0.379141
0.434333 0 0.302022
1 0 0.178668
1 0 0.066865
1 0 0
0 0.139651 0.137362
0.0701305 0.0749218 0.0635233
0.860945 0 0
1 0 0
1 0 0
0 0.515435 0.01149
0 0.45713 0.0120241
0.396414 0.356039 0.012314
0.996338 0.271778 0.0118257
1 0.229038 0.0112459
0 0.905028 0.0030518
0 0.854398 0.00453193
0 0.76173 0.00698863
0.723751 0.686839 0.00869764
0.987808 0.656565 0.00932326
0 1 0
0 1 0
0 1 0
0.598138 1 0
1 1 0
0 0 1
0.300038 0 0.939376
1 0 0.823346
1 0 0.721904
1 0 0.66334
0 0.0989548 0.785824
0 0.0352178 0.718654
0.924178 0 0.611353
1 0 0.521935
1 0 0.471412
0 0.475975 0.446708
0 0.417838 0.388907
0.336751 0.317556 0.287404
0.988678 0.234531 0.20061
1 0.192844 0.155657
0 0.867826 0.13814
0 0.818051 0.0865492
0 0.726116 0.00784314
0.691142 0.652995 0.0093843
0.986587 0.623117 0.00993362
0 1 0
0 1 0
0 1 0
0.556649 1 0
1 1 0
0 0 1
0.229343 0 1
1 0 1
1 0 1
1 0 1
0 0.0607462 1
0 0 1
0.862715 0 1
1 0 1
1 0 1
0 0.440345 1
0 0.382406 1
0.00167849 0.283131 0.916472
0.988891 0.20061 0.835019
1 0.159396 0.793774
0 0.833097 0.778408
0 0.783246 0.73167
0 0.691142 0.644404
0.664759 0.61944 0.575616
0.926223 0.590143 0.547173
0 0.999054 0.650355
0 0.998978 0.613611
0 0.998856 0.535271
0.311818 0.998795 0.471534
0.999954 0.996429 0.4439
0 0 1
0.1879 0 1
1 0 1
1 0 1
1 0 1
0 0.0373541 1
0 0 1
0.831907 0 1
1 0 1
1 0 1
0 0.418708 1
0 0.361166 1
0 0.263142 1
0.987182 0.181918 1
1 0.141238 1
0 0.814282 1
0 0.764935 1
0 0.674159 1
0.10251 0.603815 1
0.723354 0.574945 0.997894
0 1 1
0 1 1
0 0.999985 0.995666
0 0.999786 0.933745
0.999847 0.982132 0.908873
