assets/luts/Light Rays.cube
TITLE "Generated by Resolve"
LUT_3D_SIZE 17
0 0 0
0.0040589 0 0
0.16286 0 0
0.323919 0 0
0.463233 0 0
0.609232 0 0
0.777478 0 0
0.950347 0 0
1 0 0
1 0 0
1 0 0
1 0 0
1 0 0
1 0 0
1 0 0
1 0 0
1 0 0
0 0 0
0 0 0
0.0740215 0 0
0.254337 0 0
0.4094 0 0
0.556527 0 0
0.720882 0 0
0.893706 0 0
1 0 0
1 0 0
1 0 0
1 0 0
1 0 0
1 0 0
1 0 0
1 0 0
1 0 0
0 0.0252079 0.00288396
0 0.00946059 0.00108339
0.00105287 0 0
0.173754 0 0
0.351598 0 0
0.504677 0 0
0.665461 0 0
0.838849 0 0
0.997253 0 0
1 0 0
1 0 0
1 0 0
1 0 0
1 0 0
1 0 0
1 0 0
1 0 0
0 0.0912337 0.00721752
0 0.0756847 0.00639353
0 0.060029 0.00555428
0.0408942 0.0426947 0.0043183
0.267018 0.0215915 0.00247196
0.448981 0 0
0.608103 0 0
0.779492 0 0
0.955764 0 0
1 0 0
1 0 0
1 0 0
1 0 0
1 0 0
1 0 0
1 0 0
1 0 0
0 0.166094 0.00988785
0 0.15172 0.00949111
0 0.137026 0.00900282
0 0.120165 0.00843824
0.112718 0.0993973 0.00756847
0.335698 0.0744945 0.00633249
0.508522 0.0474556 0.00466926
0.691432 0.0208896 0.00239567
0.885206 0 0
1 0 0
1 0 0
1 0 0
1 0 0
1 0 0
1 0 0
1 0 0
1 0 0
0 0.250996 0.0115663
0 0.237278 0.011368
0 0.223331 0.0111543
0 0.207218 0.0108492
0 0.187121 0.0104372
0.199725 0.162951 0.00979629
0.387717 0.136416 0.00898756
0.555337 0.110079 0.00801099
0.741207 0.0836957 0.00682078
0.938247 0.0577859 0.00538643
1 0.0339208 0.00370794
1 0.0133059 0.0015259
1 0 0
1 0 0
1 0 0
1 0 0
1 0 0
0 0.343359 0.0122835
0 0.330312 0.0122377
0 0.317281 0.0121767
0 0.301808 0.0120851
0 0.282353 0.0119326
0.0142214 0.258534 0.0116732
0.265827 0.232303 0.0112917
0.438361 0.206241 0.0108339
0.603983 0.180102 0.0102693
0.788952 0.154131 0.00956741
0.975082 0.130037 0.00877394
1 0.109239 0.00798047
1 0.0918288 0.00724804
1 0.0777142 0.00650034
1 0.0658885 0.00587472
1 0.0548104 0.00518807
1 0.0436561 0.0043946
0 0.439246 0.0121309
0 0.427008 0.012192
0 0.414542 0.012253
0 0.39939 0.0122988
0 0.380209 0.012314
0 0.356649 0.012314
0.127703 0.330434 0.0122377
0.339559 0.304494 0.0121004
0.501472 0.27834 0.011902
0.662303 0.252216 0.0115816
0.836835 0.228061 0.0112306
0.993683 0.20734 0.0108492
1 0.190265 0.0104982
1 0.17673 0.0101625
1 0.165484 0.00987259
1 0.154971 0.00958267
1 0.144366 0.00924697
0 0.537392 0.0112306
0 0.52549 0.0113832
0 0.513359 0.0115053
0 0.498405 0.0116732
0 0.479164 0.011841
0 0.455528 0.0120394
0 0.429343 0.012192
0.22948 0.403296 0.0122988
0.416495 0.377279 0.0123293
0.572122 0.351781 0.0122988
0.723888 0.328115 0.0122377
0.880262 0.308141 0.0121309
1 0.291844 0.0120089
1 0.278813 0.011902
1 0.268132 0.01178
1 0.258412 0.0116579
1 0.248081 0.0115358
0 0.63714 0.00967422
0 0.62533 0.00988785
0 0.613031 0.0101015
0 0.598169 0.0103456
0 0.578882 0.0106508
0 0.55555 0.0109865
0 0.5299 0.0113222
0.0377508 0.504524 0.0116121
0.318151 0.479164 0.011841
0.495964 0.454307 0.0120394
0.642985 0.431296 0.0121767
0.782177 0.411856 0.012253
0.918502 0.396216 0.0122988
0.998199 0.383749 0.012314
0.999542 0.373617 0.0123293
1 0.364462 0.012314
1 0.354818 0.012314
0 0.735363 0.00762951
0 0.723781 0.00788891
0 0.711833 0.00816358
0 0.697673 0.00846876
0 0.679088 0.00886549
0 0.656199 0.00932326
0 0.631235 0.00978103
0 0.606409 0.0102083
0.163912 0.581704 0.0106203
0.410452 0.557397 0.0109712
0.576806 0.53518 0.0112612
0.712779 0.516167 0.0114748
0.838468 0.501091 0.0116426
0.958099 0.489342 0.0117494
0.988006 0.479652 0.011841
0.988556 0.470848 0.0119173
0.989227 0.46128 0.0119936
0 0.831434 0.00518807
0 0.820691 0.00547799
0 0.809339 0.00578317
0 0.795651 0.00613413
0 0.777752 0.0065919
0 0.755444 0.00714122
0 0.731044 0.00772107
0 0.707027 0.00827039
0.0108492 0.682643 0.0087892
0.295659 0.658778 0.00927749
0.506828 0.637018 0.00967422
0.657893 0.618692 0.0100099
0.783062 0.604059 0.0102541
0.89688 0.59263 0.0104524
0.985733 0.583551 0.0105898
0.985672 0.575326 0.0107118
0.985611 0.567086 0.0108186
0 0.925048 0.00244144
0 0.915038 0.00274662
0 0.90428 0.00306706
0 0.891203 0.0034638
0 0.873899 0.0039826
0 0.852171 0.00460822
0 0.828092 0.00527962
0 0.80441 0.0059205
0 0.780591 0.00653086
0.180148 0.757168 0.0071107
0.426307 0.735851 0.00761425
0.604273 0.717983 0.00802625
0.740215 0.704204 0.00833143
0.856367 0.694102 0.00854505
0.964797 0.686213 0.0087129
0.9888 0.679454 0.00885023
0.988495 0.672557 0.00898756
0 1 0
0 1 0
0 0.997024 9.15541e-05
0 0.984405 0.000518807
0 0.967086 0.00109865
0 0.94583 0.00178531
0 0.92221 0.00251774
0 0.899107 0.00323491
0 0.875761 0.00392157
0.0884565 0.853407 0.00456245
0.350103 0.833158 0.00514229
0.55227 0.817243 0.00556954
0.704692 0.804776 0.00590524
0.828565 0.795773 0.00613413
0.939895 0.788861 0.00631724
0.993927 0.783062 0.00646983
0.993606 0.776532 0.00662242
0 1 0
0 1 0
0 1 0
0 1 0
0 1 0
0 1 0
0 1 0
0 0.994186 0.000198367
0 0.972412 0.000915541
0.0212253 0.951019 0.00161746
0.287266 0.932097 0.00221256
0.504036 0.916899 0.00268559
0.671534 0.90515 0.0030518
0.805112 0.896757 0.00329595
0.921874 0.890455 0.00349432
0.998093 0.884779 0.00366217
0.997909 0.878843 0.00383001
0 1 0
0 1 0
0 1 0
0 1 0
0 1 0
0 1 0
0 1 0
0 1 0
0 1 0
0.00308232 1 0
0.240391 1 0
0.461448 1 0
0.637903 1 0
0.780697 0.997772 7.62951e-05
0.904128 0.991714 0.000274662
0.999924 0.986023 0.000457771
0.999893 0.980072 0.000656138
0 1 0
0 1 0
0 1 0
0 1 0
0 1 0
0 1 0
0 1 0
0 1 0
0 1 0
0 1 0
0.213535 1 0
0.437797 1 0
0.616541 1 0
0.761532 1 0
0.885817 1 0
1 1 0
1 1 0
0 0 0.00593576
0 0 0
0.15317 0 0
0.316396 0 0
0.457206 0 0
0.60322 0 0
0.771023 0 0
0.943694 0 0
1 0 0
1 0 0
1 0 0
1 0 0
1 0 0
1 0 0
1 0 0
1 0 0
1 0 0
0 0 0
0 0 0
0.0636759 0 0
0.245975 0 0
0.403098 0 0
0.550637 0 0
0.714427 0 0
0.887373 0 0
1 0 0
1 0 0
1 0 0
1 0 0
1 0 0
1 0 0
1 0 0
1 0 0
1 0 0
0 0.0192569 0.0021973
0 0.00361639 0.000411994
0 0 0
0.164248 0 0
0.344823 0 0
0.499199 0 0
0.659556 0 0
0.832929 0 0
0.996063 0 0
1 0 0
1 0 0
1 0 0
1 0 0
1 0 0
1 0 0
1 0 0
1 0 0
0 0.0852522 0.00689708
0 0.0694743 0.00605783
0 0.0543374 0.00514229
0.0356603 0.0371252 0.00393683
0.263005 0.0162203 0.0018616
0.443626 0 0
0.602731 0 0
0.773846 0 0
0.950072 0 0
1 0 0
1 0 0
1 0 0
1 0 0
1 0 0
1 0 0
1 0 0
1 0 0
0 0.16054 0.00973526
0 0.146059 0.009308
0 0.131472 0.00881971
0 0.114763 0.00820935
0.106752 0.0941024 0.00733959
0.332998 0.0694743 0.00605783
0.506905 0.0424659 0.00430304
0.690166 0.0159915 0.00183108
0.87982 0 0
1 0 0
1 0 0
1 0 0
1 0 0
1 0 0
1 0 0
1 0 0
1 0 0
0 0.245777 0.0115053
0 0.232074 0.0112917
0 0.218235 0.0110628
0 0.202258 0.0107576
0 0.182284 0.0103304
0.19501 0.157992 0.00967422
0.385306 0.131472 0.00881971
0.553048 0.105272 0.00781262
0.739269 0.0790417 0.00657664
0.936309 0.0531472 0.005066
1 0.0292973 0.00335698
1 0.00886549 0.0010071
1 0 0
1 0 0
1 0 0
1 0 0
1 0 0
0 0.338231 0.0122835
0 0.325444 0.0122225
0 0.312398 0.0121614
0 0.296941 0.0120394
0 0.277485 0.011902
0.0080415 0.253788 0.0116121
0.261692 0.227573 0.0112154
0.435142 0.201526 0.0107424
0.601236 0.175387 0.0101472
0.786221 0.149554 0.00943008
0.972427 0.125338 0.00862135
1 0.104555 0.0077821
1 0.0872816 0.00700389
1 0.0730602 0.0062562
1 0.0613413 0.00563058
1 0.0505379 0.00488289
1 0.0392615 0.00408942
0 0.43447 0.0121614
0 0.422126 0.0122225
0 0.409659 0.0122683
0 0.394751 0.0122988
0 0.375448 0.0123293
0 0.351904 0.0122988
0.121157 0.325933 0.0122225
0.335119 0.299748 0.0120699
0.497566 0.273594 0.0118563
0.658732 0.247593 0.0115358
0.833539 0.223331 0.0111543
0.991653 0.202731 0.0107576
1 0.185916 0.0104067
1 0.172259 0.0100557
1 0.161135 0.00975052
1 0.150866 0.00947585
1 0.140032 0.00910964
0 0.532723 0.0112917
0 0.520836 0.011429
0 0.508568 0.0115663
0 0.493751 0.0117189
0 0.47451 0.0118868
0 0.450752 0.0120546
0 0.424689 0.0122072
0.224811 0.398779 0.0122988
0.412131 0.372641 0.0123293
0.568078 0.347265 0.0122988
0.720104 0.323735 0.0122072
0.876692 0.303761 0.0121004
1 0.287465 0.0119783
1 0.274693 0.0118715
1 0.263996 0.0117342
1 0.254276 0.0116121
1 0.244205 0.01149
0 0.632456 0.00976577
0 0.620661 0.00996414
0 0.60824 0.0101778
0 0.593378 0.0104372
0 0.574334 0.0107271
0 0.550881 0.0110475
0 0.525368 0.0113832
0.0316472 0.500114 0.0116579
0.313756 0.474754 0.0118868
0.491783 0.449897 0.0120699
0.639185 0.427131 0.012192
0.77818 0.407584 0.0122683
0.914809 0.392065 0.012314
0.998718 0.379843 0.012314
1 0.369711 0.0123293
1 0.360433 0.012314
1 0.350805 0.0122988
0 0.730556 0.00773632
0 0.719219 0.00799573
0 0.707393 0.00825513
0 0.693111 0.00856031
0 0.674647 0.00894179
0 0.651774 0.00941482
0 0.626932 0.00985733
0 0.60235 0.0102846
0.15906 0.577401 0.0106813
0.406439 0.553216 0.011017
0.572931 0.531014 0.0113069
0.709087 0.512245 0.0115206
0.834501 0.496925 0.0116884
0.954314 0.485298 0.0117952
0.988251 0.475624 0.0118715
0.9888 0.466926 0.0119478
0.989593 0.457496 0.0120241
0 0.826871 0.00531014
0 0.816251 0.00560006
0 0.805142 0.00588998
0 0.791333 0.0062562
0 0.773571 0.00669871
0 0.751385 0.00724804
0 0.726864 0.00782788
0 0.702846 0.00836194
0.00541695 0.678706 0.00886549
0.291646 0.654841 0.00935378
0.503044 0.632959 0.00975052
0.654093 0.614633 0.010071
0.779095 0.600015 0.0103151
0.893034 0.588708 0.0105135
0.985702 0.579614 0.0106355
0.985641 0.571511 0.0107576
0.98558 0.563409 0.0108797
0 0.920729 0.00256352
0 0.910719 0.0028687
0 0.900328 0.00318914
0 0.887114 0.00358587
0 0.869703 0.00410468
0 0.848096 0.00471504
0 0.824155 0.00538643
0 0.80058 0.00601205
0 0.776654 0.00662242
0.174929 0.753109 0.00720226
0.422248 0.731914 0.00770581
0.60061 0.714046 0.0081178
0.736782 0.700618 0.00840772
0.853025 0.690532 0.00862135
0.961807 0.683024 0.00877394
0.988663 0.676249 0.00891127
0.988357 0.66923 0.00906386
0 1 0
0 1 0
0 0.99295 0.000228885
0 0.980331 0.000656138
0 0.963256 0.00122072
0 0.941985 0.00190738
0 0.918379 0.00263981
0 0.895399 0.00334173
0 0.872175 0.00402838
0.0841688 0.849943 0.00466926
0.34641 0.829831 0.00523384
0.548974 0.813779 0.00567636
0.70135 0.801205 0.0059968
0.825498 0.792447 0.00622568
0.93695 0.785779 0.00639353
0.993759 0.779614 0.00654612
0.993439 0.773205 0.00671397
0 1 0
0 1 0
0 1 0
0 1 0
0 1 0
0 1 0
0 1 0
0 0.9906 0.00030518
0 0.968811 0.00103761
0.0198367 0.947921 0.00170901
0.28368 0.929015 0.00231937
0.500511 0.913436 0.0027924
0.668482 0.901946 0.00314336
0.802289 0.89366 0.0033875
0.9187 0.887114 0.00358587
0.998001 0.881804 0.00375372
0.997803 0.87538 0.00393683
0 1 0
0 1 0
0 1 0
0 1 0
0 1 0
0 1 0
0 1 0
0 1 0
0 1 0
0.00221256 1 0
0.235508 1 0
0.45771 1 0
0.63415 1 0
0.777859 0.994675 0.000183108
0.901045 0.988373 0.000381476
0.999908 0.982925 0.000564584
0.999878 0.976608 0.00077821
0 1 0
0 1 0
0 1 0
0 1 0
0 1 0
0 1 0
0 1 0
0 1 0
0 1 0
0 1 0
0.208942 1 0
0.4336 1 0
0.613138 1 0
0.758343 1 0
0.882765 1 0
0.998047 1 0
1 1 0
0 0 0.124498
0 0 0.107164
0.128145 0 0.0892348
0.30753 0 0.0686046
0.461097 0 0.0428931
0.599985 0 0.0106203
0.764431 0 0
0.937057 0 0
1 0 0
1 0 0
1 0 0
1 0 0
1 0 0
1 0 0
1 0 0
1 0 0
1 0 0
0 0 0.066331
0 0 0.0482185
0.0485542 0 0.0292973
0.236744 0 0.0069276
0.39678 0 0
0.544778 0 0
0.708003 0 0
0.880903 0 0
1 0 0
1 0 0
1 0 0
1 0 0
1 0 0
1 0 0
1 0 0
1 0 0
1 0 0
0 0.0131685 0.00476081
0 0 0
0 0 0
0.154543 0 0
0.337469 0 0
0.493477 0 0
0.653788 0 0
0.827008 0 0
0.994781 0 0
1 0 0
1 0 0
1 0 0
1 0 0
1 0 0
1 0 0
1 0 0
1 0 0
0 0.0792706 0.00657664
0 0.0634928 0.00573739
0 0.0486305 0.00474556
0.0290532 0.0314183 0.00352483
0.258701 0.0106203 0.00122072
0.43801 0 0
0.597482 0 0
0.768338 0 0
0.944518 0 0
1 0 0
1 0 0
1 0 0
1 0 0
1 0 0
1 0 0
1 0 0
1 0 0
0 0.154726 0.00958267
0 0.140505 0.0091249
0 0.126055 0.00865187
0 0.109361 0.00798047
0.100893 0.088838 0.00709544
0.330037 0.0641031 0.00576791
0.505241 0.0373541 0.00395209
0.688762 0.0110933 0.0012665
0.874693 0 0
1 0 0
1 0 0
1 0 0
1 0 0
1 0 0
1 0 0
1 0 0
1 0 0
0 0.240192 0.0114137
0 0.226612 0.0112001
0 0.212909 0.0109712
0 0.196933 0.0106355
0 0.177081 0.010193
0.189258 0.153048 0.00953689
0.382773 0.126543 0.00866712
0.550683 0.100359 0.00759899
0.737133 0.0742504 0.00631724
0.934371 0.0485237 0.0047303
1 0.024506 0.00280766
1 0.00419623 0.00047303
1 0 0
1 0 0
1 0 0
1 0 0
1 0 0
0 0.332998 0.012253
0 0.320195 0.012192
0 0.307286 0.0121309
0 0.292073 0.0120089
0 0.272496 0.011841
0.000946059 0.248814 0.0115511
0.257191 0.222736 0.0111391
0.431937 0.196811 0.0106355
0.598276 0.170565 0.0100099
0.783581 0.144732 0.00926223
0.969711 0.12076 0.00846876
1 0.0997482 0.00758373
1 0.0825055 0.00675975
1 0.068513 0.00601205
1 0.0567178 0.00531014
1 0.0460212 0.00456245
1 0.0349889 0.00378424
0 0.429465 0.012192
0 0.417365 0.0122377
0 0.404761 0.0122835
0 0.389868 0.012314
0 0.370687 0.0123293
0 0.347021 0.0122988
0.114076 0.32105 0.012192
0.33077 0.295125 0.0120394
0.49366 0.268742 0.0117952
0.655055 0.242741 0.0114595
0.830198 0.218723 0.0110781
0.990143 0.198016 0.0106508
1 0.181308 0.0102846
1 0.168017 0.00993362
1 0.156664 0.00962844
1 0.14641 0.00932326
1 0.135927 0.0089723
0 0.52781 0.0113527
0 0.516045 0.0114748
0 0.50367 0.0116121
0 0.488853 0.0117647
0 0.469734 0.0119326
0 0.445991 0.0120851
0 0.419806 0.0122225
0.21915 0.394018 0.0122988
0.407767 0.368002 0.0123293
0.563912 0.342626 0.0122835
0.716289 0.319234 0.012192
0.873152 0.29926 0.0120699
0.999237 0.283085 0.0119326
1 0.270436 0.0118105
1 0.259739 0.0116884
1 0.250034 0.0115663
1 0.24007 0.0114137
0 0.627543 0.00984207
0 0.615869 0.0100557
0 0.603571 0.0102541
0 0.588586 0.0105135
0 0.569665 0.0107881
0 0.546349 0.0111086
0 0.520699 0.011429
0.0249638 0.495583 0.0117037
0.309575 0.470466 0.0119173
0.487617 0.445487 0.0121004
0.635126 0.422736 0.0122225
0.774151 0.40354 0.0122835
0.911116 0.387793 0.012314
0.999268 0.375692 0.0123293
1 0.365682 0.0123293
1 0.356405 0.012314
1 0.346654 0.0122988
0 0.72575 0.00784314
0 0.714412 0.0081178
0 0.702846 0.00836194
0 0.688441 0.00866712
0 0.6701 0.0090486
0 0.647471 0.00949111
0 0.622507 0.00993362
0 0.597925 0.0103609
0.154391 0.573236 0.0107424
0.402487 0.54905 0.0110781
0.568948 0.526711 0.011368
0.70515 0.50808 0.0115663
0.830686 0.493004 0.0117189
0.950774 0.481498 0.0118257
0.988495 0.471702 0.0119173
0.98909 0.46276 0.0119936
0.98996 0.453452 0.0120394
0 0.822416 0.00543221
0 0.811688 0.00572213
0 0.800702 0.00601205
0 0.787015 0.00636301
0 0.769131 0.00680552
0 0.747066 0.00735485
0 0.722789 0.00791943
0 0.698528 0.0084535
3.0518e-05 0.674403 0.00895705
0.287343 0.650782 0.00943008
0.499413 0.629023 0.00982681
0.650385 0.610697 0.010132
0.775235 0.595956 0.0103914
0.889479 0.584894 0.0105592
0.985672 0.575692 0.0106966
0.985611 0.568078 0.0108186
0.98555 0.559853 0.0109255
0 0.916518 0.00270085
0 0.906386 0.00300603
0 0.89601 0.00332647
0 0.882918 0.00370794
0 0.865751 0.00421149
0 0.843763 0.00483711
0 0.820081 0.00549325
0 0.796384 0.00611887
0 0.77258 0.00672923
0.170291 0.749157 0.00730907
0.418509 0.728099 0.00779736
0.597162 0.710353 0.00819409
0.733486 0.697047 0.00848402
0.849592 0.686961 0.00869764
0.958343 0.679454 0.00885023
0.98851 0.672679 0.00898756
0.98822 0.666041 0.0091249
0 1 0
0 0.998886 3.0518e-05
0 0.988983 0.000366217
0 0.97612 0.000793469
0 0.959167 0.00134279
0 0.937789 0.00204471
0 0.914305 0.00276188
0 0.891325 0.0034638
0 0.868345 0.0041352
0.0791485 0.846113 0.00477607
0.342458 0.826123 0.0053254
0.545556 0.810208 0.00576791
0.698283 0.797986 0.00607309
0.822461 0.789227 0.00630198
0.933623 0.782193 0.00648508
0.993606 0.776532 0.00662242
0.993286 0.770001 0.00679026
0 1 0
0 1 0
0 1 0
0 1 0
0 1 0
0 1 0
0 1 0
0 0.987259 0.000427253
0 0.965484 0.00114443
0.0179751 0.944335 0.00183108
0.279667 0.925429 0.00242618
0.497429 0.910338 0.00288396
0.665293 0.898726 0.00323491
0.798962 0.890089 0.00349432
0.915892 0.884031 0.00367742
0.997894 0.878355 0.00384527
0.997696 0.872297 0.00402838
0 1 0
0 1 0
0 1 0
0 1 0
0 1 0
0 1 0
0 1 0
0 1 0
0 1 0
0.0011902 1 0
0.231037 1 0
0.453178 1 0
0.630625 0.999512 1.5259e-05
0.774655 0.991211 0.000289921
0.898222 0.985275 0.000488289
0.999893 0.979461 0.000686656
0.999863 0.973526 0.000885023
0 1 0
0 1 0
0 1 0
0 1 0
0 1 0
0 1 0
0 1 0
0 1 0
0 1 0
0 1 0
0.204349 1 0
0.429404 1 0
0.60943 1 0
0.75462 1 0
0.879698 1 0
0.994614 1 0
1 1 0
0 0 0.245304
0 0 0.228367
0.0918441 0 0.210971
0.277226 0 0.191012
0.46154 0 0.16669
0.624247 0 0.137331
0.785443 0 0.104982
0.948531 0 0.0719005
1 0 0.0382239
1 0 0.00268559
1 0 0
1 0 0
1 0 0
1 0 0
1 0 0
1 0 0
1 0 0
0 0 0.188998
0 0 0.17174
0.0150759 0 0.154238
0.206409 0 0.134127
0.398291 0 0.109483
0.558984 0 0.0798505
0.713436 0 0.0467536
0.876951 0 0.012314
1 0 0
1 0 0
1 0 0
1 0 0
1 0 0
1 0 0
1 0 0
1 0 0
