assets/luts/Light Rays.cube
TITLE "Generated by Resolve"
LUT_3D_SIZE 9
0 0 0
0.16286 0 0
0.463233 0 0
0.777478 0 0
1 0 0
1 0 0
1 0 0
1 0 0
1 0 0
0 0.0252079 0.00288396
0.00105287 0 0
0.351598 0 0
0.665461 0 0
0.997253 0 0
1 0 0
1 0 0
1 0 0
1 0 0
0 0.166094 0.00988785
0 0.137026 0.00900282
0.112718 0.0993973 0.00756847
0.508522 0.0474556 0.00466926
0.885206 0 0
1 0 0
1 0 0
1 0 0
1 0 0
0 0.343359 0.0122835
0 0.317281 0.0121767
0 0.282353 0.0119326
0.265827 0.232303 0.0112917
0.603983 0.180102 0.0102693
0.975082 0.130037 0.00877394
1 0.0918288 0.00724804
1 0.0658885 0.00587472
1 0.0436561 0.0043946
0 0.537392 0.0112306
0 0.513359 0.0115053
0 0.479164 0.011841
0 0.429343 0.012192
0.416495 0.377279 0.0123293
0.723888 0.328115 0.0122377
1 0.291844 0.0120089
1 0.268132 0.01178
1 0.248081 0.0115358
0 0.735363 0.00762951
0 0.711833 0.00816358
0 0.679088 0.00886549
0 0.631235 0.00978103
0.163912 0.581704 0.0106203
0.576806 0.53518 0.0112612
0.838468 0.501091 0.0116426
0.988006 0.479652 0.011841
0.989227 0.46128 0.0119936
0 0.925048 0.00244144
0 0.90428 0.00306706
0 0.873899 0.0039826
0 0.828092 0.00527962
0 0.780591 0.00653086
0.426307 0.735851 0.00761425
0.740215 0.704204 0.00833143
0.964797 0.686213 0.0087129
0.988495 0.672557 0.00898756
0 1 0
0 1 0
0 1 0
0 1 0
0 0.972412 0.000915541
0.287266 0.932097 0.00221256
0.671534 0.90515 0.0030518
0.921874 0.890455 0.00349432
0.997909 0.878843 0.00383001
0 1 0
0 1 0
0 1 0
0 1 0
0 1 0
0.213535 1 0
0.616541 1 0
0.885817 1 0
1 1 0
0 0 0.124498
0.128145 0 0.0892348
0.461097 0 0.0428931
0.764431 0 0
1 0 0
1 0 0
1 0 0
1 0 0
1 0 0
0 0.0131685 0.00476081
0 0 0
0.337469 0 0
0.653788 0 0
0.994781 0 0
1 0 0
1 0 0
1 0 0
1 0 0
0 0.154726 0.00958267
0 0.126055 0.00865187
0.100893 0.088838 0.00709544
0.505241 0.0373541 0.00395209
0.874693 0 0
1 0 0
1 0 0
1 0 0
1 0 0
0 0.332998 0.012253
0 0.307286 0.0121309
0 0.272496 0.011841
0.257191 0.222736 0.0111391
0.598276 0.170565 0.0100099
0.969711 0.12076 0.00846876
1 0.0825055 0.00675975
1 0.0567178 0.00531014
1 0.0349889 0.00378424
0 0.52781 0.0113527
0 0.50367 0.0116121
0 0.469734 0.0119326
0 0.419806 0.0122225
0.407767 0.368002 0.0123293
0.716289 0.319234 0.012192
0.999237 0.283085 0.0119326
1 0.259739 0.0116884
1 0.24007 0.0114137
0 0.72575 0.00784314
0 0.702846 0.00836194
0 0.6701 0.0090486
0 0.622507 0.00993362
0.154391 0.573236 0.0107424
0.568948 0.526711 0.011368
0.830686 0.493004 0.0117189
0.988495 0.471702 0.0119173
0.98996 0.453452 0.0120394
0 0.916518 0.00270085
0 0.89601 0.00332647
0 0.865751 0.00421149
0 0.820081 0.00549325
0 0.77258 0.00672923
0.418509 0.728099 0.00779736
0.733486 0.697047 0.00848402
0.958343 0.679454 0.00885023
0.98822 0.666041 0.0091249
0 1 0
0 1 0
0 1 0
0 1 0
0 0.965484 0.00114443
0.279667 0.925429 0.00242618
0.665293 0.898726 0.00323491
0.915892 0.884031 0.00367742
0.997696 0.872297 0.00402838
0 1 0
0 1 0
0 1 0
0 1 0
0 1 0
0.204349 1 0
0.60943 1 0
0.879698 1 0
1 1 0
0 0 0.379141
0.0540627 0 0.345388
0.434333 0 0.302022
0.808515 0 0.242191
1 0 0.178668
1 0 0.11667
1 0 0.066865
1 0 0.0302892
1 0 0
0 0 0.26717
0 0 0.233738
0.30251 0 0.190768
0.673793 0 0.132723
0.996612 0 0.071107
1 0 0.00891127
1 0 0
1 0 0
1 0 0
0 0.139651 0.137362
0 0.111498 0.105928
0.0701305 0.0749218 0.0635233
0.501488 0.024506 0.00280766
0.860945 0 0
1 0 0
1 0 0
1 0 0
1 0 0
0 0.319951 0.012192
0 0.294636 0.0120241
0 0.259983 0.0116884
0.246647 0.210361 0.0109255
0.590539 0.158358 0.00967422
0.963043 0.108507 0.00794995
1 0.0704356 0.00611887
1 0.0450752 0.00448615
1 0.0234531 0.00268559
0 0.515435 0.01149
0 0.491417 0.0117342
0 0.45713 0.0120241
0 0.407584 0.0122683
0.396414 0.356039 0.012314
0.705837 0.30753 0.0121309
0.996338 0.271778 0.0118257
1 0.248569 0.0115511
1 0.229038 0.0112459
0 0.713558 0.00813306
0 0.690776 0.00862135
0 0.658412 0.00927749
0 0.610956 0.010132
0.139834 0.561807 0.0108949
0.558511 0.515679 0.01149
0.820096 0.482109 0.0118257
0.989273 0.460792 0.0119936
0.990936 0.442924 0.0121157
0 0.905028 0.0030518
0 0.884901 0.00364691
0 0.854398 0.00453193
0 0.808972 0.00579843
0 0.76173 0.00698863
0.407584 0.717372 0.0080415
0.723751 0.686839 0.00869764
0.948837 0.669612 0.0090486
0.987808 0.656565 0.00932326
0 1 0
0 1 0
0 1 0
0 0.99852 4.57771e-05
0 0.955596 0.00146487
0.268315 0.915785 0.00271611
0.656107 0.889097 0.00352483
0.907027 0.874647 0.00396735
0.997345 0.862913 0.00430304
0 1 0
0 1 0
0 1 0
0 1 0
0 1 0
0.190188 1 0
0.598138 1 0
0.870115 1 0
1 1 0
0 0 0.68986
0 0 0.656901
0.367849 0 0.614816
0.810117 0 0.556756
1 0 0.496025
1 0 0.437034
1 0 0.391226
1 0 0.358511
1 0 0.33019
0 0 0.580972
0 0 0.548836
0.218906 0 0.508095
0.676661 0 0.45304
1 0 0.395483
1 0 0.340246
1 0 0.297581
1 0 0.268162
1 0 0.242695
0 0.119677 0.457374
0 0.0917983 0.427817
0.00146487 0.0553445 0.388357
0.513878 0.00604257 0.331167
0.911299 0 0.275578
1 0 0.222736
1 0 0.182193
1 0 0.153979
1 0 0.129122
0 0.300023 0.285939
0 0.274861 0.2598
0 0.240665 0.224063
0.194629 0.191226 0.171252
0.597147 0.139498 0.114488
0.962219 0.0901503 0.0580758
1 0.0527199 0.0115511
1 0.0278935 0.00318914
1 0.00677501 0.00077821
0 0.496468 0.101701
0 0.472709 0.0762341
0 0.438727 0.0383154
0 0.38938 0.012314
0.37937 0.338354 0.0122835
0.691112 0.290135 0.0119936
0.997009 0.25452 0.0116121
1 0.231708 0.0112764
1 0.212177 0.010956
0 0.695705 0.00851453
0 0.673045 0.00898756
0 0.640818 0.00961318
0 0.593744 0.0104219
0.118166 0.544869 0.0111238
0.54226 0.498894 0.0116732
0.803601 0.465324 0.0119631
0.990829 0.444144 0.0121004
0.992691 0.426398 0.0122072
0 0.887739 0.00357061
0 0.867613 0.00416571
0 0.837476 0.00502022
0 0.792187 0.00622568
0 0.744854 0.00740063
0.390433 0.700877 0.00839246
0.708293 0.67071 0.00903334
0.933349 0.653864 0.00936904
0.987213 0.640818 0.00961318
0 1 0
0 1 0
0 1 0
0 0.982559 0.000579843
0 0.939895 0.00196841
0.249653 0.900206 0.00318914
0.640772 0.873411 0.00399786
0.892058 0.858961 0.00440986
0.996765 0.847227 0.00474556
0 1 0
0 1 0
0 1 0
0 1 0
0 1 0
0.165789 1 0
0.578973 1 0
0.853925 1 0
1 1 0
0 0 1
0 0 0.980819
0.300038 0 0.939376
0.765698 0 0.882673
1 0 0.823346
1 0 0.766201
1 0 0.721904
1 0 0.690455
1 0 0.66334
0 0 0.906294
0 0 0.875151
0.149966 0 0.835615
0.627832 0 0.782162
1 0 0.726421
1 0 0.673213
1 0 0.632242
1 0 0.604059
1 0 0.579782
0 0.0989548 0.785824
0 0.0713664 0.757015
0 0.0352178 0.718654
0.463401 0 0.664057
0.924178 0 0.611353
1 0 0.560601
1 0 0.521935
1 0 0.495186
1 0 0.471412
0 0.27985 0.621363
0 0.254902 0.596445
0 0.22063 0.561898
0.00863661 0.171191 0.511391
0.572076 0.11931 0.457603
0.999939 0.0697795 0.404791
1 0.0323033 0.363653
1 0.00872816 0.335286
1 0 0.312108
0 0.475975 0.446708
0 0.45185 0.422965
0 0.417838 0.388907
0 0.368475 0.33933
0.336751 0.317556 0.287404
0.682704 0.269795 0.237812
0.988678 0.234531 0.20061
1 0.212039 0.176516
1 0.192844 0.155657
0 0.674586 0.272877
0 0.652461 0.250813
0 0.620417 0.21857
0 0.573495 0.170672
0.0287175 0.525063 0.120455
0.523888 0.479362 0.0713817
0.784283 0.446357 0.0344396
0.992798 0.425544 0.0122072
0.995026 0.408194 0.0122683
0 0.867826 0.13814
0 0.847898 0.117647
0 0.818051 0.0865492
0 0.772869 0.0382696
0 0.726116 0.00784314
0.370932 0.682643 0.0087892
0.691142 0.652995 0.0093843
0.916045 0.636149 0.00968948
0.986587 0.623117 0.00993362
0 0.999512 0.0514076
0 0.999664 0.0312657
0 1 0
0 0.964614 0.00117494
0 0.92221 0.00251774
0.227802 0.882795 0.0037232
0.623178 0.855756 0.00450141
0.875029 0.841306 0.00491341
0.996048 0.829572 0.00523384
0 1 0
0 1 0
0 1 0
0 1 0
0 1 0
0.137697 1 0
0.556649 1 0
0.835584 1 0
1 1 0
0 0 1
0 0 1
0.259052 0 1
0.724468 0 1
1 0 1
1 0 1
1 0 1
1 0 1
1 0 0.987716
0 0 1
0 0 1
0.0994888 0 1
0.577203 0 1
1 0 1
1 0 0.997665
1 0 0.957885
1 0 0.930465
1 0 0.906874
0 0.0786755 1
0 0.0514839 1
0 0.0162203 1
0.401053 0 0.98912
0.890105 0 0.937499
1 0 0.888075
1 0 0.850095
1 0 0.824063
1 0 0.800931
0 0.26038 0.947188
0 0.235767 0.922927
0 0.201617 0.889082
0 0.152163 0.839597
0.530221 0.100404 0.786709
1 0.0506905 0.734691
1 0.0143893 0.694301
1 0 0.667857
1 0 0.646662
0 0.456657 0.777279
0 0.432486 0.753994
0 0.398184 0.72079
0 0.349264 0.672908
0.0420081 0.298589 0.622827
0.614313 0.250751 0.575067
0.99498 0.215747 0.539834
1 0.19321 0.516747
1 0.174075 0.497124
0 0.655268 0.609308
0 0.633097 0.587961
0 0.601343 0.557336
0 0.554376 0.511849
0 0.506004 0.464485
0.498695 0.460044 0.419135
0.752804 0.426886 0.386069
0.975006 0.405982 0.365011
0.982605 0.388876 0.347646
0 0.848371 0.480919
0 0.828733 0.461891
0 0.798611 0.432883
0 0.753231 0.388876
0 0.706279 0.342992
0.239139 0.663111 0.300313
0.673625 0.633982 0.271168
0.884657 0.617533 0.254444
0.969711 0.604532 0.241215
0 0.998749 0.399863
0 0.998749 0.381949
0 0.986877 0.354986
0 0.945342 0.314733
0 0.903227 0.273457
0.0561837 0.863996 0.234607
0.589929 0.837507 0.208087
0.858091 0.82298 0.193256
0.991989 0.81091 0.180865
0 0.998749 0.348333
0 0.998764 0.334737
0 0.998779 0.310262
0 0.99881 0.270634
0 0.998871 0.228992
0.00411994 0.998947 0.189624
0.499992 0.999008 0.162493
0.813733 0.999069 0.147112
1 0.999115 0.133745
0 0 1
0 0 1
0.229343 0 1
0.696178 0 1
1 0 1
1 0 1
1 0 1
1 0 1
1 0 1
0 0 1
0 0 1
0.0712139 0 1
0.550225 0 1
1 0 1
1 0 1
1 0 1
1 0 1
1 0 1
0 0.0607462 1
0 0.0341497 1
0 0 1
0.374273 0 1
0.862715 0 1
1 0 1
1 0 1
1 0 1
1 0 1
0 0.243717 1
0 0.219211 1
0 0.185306 1
0 0.136049 1
0.506661 0.0842908 1
0.999268 0.0352178 1
1 0 0.984558
1 0 0.960571
1 0 0.940078
0 0.440345 1
0 0.416373 1
0 0.382406 1
0 0.333577 0.965331
0.00167849 0.283131 0.916472
0.54728 0.235492 0.869688
0.988891 0.20061 0.835019
1 0.178286 0.812833
1 0.159396 0.793774
0 0.639612 0.903456
0 0.617533 0.882704
0 0.585748 0.85275
0 0.539101 0.808469
0 0.490562 0.762081
0.163439 0.445014 0.71809
0.647089 0.41181 0.685939
0.940459 0.390997 0.665644
0.958465 0.37435 0.649226
0 0.833097 0.778408
0 0.81355 0.760021
0 0.783246 0.73167
0 0.737926 0.688838
0 0.691142 0.644404
0 0.648249 0.603342
0.664759 0.61944 0.575616
0.852857 0.603067 0.559701
0.926223 0.590143 0.547173
0 0.999146 0.699367
0 0.999115 0.682246
0 0.972335 0.65684
0 0.931075 0.618097
0 0.888624 0.577905
0 0.849424 0.540642
0.492103 0.82298 0.515282
0.844205 0.808515 0.50132
0.978561 0.796551 0.489708
0 0.999054 0.650355
0 0.999023 0.63714
0 0.998978 0.613611
0 0.998917 0.575341
0 0.998856 0.535271
0 0.998825 0.497475
0.311818 0.998795 0.471534
0.778225 0.998779 0.456794
0.999954 0.996429 0.4439
0 0 1
0 0 1
0.206699 0 1
0.674983 0 1
1 0 1
1 0 1
1 0 1
1 0 1
1 0 1
0 0 1
0 0 1
0.050248 0 1
0.53051 0 1
0.999069 0 1
1 0 1
1 0 1
1 0 1
1 0 1
0 0.0478065 1
0 0.0215915 1
0 0 1
0.355413 0 1
0.845518 0 1
1 0 1
1 0 1
1 0 1
1 0 1
0 0.231464 1
0 0.207095 1
0 0.173098 1
0 0.12401 1
0.505516 0.072343 1
1 0.0236973 1
1 0 1
1 0 1
1 0 1
0 0.428244 1
0 0.40415 1
0 0.370565 1
0 0.322026 1
0.000579843 0.271901 1
0.529778 0.224918 1
0.989227 0.190265 1
1 0.168261 1
1 0.149187 1
0 0.628153 1
0 0.606653 1
0 0.575067 1
0 0.528557 1
0 0.480369 0.994842
0.00888075 0.434791 0.95996
0.501228 0.401434 0.9281
0.897963 0.380865 0.908278
0.936126 0.364813 0.892775
0 0.822797 1
0 0.803159 0.996338
0 0.773098 0.973617
0 0.72784 0.931563
0 0.681285 0.88809
0 0.638834 0.848066
0.374197 0.610117 0.820996
0.75491 0.593851 0.805447
0.849454 0.581048 0.79324
0 0.999802 0.941604
0 0.989853 0.925628
0 0.963058 0.900923
0 0.922011 0.862974
0 0.879515 0.823499
0 0.840146 0.786847
0.202823 0.813809 0.762158
0.840925 0.799451 0.74844
0.967773 0.787335 0.737011
0 0.999664 0.894423
0 0.999619 0.881743
0 0.999557 0.858457
0 0.999435 0.820874
0 0.999344 0.781445
0 0.999252 0.744305
0.0129091 0.999191 0.718822
0.712764 0.999161 0.704356
0.999695 0.986877 0.692058
0 0 1
0 0 1
0.1879 0 1
0.657588 0 1
1 0 1
1 0 1
1 0 1
1 0 1
1 0 1
0 0 1
0 0 1
0.0333104 0 1
0.514305 0 1
0.986389 0 1
1 0 1
1 0 1
1 0 1
1 0 1
0 0.0373541 1
0 0.0116732 1
0 0 1
0.3411 0 1
0.831907 0 1
1 0 1
1 0 1
1 0 1
1 0 1
0 0.221637 1
0 0.19765 1
0 0.163668 1
0 0.114397 1
0.504707 0.0630198 1
1 0.0147097 1
1 0 1
1 0 1
1 0 1
0 0.418708 1
0 0.394751 1
0 0.361166 1
0 0.31313 1
0 0.263142 1
0.528832 0.216175 1
0.987182 0.181918 1
1 0.15993 1
1 0.141238 1
0 0.619303 1
0 0.597803 1
0 0.566476 1
0 0.520088 1
0 0.47219 1
0.0062562 0.42652 1
0.481117 0.393652 1
0.880568 0.373495 1
0.929381 0.35787 1
0 0.814282 1
0 0.794903 1
0 0.764935 1
0 0.719966 1
0 0.674159 1
0 0.63209 1
0.10251 0.603815 1
0.554818 0.587716 1
0.723354 0.574945 0.997894
0 0.998886 1
0 0.982422 1
0 0.956085 1
0 0.915419 1
0 0.873167 1
0 0.834012 0.996902
0 0.807645 0.976638
0.645884 0.793286 0.963363
0.900847 0.781155 0.952087
0 1 1
0 1 1
0 1 1
0 1 1
0 0.999985 0.995666
0 0.999863 0.958938
0 0.999786 0.933745
0.504341 0.993545 0.919524
0.999847 0.982132 0.908873
