assets/luts/Presetpro - Moody Film.cube
#Created by: Adobe Photoshop Export Color Lookup Plugin
#Copyright: (C) Copyright 2022 Tim Martin and Presetpro.com
TITLE "Presetpro - Moody Film.jpg"
#LUT size
LUT_3D_SIZE 8
#data domain
#LUT data points
DOMAIN_MIN 0.000000 0.000000 0.000000
DOMAIN_MAX 0.903226 0.903226 0.903226
0.109802 0.094116 0.082367
0.141174 0.098053 0.081329
0.205933 0.108795 0.078430
0.305603 0.107391 0.078430
0.453400 0.111816 0.074646
0.623291 0.121582 0.066681
0.792542 0.165985 0.028320
0.939270 0.253387 0.007477
0.109314 0.122589 0.086792
0.142181 0.126495 0.090210
0.215820 0.134338 0.089691
0.326111 0.141693 0.089172
0.473389 0.147644 0.078949
0.640106 0.160919 0.060211
0.799011 0.207977 0.023010
0.936249 0.288818 0.006073
0.104858 0.178497 0.112701
0.129913 0.188751 0.107391
0.206055 0.194183 0.100952
0.350647 0.218719 0.092590
0.512238 0.229584 0.078308
0.667053 0.255035 0.050201
0.818970 0.298279 0.003784
0.950409 0.365082 0.002533
0.040375 0.292328 0.145111
0.083618 0.291321 0.133331
0.186707 0.296265 0.136749
0.340912 0.321289 0.104095
0.535126 0.364960 0.078674
0.714508 0.395813 0.023285
0.845673 0.428711 0.000000
0.966614 0.476257 0.003021
0.000000 0.445312 0.192291
0.002014 0.447327 0.172821
0.104980 0.452271 0.173828
0.305756 0.466187 0.170288
0.510071 0.496399 0.131439
0.708160 0.543976 0.055908
0.859222 0.574982 0.017975
0.975342 0.613312 0.025055
0.001404 0.624420 0.282104
0.005951 0.630371 0.264526
0.005188 0.631775 0.267944
0.279694 0.632782 0.273010
0.487427 0.655304 0.242645
0.676788 0.670105 0.208740
0.841003 0.710693 0.182159
0.962555 0.729797 0.219513
0.003052 0.783813 0.437836
0.000519 0.786102 0.416565
0.001892 0.784821 0.402283
0.316254 0.789246 0.413666
0.506409 0.790649 0.429871
0.665527 0.804321 0.409119
0.820007 0.809113 0.385956
0.941315 0.838715 0.383423
0.336243 0.900452 0.616943
0.342834 0.900055 0.610748
0.379883 0.902740 0.599640
0.490051 0.900452 0.608734
0.605835 0.900818 0.622406
0.712341 0.902832 0.619720
0.816589 0.911713 0.613403
0.913727 0.916504 0.600891
0.116638 0.098541 0.114746
0.145599 0.105377 0.110809
0.210876 0.111694 0.119537
0.308533 0.125000 0.113220
0.449341 0.123596 0.112335
0.624420 0.131958 0.105011
0.786865 0.170776 0.087799
0.932068 0.254150 0.053772
0.122070 0.129913 0.118164
0.146118 0.130432 0.118652
0.217194 0.142700 0.125000
0.326233 0.142700 0.121582
0.469452 0.155487 0.109924
0.636200 0.168243 0.106903
0.797852 0.210999 0.084747
0.937012 0.286530 0.054779
0.121063 0.193665 0.146606
0.143188 0.194672 0.129028
0.221619 0.200623 0.133331
0.350281 0.219727 0.119659
0.512085 0.232513 0.128387
0.669952 0.257050 0.103333
0.814545 0.299316 0.079437
0.945343 0.366089 0.052002
0.067444 0.296265 0.171661
0.119537 0.301056 0.177979
0.204559 0.309021 0.168732
0.344818 0.329132 0.149658
0.536255 0.364929 0.126617
0.715637 0.395813 0.101959
0.845032 0.428833 0.088287
0.959015 0.479828 0.061859
0.003540 0.450226 0.238983
0.003418 0.457184 0.226715
0.123810 0.459229 0.212402
0.317383 0.474396 0.207092
0.512482 0.498932 0.172302
0.715118 0.548035 0.141449
0.861755 0.579773 0.127411
0.970520 0.611267 0.138519
0.000519 0.630890 0.329285
0.000519 0.632263 0.322205
0.004425 0.635162 0.300323
0.293854 0.640106 0.314362
0.494507 0.654266 0.291473
0.681854 0.675262 0.254669
0.847321 0.708679 0.238098
0.960022 0.731689 0.272491
0.001007 0.783813 0.479462
0.000000 0.789520 0.465790
0.009583 0.791168 0.433289
0.333954 0.791534 0.445160
0.515259 0.790527 0.471222
0.669098 0.804321 0.444275
0.823425 0.814178 0.420898
0.941559 0.836578 0.421906
0.376740 0.896790 0.633392
0.381042 0.900818 0.633026
0.407593 0.903229 0.616333
0.499939 0.901215 0.619751
0.611023 0.897797 0.628845
0.716919 0.906281 0.641754
0.816071 0.908661 0.626312
0.923462 0.916016 0.613922
0.110809 0.106903 0.163818
0.148529 0.106384 0.170135
0.219727 0.112701 0.166718
0.327637 0.118164 0.168243
0.455292 0.112732 0.173553
0.617981 0.130798 0.173553
0.781921 0.176605 0.174683
0.925995 0.251862 0.171143
0.121063 0.139282 0.182404
0.158264 0.139282 0.179993
0.234406 0.148010 0.187347
0.339905 0.150024 0.181915
0.468445 0.157379 0.181396
0.630249 0.173553 0.182404
0.790649 0.211517 0.184814
0.931946 0.287018 0.172791
0.116638 0.199097 0.198212
0.146606 0.206451 0.197205
0.236298 0.208984 0.200104
0.355072 0.219727 0.211365
0.500336 0.232513 0.200104
0.663635 0.259460 0.196198
0.811279 0.299316 0.183563
0.938660 0.362671 0.184052
0.046814 0.312439 0.241730
0.123962 0.316376 0.246277
0.229462 0.328644 0.242371
0.360504 0.340912 0.224274
0.550293 0.369385 0.228455
0.708801 0.394806 0.212891
0.837585 0.426300 0.214417
0.956726 0.472351 0.213409
0.001892 0.464142 0.316895
0.002411 0.467072 0.305786
0.184570 0.480713 0.310059
0.339874 0.486145 0.296906
0.528809 0.508301 0.269958
0.716248 0.551819 0.264252
0.857178 0.580780 0.261963
0.967865 0.610504 0.270966
0.001007 0.638214 0.402771
0.003418 0.640106 0.408600
0.111542 0.647949 0.395966
0.326233 0.647583 0.388611
0.499969 0.662109 0.383301
0.687164 0.680328 0.355865
0.843384 0.712738 0.347382
0.957123 0.737000 0.373566
0.000000 0.788635 0.524872
0.014160 0.793427 0.524719
0.236938 0.786713 0.522064
0.365204 0.793549 0.506256
0.532837 0.791534 0.521179
0.673248 0.805817 0.512207
0.817841 0.813049 0.486786
0.938660 0.836578 0.494507
0.381927 0.897919 0.661865
0.420868 0.897797 0.666779
0.464905 0.898285 0.659698
0.514343 0.901215 0.649475
0.621765 0.899323 0.658813
0.720825 0.903748 0.665283
0.817596 0.909058 0.658813
0.917145 0.916901 0.644287
0.084747 0.117645 0.266388
0.130920 0.122070 0.280579
0.234894 0.117645 0.295258
0.366852 0.120056 0.288422
0.515137 0.127533 0.282593
0.647064 0.114227 0.271698
0.772034 0.150543 0.274261
0.918549 0.242004 0.288025
0.095001 0.157379 0.291321
0.135864 0.156372 0.289429
0.239349 0.156860 0.307526
0.371277 0.154449 0.296387
0.518524 0.168121 0.296753
0.655792 0.152679 0.280060
0.782806 0.204041 0.287903
0.922821 0.277802 0.296753
0.080841 0.224152 0.303589
0.134216 0.223663 0.309021
0.234406 0.227570 0.320282
0.377319 0.233002 0.320038
0.522461 0.246674 0.316376
0.650482 0.256042 0.311066
0.797974 0.293854 0.320801
0.927765 0.359650 0.322571
0.003021 0.330048 0.346954
0.093994 0.329651 0.349762
0.223663 0.344818 0.356720
0.385559 0.362030 0.365051
0.541962 0.371887 0.365967
0.692352 0.389099 0.356598
0.827850 0.423889 0.355713
0.947510 0.472351 0.351929
0.000000 0.492615 0.426697
0.003052 0.493011 0.422516
0.198090 0.501862 0.425415
0.382538 0.511078 0.427185
0.546875 0.528778 0.411621
0.716156 0.560181 0.410248
0.851379 0.582825 0.413666
0.953827 0.609619 0.413147
0.006439 0.653381 0.500946
0.001007 0.656952 0.501190
0.174316 0.657806 0.504883
0.385559 0.668060 0.505371
0.529663 0.670990 0.502838
0.692474 0.690063 0.481354
0.840485 0.717529 0.485138
0.953827 0.741058 0.497162
0.000000 0.796478 0.583191
0.002014 0.796478 0.588989
0.281464 0.796082 0.598480
0.448303 0.798218 0.601257
0.557770 0.802795 0.598480
0.686157 0.809875 0.600128
0.818481 0.819122 0.574188
0.934204 0.839966 0.582794
0.330048 0.903229 0.684631
0.380646 0.902832 0.697418
0.473755 0.902588 0.703491
0.563446 0.903229 0.701202
0.634277 0.904755 0.698029
0.731689 0.907257 0.709290
0.818085 0.914124 0.703979
0.916901 0.917389 0.685883
0.000000 0.135376 0.429871
0.053589 0.134857 0.429382
0.212006 0.131439 0.447327
0.391510 0.111328 0.474915
0.551453 0.113739 0.463287
0.716003 0.161438 0.457336
0.830750 0.186615 0.428864
0.935120 0.236694 0.427094
0.002014 0.171539 0.440125
0.060944 0.172180 0.443024
0.219208 0.167755 0.458862
0.402130 0.157349 0.479218
0.557770 0.163330 0.469604
0.716522 0.207977 0.463654
0.828339 0.228851 0.444672
0.933716 0.268341 0.430511
0.001892 0.251099 0.451385
0.052460 0.249207 0.466919
0.207825 0.246155 0.477814
0.398193 0.247192 0.494507
0.568024 0.261993 0.488708
0.716522 0.303741 0.476929
0.825806 0.313110 0.458344
0.919922 0.351288 0.452362
0.008209 0.355591 0.491608
0.004456 0.359131 0.493896
0.195679 0.368866 0.501709
0.375702 0.376709 0.515137
0.570801 0.399353 0.524994
0.700348 0.419983 0.508820
0.806854 0.424896 0.486542
0.919922 0.470459 0.493103
0.002014 0.504242 0.537537
0.003540 0.502747 0.531830
0.171783 0.516022 0.547516
0.377716 0.525879 0.553223
0.562958 0.549408 0.570923
0.702362 0.561066 0.556763
0.827850 0.574860 0.543610
0.934082 0.603424 0.543610
0.006195 0.670105 0.605347
0.002411 0.668579 0.603821
0.155212 0.676300 0.604828
0.394928 0.682739 0.611511
0.565613 0.688202 0.616089
0.705780 0.703003 0.609253
0.843018 0.722961 0.610260
0.944855 0.744598 0.611267
0.003784 0.802429 0.669220
0.002411 0.808746 0.660217
0.231873 0.802277 0.661102
0.434753 0.805817 0.669952
0.593567 0.807220 0.680725
0.699188 0.813171 0.678436
0.820007 0.827972 0.659210
0.929657 0.844543 0.670990
0.110779 0.909180 0.719818
0.228699 0.908661 0.726776
0.389099 0.909698 0.736755
0.539124 0.906128 0.740936
0.661865 0.906647 0.750793
0.738281 0.907166 0.753723
0.823914 0.913086 0.755493
0.913727 0.918396 0.739807
0.000000 0.163330 0.604828
0.000000 0.158905 0.606842
0.185303 0.154083 0.617737
0.397827 0.141296 0.632385
0.608765 0.097168 0.652374
0.753601 0.158020 0.643799
0.868195 0.273499 0.621277
0.959015 0.360168 0.609131
0.000000 0.195709 0.606842
0.002014 0.195068 0.614807
0.188965 0.191650 0.619629
0.399872 0.185333 0.634796
0.608734 0.164337 0.656799
0.749176 0.213928 0.642151
0.868561 0.318665 0.624054
0.957642 0.393677 0.617737
0.000000 0.281464 0.619995
0.001526 0.279175 0.618591
0.169098 0.271210 0.630249
0.394409 0.274109 0.647461
0.606842 0.278564 0.667572
0.750061 0.320435 0.656799
0.854919 0.406952 0.636322
0.944855 0.449585 0.629486
0.000000 0.396942 0.629089
0.000000 0.401123 0.633026
0.153046 0.402252 0.639465
0.375427 0.401245 0.657806
0.587128 0.419342 0.674377
0.746002 0.451843 0.671997
0.849213 0.519043 0.660095
0.933594 0.528381 0.644043
0.001404 0.532227 0.658569
0.011139 0.530823 0.658936
0.132416 0.537140 0.660858
0.364929 0.550812 0.666931
0.560028 0.562195 0.682739
0.728271 0.589661 0.689056
0.830231 0.612305 0.675934
0.914978 0.604309 0.650482
0.005066 0.668945 0.693634
0.002014 0.675415 0.701111
0.173553 0.676422 0.694519
0.394928 0.683258 0.699677
0.564209 0.700958 0.706268
0.721313 0.718536 0.719940
0.823151 0.720428 0.701202
0.926880 0.733856 0.694000
0.000885 0.810516 0.745850
0.002014 0.811371 0.747894
0.244904 0.815186 0.745117
0.432129 0.819489 0.747253
0.588776 0.820892 0.750793
0.721313 0.825439 0.750916
0.823029 0.831757 0.748383
0.923584 0.851746 0.751038
0.147766 0.918274 0.790131
0.231384 0.917664 0.790405
0.347992 0.916504 0.790894
0.486267 0.913971 0.790497
0.623291 0.911072 0.795837
0.754211 0.916138 0.808228
0.833405 0.917023 0.808228
0.920441 0.924347 0.796844
0.000885 0.199127 0.756378
0.004303 0.201782 0.759399
0.211243 0.196350 0.763184
0.426941 0.190399 0.769012
0.626831 0.181671 0.783569
0.804443 0.201904 0.798492
0.904510 0.315369 0.775970
0.967865 0.453888 0.748138
0.003540 0.237946 0.759918
0.001007 0.235413 0.761688
0.208832 0.235413 0.763062
0.427826 0.231506 0.770416
0.624176 0.230865 0.784210
0.805328 0.257446 0.798859
0.905884 0.348663 0.778503
0.966095 0.476166 0.750031
0.000000 0.323700 0.762177
0.006592 0.315857 0.765106
0.183533 0.318024 0.762177
0.422363 0.323212 0.779907
0.621155 0.330811 0.789642
0.795319 0.362183 0.798737
0.896393 0.438843 0.787750
0.958130 0.539795 0.756226
0.002411 0.441101 0.761169
0.001404 0.441620 0.759644
0.172272 0.442505 0.776855
0.400360 0.441345 0.781677
0.596497 0.458679 0.787598
0.778748 0.491699 0.807220
0.885132 0.543701 0.791656
0.948914 0.621002 0.774597
0.000000 0.565979 0.770905
0.001526 0.569916 0.771149
0.106110 0.571045 0.769012
0.369476 0.570526 0.776337
0.566101 0.586609 0.785706
0.745483 0.616089 0.803436
0.861115 0.653412 0.795593
0.934235 0.703369 0.790131
0.000519 0.693634 0.788116
0.000519 0.694122 0.790283
0.162170 0.698059 0.791656
0.382263 0.699829 0.790649
0.546509 0.707916 0.792023
0.716888 0.726379 0.805573
0.843140 0.754333 0.807343
0.923859 0.766235 0.797363
0.007843 0.802155 0.816071
0.086426 0.809113 0.813049
0.278931 0.808105 0.816956
0.437805 0.816071 0.816711
0.582825 0.816833 0.820007
0.716522 0.831757 0.824432
0.836578 0.842651 0.831757
0.919922 0.844910 0.820892
0.191284 0.926880 0.852386
0.257050 0.917389 0.851105
0.366333 0.918427 0.855286
0.492188 0.916901 0.856293
0.622040 0.919800 0.861115
0.738281 0.922974 0.859070
0.841370 0.924225 0.865417
0.923859 0.927765 0.857178
0.000000 0.281586 0.884003
0.150177 0.287811 0.884003
0.329651 0.288300 0.883240
0.506500 0.294128 0.888672
0.665802 0.308807 0.889435
0.819489 0.348267 0.895905
0.942078 0.426453 0.899567
0.999634 0.530670 0.884369
0.004791 0.317535 0.888184
0.153595 0.324982 0.878296
0.332703 0.322968 0.882599
0.503601 0.330414 0.888184
0.664032 0.348145 0.889069
0.818604 0.387604 0.898438
0.939545 0.458191 0.903351
0.999237 0.548126 0.890442
0.000000 0.395813 0.877930
0.122833 0.393280 0.880829
0.318665 0.401520 0.879059
0.492584 0.409363 0.888062
0.661224 0.428589 0.893738
0.807220 0.465393 0.895905
0.927887 0.522339 0.901825
0.992401 0.593658 0.882233
0.000000 0.510284 0.880829
0.097931 0.505249 0.879547
0.314606 0.515350 0.892853
0.475525 0.516235 0.888306
0.644531 0.534851 0.887024
0.788116 0.562439 0.896545
0.913483 0.604919 0.902832
0.976105 0.660706 0.886658
0.006073 0.616699 0.877441
0.001007 0.611664 0.872375
0.198730 0.618103 0.874268
0.430206 0.618103 0.880707
0.601410 0.636841 0.887665
0.761536 0.658844 0.894501
0.891968 0.690216 0.903748
0.964325 0.730438 0.893372
0.000000 0.731323 0.884766
0.007080 0.732208 0.882599
0.203674 0.728027 0.886902
0.390869 0.730316 0.884247
0.553223 0.728424 0.879944
0.725250 0.747375 0.893372
0.864532 0.768646 0.898804
0.953827 0.799744 0.900818
0.001404 0.832642 0.896027
0.127899 0.829620 0.898682
0.287262 0.835175 0.896759
0.431091 0.835297 0.897034
0.567383 0.837189 0.899323
0.696533 0.838226 0.895142
0.831757 0.848450 0.896515
0.937134 0.872375 0.912079
0.287537 0.917267 0.916504
0.324219 0.917023 0.913483
0.405060 0.915894 0.914490
0.504242 0.914490 0.915375
0.616333 0.913361 0.914612
0.727386 0.919434 0.920044
0.828583 0.927155 0.917389
0.929047 0.936127 0.924744
