assets/luts/Presetpro - Polaroid Color.cube
#Created by: Adobe Photoshop Export Color Lookup Plugin
#Copyright: (C) Copyright 2022 Tim Martin and Presetpro.com
TITLE "Presetpro - Polaroid Color.jpg"
#LUT size
LUT_3D_SIZE 32
#data domain
DOMAIN_MIN 0.0 0.0 0.0
DOMAIN_MAX 1.0 1.0 1.0
#LUT data points
0.003937 0.070587 0.039215
0.003784 0.070465 0.039093
0.000244 0.074249 0.039215
0.013275 0.074127 0.035675
0.033905 0.071106 0.035309
0.067932 0.071228 0.038574
0.090820 0.070587 0.035309
0.132935 0.073639 0.040100
0.163818 0.069580 0.037201
0.191132 0.065521 0.034149
0.227173 0.061493 0.034027
0.268311 0.052124 0.033905
0.300171 0.039215 0.029846
0.343811 0.028076 0.031372
0.381378 0.008240 0.023529
0.423248 0.000000 0.025543
0.451233 0.003937 0.025421
0.495270 0.001770 0.021362
0.530701 0.003937 0.021240
0.566498 0.000000 0.010254
0.604828 0.000000 0.010376
0.645935 0.003937 0.001251
0.683380 0.000000 0.006714
0.717529 0.003937 0.000000
0.756378 0.000000 0.000000
0.794708 0.000000 0.003174
0.831512 0.000000 0.003296
0.864655 0.000000 0.000519
0.892609 0.003540 0.007080
0.928650 0.000000 0.007599
0.964081 0.003784 0.003937
0.984314 0.000000 0.000000
0.000000 0.082367 0.035156
0.000000 0.078674 0.035309
0.000122 0.078796 0.035431
0.012146 0.082733 0.035675
0.040741 0.079315 0.035034
0.071838 0.082977 0.038452
0.097900 0.079193 0.032623
0.139893 0.081726 0.037567
0.163055 0.077545 0.034424
0.202026 0.068176 0.031494
0.235138 0.069458 0.032776
0.276154 0.062744 0.032501
0.308289 0.052124 0.027710
0.349121 0.033783 0.021240
0.383789 0.020233 0.023651
0.427307 0.004181 0.025696
0.463135 0.002014 0.019623
0.502747 0.003784 0.019470
0.536377 0.001892 0.017853
0.571289 0.000122 0.015442
0.611908 0.002411 0.005066
0.648468 0.001404 0.001251
0.687164 0.000122 0.000000
0.718536 0.000122 0.000000
0.757385 0.000000 0.000000
0.797089 0.000885 0.003296
0.836060 0.000000 0.000000
0.861237 0.003418 0.000000
0.892853 0.003937 0.000000
0.928772 0.000366 0.000122
0.960266 0.000122 0.000000
0.988220 0.003937 0.000000
0.003662 0.090454 0.042877
0.000244 0.090698 0.035309
0.000244 0.087280 0.034790
0.008209 0.094757 0.035156
0.040466 0.094879 0.027954
0.068817 0.094360 0.031738
0.095764 0.094360 0.032623
0.139282 0.090698 0.035919
0.166351 0.091217 0.034790
0.204803 0.082855 0.035034
0.237946 0.081848 0.032623
0.275269 0.073639 0.031372
0.311554 0.065643 0.029205
0.354950 0.051483 0.030487
0.391632 0.036682 0.031128
0.432739 0.022522 0.026703
0.465302 0.006561 0.017700
0.505127 0.001892 0.017853
0.537018 0.003937 0.013672
0.580658 0.001526 0.014160
0.616821 0.002533 0.009247
0.650116 0.000244 0.000000
0.693481 0.002777 0.008972
0.719299 0.000000 0.001007
0.763947 0.002777 0.000000
0.800140 0.007080 0.000000
0.829346 0.003662 0.000641
0.864136 0.006836 0.000000
0.900452 0.003540 0.000000
0.932587 0.004181 0.003662
0.967621 0.000000 0.000000
0.988495 0.004669 0.000519
0.000000 0.103485 0.035309
0.000000 0.106628 0.038849
0.000244 0.106903 0.038574
0.004303 0.110565 0.034912
0.033630 0.107635 0.027466
0.070190 0.113983 0.034424
0.102570 0.103851 0.031372
0.141174 0.110168 0.038330
0.177734 0.107025 0.036682
0.213531 0.101593 0.033783
0.248566 0.099548 0.034790
0.285004 0.093872 0.030731
0.320557 0.089813 0.029846
0.358856 0.077911 0.026184
0.394287 0.069946 0.026062
0.431854 0.052643 0.016052
0.471222 0.033508 0.022766
0.513489 0.011505 0.019226
0.545105 0.002655 0.015320
0.586487 0.000000 0.009735
0.622284 0.000366 0.001770
0.658722 0.002289 0.000000
0.700195 0.001129 0.005066
0.730316 0.000000 0.004547
0.766357 0.002655 0.000000
0.804047 0.003174 0.000000
0.836700 0.000000 0.000641
0.868073 0.003418 0.000000
0.903992 0.000366 0.000000
0.929657 0.000000 0.000244
0.964081 0.005676 0.000000
0.999237 0.046936 0.003937
0.000000 0.122589 0.039734
0.000122 0.122589 0.039978
0.000000 0.123077 0.038971
0.000122 0.127380 0.034790
0.029968 0.130920 0.032379
0.074371 0.131561 0.039215
0.110931 0.127502 0.030609
0.141815 0.133972 0.024414
0.187836 0.127014 0.034790
0.217957 0.125854 0.032501
0.254395 0.122314 0.032135
0.299683 0.111328 0.030487
0.333466 0.114227 0.034271
0.369507 0.106262 0.029602
0.407074 0.097015 0.027954
0.439972 0.084381 0.018738
0.487549 0.072968 0.017700
0.526764 0.057159 0.017456
0.560913 0.034149 0.012909
0.596344 0.016815 0.012665
0.629852 0.004059 0.000519
0.668182 0.002655 0.002167
0.702972 0.000000 0.003418
0.740051 0.000000 0.000000
0.771423 0.000000 0.000519
0.805328 0.003418 0.000000
0.843903 0.003296 0.000519
0.876404 0.000519 0.000000
0.912598 0.004028 0.000000
0.937775 0.024902 0.000000
0.972412 0.070465 0.000000
0.996063 0.109406 0.006836
0.003296 0.135864 0.050995
0.000000 0.139160 0.043762
0.000000 0.142700 0.039978
0.001129 0.149658 0.035553
0.017090 0.153442 0.035309
0.061981 0.150909 0.031372
0.112335 0.155334 0.033905
0.152802 0.155090 0.026825
0.188721 0.152191 0.028198
0.228577 0.150421 0.029602
0.267151 0.150269 0.029480
0.308777 0.143707 0.029358
0.344574 0.144592 0.027466
0.380371 0.135864 0.022888
0.416809 0.130157 0.027313
0.457306 0.122192 0.024292
0.495789 0.110291 0.021515
0.533600 0.097504 0.011383
0.570526 0.086121 0.007202
0.605713 0.078033 0.000000
0.638855 0.063232 0.003784
0.677948 0.048676 0.001892
0.713226 0.035522 0.000000
0.747253 0.026550 0.002289
0.784943 0.027802 0.002411
0.819122 0.030334 0.000000
0.847809 0.040985 0.000000
0.884888 0.057678 0.003418
0.915741 0.082611 0.005829
0.940918 0.109924 0.003540
0.973419 0.137238 0.000122
0.996704 0.157990 0.000641
0.000000 0.162292 0.044647
0.000000 0.166229 0.046295
0.000000 0.169647 0.040222
0.003174 0.167725 0.039215
0.009613 0.170654 0.036041
0.054626 0.174683 0.038696
0.108154 0.178741 0.026703
0.148621 0.180389 0.016571
0.191254 0.183411 0.024933
0.229584 0.177979 0.018860
0.269043 0.178253 0.021515
0.308899 0.172424 0.017456
0.351929 0.177216 0.018860
0.395050 0.171661 0.017456
0.433868 0.168884 0.019623
0.473724 0.157990 0.013794
0.507660 0.152924 0.015686
0.545624 0.142822 0.009491
0.579254 0.137238 0.003296
0.622284 0.130035 0.000000
0.656555 0.120789 0.002533
0.693756 0.118256 0.001892
0.724854 0.109924 0.000000
0.756500 0.110931 0.000763
0.791016 0.111816 0.000885
0.825165 0.119019 0.000000
0.860352 0.125610 0.005066
0.889679 0.131042 0.007843
0.919281 0.150024 0.001526
0.945343 0.172424 0.000244
0.976593 0.188599 0.000000
1.000000 0.212402 0.000000
0.000000 0.186951 0.043152
0.004059 0.190765 0.046936
0.000000 0.186951 0.043152
0.000885 0.191772 0.037048
0.008484 0.192261 0.037842
0.039703 0.199097 0.036560
0.093994 0.206573 0.028076
0.139893 0.211365 0.016968
0.186340 0.214294 0.010010
0.226685 0.206818 0.012146
0.267670 0.207825 0.009125
0.313721 0.205170 0.009613
0.356842 0.204407 0.007599
0.400482 0.198212 0.007843
0.440216 0.200500 0.008728
0.487030 0.197723 0.011139
0.522705 0.197449 0.001892
0.565491 0.186188 0.002655
0.597717 0.182526 0.001648
0.634918 0.179993 0.000000
0.671356 0.170898 0.005585
0.704376 0.169617 0.003052
0.737274 0.169769 0.000885
0.764465 0.169006 0.000000
0.800385 0.171783 0.000000
0.833893 0.175690 0.000000
0.866547 0.183533 0.003052
0.900330 0.192017 0.004303
0.916626 0.208832 0.000000
0.950928 0.223511 0.000885
0.981659 0.239471 0.007843
0.996063 0.261078 0.003052
0.000000 0.213776 0.044037
0.001007 0.220734 0.042511
0.003662 0.216064 0.042236
0.002899 0.215820 0.039215
0.001007 0.222626 0.034271
0.037445 0.220734 0.030487
0.087158 0.229736 0.021271
0.139771 0.232361 0.016571
0.186462 0.239349 0.004944
0.226440 0.239349 0.002899
0.269043 0.242004 0.002655
0.316376 0.239716 0.001404
0.360016 0.239349 0.000000
0.403015 0.238312 0.000000
0.445892 0.234650 0.002167
0.491821 0.233398 0.000000
0.532715 0.237427 0.000000
0.578644 0.238312 0.002289
0.618347 0.238068 0.002655
0.654266 0.234009 0.002411
0.681732 0.225677 0.001404
0.714355 0.224030 0.000000
0.745361 0.224518 0.000000
0.781403 0.227570 0.004944
0.813049 0.233643 0.001892
0.841888 0.234528 0.000000
0.874268 0.241730 0.002289
0.904358 0.246277 0.000519
0.922089 0.259430 0.000000
0.953461 0.275879 0.002899
0.983673 0.292084 0.002777
0.996063 0.307007 0.000000
0.000000 0.241486 0.040344
0.000000 0.242615 0.040344
0.000000 0.243774 0.039856
0.005585 0.246918 0.040100
0.000519 0.252625 0.032013
0.035278 0.250977 0.023407
0.084106 0.254395 0.018097
0.134979 0.257538 0.014557
0.182648 0.264252 0.000000
0.225281 0.267303 0.000000
0.269196 0.271210 0.000000
0.317627 0.274872 0.001129
0.366852 0.273987 0.002411
0.408203 0.270081 0.001129
0.450958 0.270813 0.001251
0.492950 0.272339 0.002014
0.532593 0.274384 0.000000
0.580139 0.276276 0.001770
0.627075 0.281342 0.003937
0.662506 0.281708 0.001526
0.697540 0.281067 0.000000
0.729431 0.279694 0.000000
0.763580 0.278534 0.000000
0.796448 0.282471 0.004944
0.822266 0.287415 0.000000
0.854156 0.292328 0.000000
0.881989 0.297516 0.002167
0.905518 0.306610 0.002289
0.936493 0.315735 0.001129
0.959778 0.325592 0.000000
0.987610 0.340027 0.001129
1.000000 0.353058 0.003418
0.001251 0.272980 0.036560
0.003937 0.273102 0.037842
0.000244 0.271454 0.034027
0.001251 0.270447 0.028717
0.000519 0.281708 0.031616
0.025909 0.276886 0.021637
0.084503 0.284729 0.013672
0.132446 0.288300 0.005188
0.178619 0.294739 0.001007
0.227814 0.297913 0.002655
0.269043 0.299164 0.000000
0.315491 0.305634 0.005188
0.360504 0.305756 0.002655
0.408203 0.306366 0.003052
0.450195 0.308777 0.002655
0.495758 0.307495 0.000641
0.536621 0.314087 0.001251
0.584076 0.310944 0.000000
0.627075 0.319031 0.000000
0.669586 0.319916 0.000000
0.704254 0.331696 0.000000
0.743958 0.339661 0.002655
0.778381 0.340637 0.002777
0.805054 0.339508 0.001251
0.830353 0.346466 0.001770
0.857819 0.351166 0.000000
0.884369 0.357239 0.000000
0.911713 0.365204 0.000000
0.943573 0.370514 0.000000
0.961792 0.381134 0.000000
0.982666 0.395569 0.000000
0.996063 0.404907 0.001251
0.001404 0.298279 0.036438
0.002533 0.303711 0.035034
0.000000 0.304993 0.029999
0.000000 0.303589 0.027191
0.000000 0.307892 0.031494
0.029327 0.310059 0.016968
0.081848 0.316498 0.009613
0.131805 0.315369 0.000000
0.172302 0.322815 0.000000
0.218323 0.325745 0.001129
0.263733 0.332428 0.000000
0.315369 0.333588 0.000000
0.359253 0.337616 0.002533
0.406830 0.342560 0.005066
0.446655 0.344574 0.002167
0.493713 0.348633 0.001404
0.541321 0.348267 0.000000
0.588776 0.350281 0.000000
0.625854 0.358246 0.000885
0.664032 0.362152 0.000000
0.706787 0.373047 0.001129
0.743958 0.383545 0.002777
0.778381 0.394043 0.001129
0.812653 0.401886 0.005432
0.840485 0.407959 0.004181
0.867920 0.410339 0.000763
0.892212 0.414917 0.000000
0.918671 0.419586 0.000000
0.947510 0.424255 0.000000
0.966736 0.432983 0.000000
0.991638 0.447296 0.000000
0.993561 0.457916 0.000000
0.004822 0.329132 0.025940
0.002411 0.331543 0.025940
0.000000 0.329407 0.023010
0.000000 0.336975 0.022003
0.001526 0.336853 0.014160
0.029205 0.339783 0.009369
0.080566 0.344971 0.000000
0.136230 0.345978 0.000000
0.176086 0.352173 0.000000
0.220978 0.358612 0.000000
0.264893 0.362915 0.000000
0.311432 0.364319 0.002411
0.353577 0.372284 0.000000
0.400604 0.377716 0.000000
0.444641 0.381653 0.000000
0.491577 0.384796 0.000000
0.537415 0.386078 0.002411
0.582428 0.391876 0.003540
0.624054 0.399597 0.000763
0.663025 0.406067 0.003937
0.704254 0.412628 0.000000
0.744354 0.422241 0.001526
0.777130 0.433899 0.003662
0.811646 0.445770 0.000000
0.844421 0.456787 0.002411
0.876160 0.465637 0.003937
0.898285 0.475128 0.000000
0.919159 0.480682 0.000000
0.949005 0.482697 0.006561
0.972046 0.485992 0.002411
0.993286 0.496765 0.000000
1.000000 0.503204 0.000000
0.002289 0.363434 0.014038
0.006073 0.364197 0.016327
0.002289 0.363434 0.014038
0.000000 0.365723 0.011017
0.000519 0.368500 0.009125
0.030243 0.368988 0.002899
0.086273 0.374420 0.003052
0.132935 0.376831 0.000763
0.173035 0.380768 0.000000
0.215179 0.386444 0.000000
0.260193 0.396057 0.000000
0.306763 0.398468 0.000000
0.350281 0.406555 0.002289
0.398712 0.410492 0.000000
0.442627 0.416046 0.000000
0.490173 0.416290 0.000244
0.530853 0.424652 0.000000
0.577240 0.434021 0.001648
0.621521 0.440216 0.000000
0.660614 0.449066 0.000000
0.702850 0.453888 0.000000
0.739410 0.464508 0.002899
0.774719 0.477661 0.000000
0.806091 0.487915 0.000000
0.836334 0.496643 0.001404
0.868958 0.508667 0.001526
0.900055 0.524597 0.001648
0.925629 0.535339 0.000000
0.951538 0.536987 0.000000
0.969757 0.538757 0.000000
0.991394 0.546967 0.000122
0.995453 0.553314 0.001648
0.001770 0.395294 0.003937
0.000000 0.395691 0.004303
0.000000 0.395569 0.002411
0.000000 0.397064 0.000000
0.001526 0.397064 0.001251
0.037567 0.399231 0.000000
0.090424 0.404907 0.000000
0.138641 0.407074 0.000000
0.182281 0.410980 0.000763
0.227448 0.419220 0.002167
0.263489 0.424530 0.000000
0.303223 0.429840 0.002167
0.346588 0.439972 0.001770
0.394684 0.444000 0.003937
0.438446 0.450195 0.003540
0.484497 0.450195 0.001892
0.526031 0.460083 0.000000
0.571930 0.466278 0.000397
0.615326 0.477783 0.002167
0.653778 0.483337 0.000641
0.695007 0.493347 0.001770
0.735748 0.502197 0.001770
0.770782 0.513580 0.000000
0.802155 0.524841 0.002289
0.830872 0.535583 0.000000
0.862640 0.546722 0.000000
0.895508 0.555450 0.000000
0.928650 0.566956 0.003540
0.947510 0.581390 0.000000
0.973938 0.586823 0.003662
0.997864 0.587189 0.005951
1.000000 0.591003 0.003540
0.002014 0.429199 0.005951
0.005829 0.429199 0.007843
0.003784 0.427185 0.002014
0.000000 0.429077 0.000000
0.003418 0.428314 0.000000
0.048187 0.435028 0.001892
0.103729 0.434906 0.001129
0.147614 0.440979 0.000000
0.187347 0.445892 0.007843
0.229218 0.452728 0.004303
0.265778 0.456665 0.001251
0.306000 0.459930 0.001404
0.346863 0.471832 0.000000
0.394562 0.479797 0.003937
0.435913 0.481812 0.000000
0.482086 0.489929 0.000000
0.525635 0.493988 0.002014
0.565491 0.507507 0.003540
0.606842 0.516998 0.001648
0.651245 0.521667 0.002411
0.691986 0.531677 0.000641
0.733612 0.544189 0.003784
0.766113 0.553192 0.000885
0.803802 0.562408 0.001007
0.826691 0.572540 0.002014
0.863007 0.581390 0.004059
0.892975 0.591248 0.007202
0.923462 0.601257 0.007843
0.947113 0.609100 0.001648
0.967896 0.618835 0.002014
0.993927 0.625275 0.005829
0.997986 0.627197 0.005829
0.000000 0.462891 0.001892
0.000000 0.463135 0.001892
0.000244 0.463013 0.004181
0.002014 0.462250 0.003662
0.006439 0.461121 0.001892
0.058319 0.464417 0.005310
0.110321 0.468353 0.001282
0.153564 0.473755 0.002014
0.191254 0.474792 0.002899
0.229462 0.479828 0.002777
0.269043 0.487793 0.003784
0.309540 0.489960 0.003296
0.350769 0.501709 0.003937
0.388977 0.505890 0.000000
0.433990 0.515900 0.001892
0.476135 0.521851 0.000000
0.517914 0.533600 0.000000
0.561554 0.537659 0.002014
0.600128 0.547638 0.002014
0.643280 0.555603 0.001892
0.682465 0.564972 0.002014
0.722961 0.575470 0.003296
0.760040 0.591278 0.002014
0.795959 0.599396 0.002014
0.825806 0.606354 0.000000
0.857300 0.615204 0.000000
0.885010 0.623169 0.000000
0.917511 0.629120 0.001892
0.942078 0.634674 0.002014
0.971802 0.643005 0.002014
0.997467 0.647339 0.000122
1.000000 0.651123 0.000000
0.000000 0.496643 0.002167
0.000000 0.496918 0.000000
0.000000 0.495148 0.000000
0.000000 0.497040 0.000000
0.016815 0.495392 0.000000
0.071228 0.500977 0.000641
0.117523 0.501709 0.000000
0.163422 0.500977 0.001770
0.197601 0.507660 0.000000
0.235168 0.514496 0.001770
0.275635 0.520569 0.000885
0.316742 0.528290 0.001404
0.353058 0.531708 0.001526
0.391388 0.543579 0.001770
0.434143 0.547638 0.001770
0.470581 0.555878 0.000000
0.512360 0.565613 0.004059
0.558014 0.571930 0.004303
0.601166 0.580048 0.001648
0.637085 0.591156 0.002167
0.677185 0.600769 0.002533
0.710938 0.609497 0.000000
0.752563 0.619232 0.001770
0.790894 0.630127 0.001770
0.818726 0.636078 0.000000
0.856812 0.643921 0.000000
0.884888 0.648956 0.002167
0.914734 0.656952 0.003937
0.943970 0.659576 0.004700
0.970398 0.665283 0.000000
0.997223 0.669220 0.000000
1.000000 0.677063 0.000000
0.001648 0.531342 0.002289
0.000000 0.532959 0.002289
0.000244 0.532715 0.002289
0.002289 0.530701 0.001892
0.035675 0.529419 0.000519
0.087158 0.534607 0.001648
0.129913 0.538391 0.003052
0.168884 0.540070 0.000885
0.206970 0.544739 0.002289
0.240967 0.549164 0.000000
0.279816 0.557770 0.003540
0.318542 0.560913 0.002289
0.357361 0.568237 0.000000
0.398071 0.576111 0.001648
0.434662 0.581146 0.001648
0.479065 0.586243 0.000000
0.517670 0.599396 0.004303
0.553711 0.607361 0.000000
0.593445 0.615326 0.002289
0.634674 0.624817 0.005432
0.672241 0.627350 0.004547
0.710327 0.639221 0.000000
0.744476 0.647705 0.000000
0.781281 0.659088 0.000000
0.814545 0.660858 0.000000
0.854919 0.671997 0.004547
0.882477 0.675781 0.001648
0.910431 0.679199 0.000519
0.944214 0.682983 0.002289
0.970154 0.689209 0.002289
0.995575 0.689209 0.000000
1.000000 0.694763 0.000000
0.000000 0.570404 0.001526
0.000000 0.572815 0.000000
0.000519 0.570404 0.000000
0.014679 0.568909 0.000000
0.068970 0.567871 0.000000
0.104858 0.574951 0.003021
0.149780 0.573578 0.001526
0.180267 0.578247 0.000000
0.217194 0.583191 0.001526
0.252747 0.589630 0.000000
0.289795 0.592041 0.000000
0.324097 0.600006 0.002411
0.362915 0.600281 0.000000
0.402771 0.608856 0.001526
0.446167 0.616211 0.001526
0.483490 0.620392 0.001892
0.521454 0.631256 0.001892
0.557373 0.639221 0.001526
0.595093 0.649597 0.002411
0.631653 0.653656 0.002411
0.668823 0.659332 0.000000
0.704742 0.665161 0.000000
0.739655 0.675415 0.000000
0.775452 0.681732 0.000000
0.812775 0.682373 0.000000
0.849457 0.692749 0.000763
0.880707 0.694366 0.001526
0.909302 0.701843 0.000000
0.942444 0.702850 0.002411
0.968872 0.706512 0.000000
0.998108 0.704376 0.000000
1.000000 0.707397 0.000000
0.003937 0.612671 0.002533
0.000122 0.608856 0.000000
0.014191 0.611267 0.000000
0.059845 0.609894 0.000000
0.093475 0.611267 0.000000
0.129028 0.611389 0.000000
0.163574 0.615570 0.000000
0.200256 0.615814 0.000885
0.239594 0.618988 0.000000
0.270966 0.623047 0.000000
0.304108 0.631012 0.000000
0.337250 0.633911 0.001404
0.379761 0.639099 0.001526
0.415558 0.644043 0.000000
0.454498 0.652496 0.001404
0.490448 0.657684 0.000000
0.526398 0.664520 0.000000
0.564087 0.668945 0.001404
0.598999 0.676544 0.000000
0.633026 0.683136 0.002411
0.671234 0.688568 0.005066
0.709930 0.692474 0.002655
0.742828 0.695251 0.003662
0.776978 0.695648 0.001007
0.809631 0.705261 0.000000
0.847198 0.714111 0.000000
0.878052 0.711700 0.000000
0.912201 0.719940 0.002533
0.941437 0.718781 0.000000
0.974335 0.723846 0.000000
0.994446 0.725250 0.002533
1.000000 0.730560 0.001404
0.037079 0.648590 0.000000
0.060760 0.649872 0.000000
0.085266 0.648590 0.001526
0.114746 0.652496 0.000366
0.135101 0.649109 0.002167
0.163452 0.649841 0.000000
0.196075 0.650604 0.000000
0.228973 0.652496 0.000000
0.259064 0.656433 0.000000
0.289703 0.660339 0.000000
0.325348 0.661469 0.000000
0.362549 0.668182 0.001404
0.394440 0.669464 0.001526
0.427826 0.676300 0.003937
0.463867 0.676422 0.001770
0.499176 0.687042 0.002655
0.533600 0.689056 0.002533
0.573456 0.694244 0.000000
0.608734 0.700836 0.000000
0.642395 0.702209 0.002411
0.683136 0.706024 0.000000
0.715271 0.716522 0.001251
0.749908 0.713989 0.001251
0.782440 0.715363 0.000244
0.808594 0.725616 0.004303
0.844025 0.726135 0.001251
0.879211 0.730164 0.000000
0.908295 0.737640 0.000000
0.938263 0.741821 0.000000
0.968109 0.742310 0.000000
0.994690 0.739777 0.005066
0.998749 0.743835 0.001251
0.121979 0.688446 0.000000
0.133972 0.684143 0.000000
0.153595 0.684509 0.002533
0.171692 0.684143 0.002258
0.181305 0.689575 0.001129
0.209106 0.687164 0.001129
0.228729 0.685638 0.000000
0.262756 0.689575 0.000000
0.291473 0.694519 0.001129
0.316498 0.693481 0.000000
0.349518 0.694641 0.000000
0.385071 0.696014 0.000000
0.416809 0.700073 0.000000
0.447937 0.706909 0.000000
0.482086 0.706390 0.001007
0.517883 0.712219 0.002777
0.548920 0.715363 0.000000
0.587616 0.720306 0.001129
0.621399 0.722595 0.000000
0.657959 0.726746 0.001129
0.687683 0.732208 0.000000
0.722076 0.734985 0.000000
0.753967 0.738892 0.003937
0.780151 0.738007 0.000244
0.815826 0.741699 0.005585
0.846802 0.739288 0.000000
0.878052 0.743317 0.000000
0.908417 0.747375 0.002777
0.940430 0.754578 0.002777
0.965973 0.757385 0.000000
0.993561 0.758392 0.000000
0.997742 0.762421 0.002777
0.193939 0.720428 0.000000
0.204834 0.717407 0.000000
0.218353 0.717529 0.000000
0.226593 0.717896 0.000366
0.241882 0.714630 0.003937
0.258820 0.713348 0.000000
0.279724 0.714630 0.000000
0.306274 0.714478 0.000000
0.329285 0.720428 0.000000
0.356354 0.721436 0.000000
0.386200 0.720184 0.001251
0.412903 0.725250 0.000000
0.445038 0.726379 0.000000
0.471466 0.730682 0.000000
0.504852 0.734222 0.001770
0.536987 0.735229 0.000000
0.569794 0.738159 0.000000
0.602295 0.742065 0.001007
0.635559 0.746002 0.000000
0.665039 0.744598 0.000000
0.700470 0.749146 0.000000
0.736755 0.753571 0.000000
0.761047 0.753967 0.000000
0.793945 0.757751 0.000000
0.817078 0.760925 0.000000
0.847198 0.761688 0.000244
0.877289 0.759155 0.000000
0.911194 0.770020 0.002899
0.936493 0.770538 0.002899
0.974457 0.771545 0.000000
0.998749 0.774445 0.000000
1.000000 0.777374 0.000000
0.260864 0.739410 0.003052
0.271362 0.743317 0.005829
0.282227 0.742432 0.003052
0.287048 0.742432 0.000000
0.303253 0.741943 0.001770
0.313599 0.741821 0.000885
0.327911 0.745483 0.002289
0.352051 0.745483 0.002167
0.374084 0.745483 0.002014
0.394043 0.745483 0.000000
0.419861 0.749023 0.001770
0.442108 0.752563 0.001404
0.472229 0.752686 0.000885
0.503357 0.753448 0.001404
0.534210 0.752441 0.000000
0.562683 0.755096 0.000000
0.589661 0.761932 0.000000
0.624695 0.761169 0.000000
0.653534 0.762939 0.000885
0.688446 0.763580 0.002411
0.715118 0.772797 0.000885
0.744720 0.769897 0.000000
0.769379 0.774445 0.000885
0.804047 0.776733 0.000885
0.827850 0.773834 0.003937
0.855682 0.781525 0.000763
0.887421 0.777740 0.003662
0.912598 0.781525 0.000000
0.936127 0.790009 0.000000
0.971527 0.794312 0.000000
0.996582 0.793549 0.006836
0.999115 0.794312 0.003052
0.330444 0.765594 0.009491
0.339050 0.763306 0.003052
0.342468 0.769257 0.000000
0.348022 0.767120 0.000000
0.360168 0.761780 0.002014
0.365356 0.766357 0.000000
0.385345 0.767120 0.000000
0.399506 0.770416 0.000000
0.416687 0.766357 0.000000
0.443665 0.771545 0.000763
0.460846 0.770264 0.000763
0.486267 0.768890 0.000000
0.510559 0.772675 0.000763
0.533600 0.775848 0.000000
0.565216 0.774963 0.000763
0.588348 0.779999 0.000763
0.615204 0.782043 0.000000
0.647583 0.779633 0.000763
0.674133 0.784332 0.004547
0.704620 0.781281 0.004822
0.730194 0.786713 0.000000
0.754974 0.792786 0.000000
0.784454 0.789886 0.000366
0.813812 0.796722 0.002899
0.839600 0.795959 0.000000
0.870728 0.800903 0.003174
0.897919 0.801025 0.003937
0.922455 0.801910 0.003418
0.950684 0.809113 0.003174
0.972290 0.806335 0.000000
0.996338 0.812653 0.000000
0.998474 0.818085 0.000000
0.389008 0.792908 0.000641
0.392914 0.790894 0.000641
0.403412 0.790527 0.003662
0.406708 0.790253 0.000000
0.411499 0.789764 0.000641
0.424927 0.789001 0.000000
0.438843 0.786987 0.000000
0.456177 0.786346 0.000885
0.464264 0.789642 0.000000
0.488037 0.789124 0.000000
0.505890 0.790253 0.000000
0.531067 0.790253 0.000000
0.547363 0.792053 0.001770
0.570374 0.794830 0.001648
0.595581 0.795715 0.003662
0.616180 0.796722 0.000000
0.642151 0.798859 0.005310
0.671234 0.801392 0.001129
0.699707 0.801025 0.001648
0.722961 0.801392 0.000000
0.744232 0.807220 0.000000
0.775330 0.809875 0.000000
0.802032 0.812012 0.002777
0.820892 0.813782 0.002899
0.845551 0.817719 0.000885
0.876038 0.820740 0.000641
0.900055 0.821625 0.000000
0.924225 0.821747 0.000000
0.951813 0.829102 0.000366
0.975708 0.829468 0.000000
0.998993 0.829987 0.003296
1.000000 0.834045 0.000000
0.443512 0.813660 0.000000
0.451874 0.814178 0.003418
0.452362 0.813904 0.003418
0.463379 0.809875 0.000000
0.464142 0.811249 0.000000
0.476654 0.810760 0.000641
0.486145 0.810242 0.003418
0.500702 0.811646 0.001404
0.509308 0.813660 0.001526
0.525757 0.814178 0.000000
0.545868 0.810242 0.001251
0.565460 0.814178 0.001892
0.587219 0.815186 0.001526
0.605194 0.814178 0.000000
0.625549 0.817596 0.001770
