assets/luts/Presetpro - Moody Film.cube
#Created by: Adobe Photoshop Export Color Lookup Plugin
#Copyright: (C) Copyright 2022 Tim Martin and Presetpro.com
TITLE "Presetpro - Moody Film.jpg"
#LUT size
LUT_3D_SIZE 32
#data domain
DOMAIN_MIN 0.0 0.0 0.0
DOMAIN_MAX 1.0 1.0 1.0
#LUT data points
0.109802 0.094116 0.082367
0.113861 0.101837 0.082367
0.118408 0.098053 0.082611
0.133698 0.094879 0.085907
0.141174 0.098053 0.081329
0.157501 0.105255 0.082367
0.174072 0.105896 0.079193
0.190002 0.105896 0.085388
0.205933 0.108795 0.078430
0.224152 0.105896 0.083496
0.256042 0.105896 0.084869
0.283997 0.109802 0.079834
0.305603 0.107391 0.078430
0.345459 0.107513 0.077789
0.381775 0.113739 0.082367
0.421356 0.113739 0.084259
0.453400 0.111816 0.074646
0.495270 0.113739 0.074524
0.537903 0.113098 0.069946
0.586975 0.117645 0.066681
0.623291 0.121582 0.066681
0.666931 0.132080 0.057434
0.708038 0.140045 0.053253
0.748901 0.155853 0.037323
0.792542 0.165985 0.028320
0.834656 0.182800 0.012512
0.868073 0.209869 0.000641
0.899933 0.226440 0.000000
0.939270 0.253387 0.007477
0.963959 0.277924 0.000244
0.991638 0.309174 0.000000
1.000000 0.329407 0.000000
0.106018 0.102081 0.082489
0.113739 0.101959 0.082367
0.121826 0.102203 0.086273
0.137268 0.109039 0.085907
0.138519 0.102203 0.082855
0.157104 0.105896 0.082489
0.168365 0.106506 0.079193
0.189880 0.109161 0.082489
0.207977 0.106140 0.085388
0.228973 0.113739 0.088043
0.248566 0.110046 0.073883
0.280457 0.117401 0.082367
0.309662 0.111450 0.082489
0.343689 0.115234 0.081573
0.382019 0.113983 0.082611
0.419220 0.117645 0.082092
0.457336 0.119537 0.080444
0.497162 0.119934 0.070709
0.544220 0.119537 0.076141
0.583435 0.125610 0.070465
0.629852 0.128143 0.068176
0.670868 0.137268 0.058685
0.715515 0.147888 0.053131
0.748901 0.156097 0.037445
0.790894 0.174957 0.032135
0.827850 0.193939 0.016205
0.864777 0.210632 0.001251
0.903870 0.233917 0.000000
0.932068 0.264648 0.003937
0.967621 0.289429 0.000244
0.995697 0.313232 0.003937
1.000000 0.337250 0.000122
0.109802 0.105896 0.086273
0.110168 0.106140 0.085907
0.122070 0.109802 0.082611
0.137512 0.110046 0.086517
0.142181 0.106903 0.086273
0.155090 0.109924 0.085510
0.181152 0.106628 0.082367
0.194305 0.113983 0.085388
0.207703 0.114227 0.081604
0.229980 0.115112 0.083252
0.256287 0.116638 0.083862
0.284241 0.120697 0.087677
0.316132 0.121826 0.081085
0.347992 0.121826 0.077789
0.382294 0.124237 0.083252
0.421234 0.123474 0.078430
0.462646 0.123840 0.078430
0.503235 0.126251 0.079803
0.548004 0.126007 0.070190
0.588501 0.131439 0.072754
0.635040 0.139801 0.066681
0.674286 0.146759 0.054901
0.713348 0.156219 0.051849
0.753845 0.167114 0.042633
0.794189 0.182800 0.023529
0.832275 0.199249 0.010620
0.871979 0.221893 0.004181
0.903595 0.241882 0.000000
0.932434 0.265778 0.000000
0.971283 0.293365 0.004181
0.991791 0.317139 0.003540
0.996338 0.341431 0.003662
0.113739 0.117645 0.094116
0.113739 0.117645 0.086273
0.117889 0.114349 0.093628
0.133698 0.114471 0.089813
0.145844 0.118408 0.079193
0.162415 0.121307 0.086273
0.174438 0.118408 0.082733
0.193420 0.121063 0.081726
0.214294 0.124847 0.082367
0.234772 0.125488 0.088287
0.266541 0.124084 0.083099
0.289551 0.128021 0.089050
0.320923 0.127777 0.081085
0.355591 0.129791 0.083252
0.388214 0.130157 0.084106
0.427948 0.132202 0.080719
0.467072 0.136108 0.078064
0.507416 0.135864 0.074890
0.550293 0.138000 0.075775
0.592438 0.143463 0.070953
0.638977 0.151154 0.065155
0.676025 0.158264 0.061981
0.716278 0.170654 0.051727
0.757111 0.178741 0.038849
0.792053 0.194183 0.031006
0.832275 0.214172 0.009369
0.870331 0.230225 0.000000
0.904236 0.250336 0.003784
0.936493 0.277283 0.003540
0.970917 0.301575 0.000641
0.999237 0.325500 0.003418
1.000000 0.349396 0.003937
0.109314 0.122589 0.086792
0.113464 0.126373 0.090698
0.118164 0.122589 0.090942
0.125854 0.126129 0.086792
0.142181 0.126495 0.090210
0.158630 0.132843 0.086914
0.181915 0.133331 0.087036
0.200500 0.134338 0.092590
0.215820 0.134338 0.089691
0.242004 0.130920 0.080566
0.268433 0.135620 0.086029
0.290833 0.137756 0.086639
0.326111 0.141693 0.089172
0.363434 0.139893 0.086792
0.393646 0.143463 0.082855
0.432129 0.144226 0.081482
0.473389 0.147644 0.078949
0.509949 0.147766 0.076172
0.554230 0.150543 0.078918
0.599762 0.156860 0.072998
0.640106 0.160919 0.060211
0.681854 0.171539 0.050995
0.725372 0.181915 0.052124
0.764069 0.188232 0.040741
0.799011 0.207977 0.023010
0.838074 0.229095 0.012512
0.870331 0.249084 0.004547
0.908295 0.263245 0.003418
0.936249 0.288818 0.006073
0.968384 0.309814 0.000244
0.992279 0.337250 0.000641
1.000000 0.357880 0.004425
0.110443 0.135223 0.095367
0.111053 0.134583 0.095367
0.121429 0.134338 0.098663
0.126495 0.134583 0.091461
0.137756 0.138519 0.090210
0.157501 0.142426 0.093475
0.177979 0.145721 0.093628
0.197601 0.143311 0.090454
0.218079 0.149902 0.089813
0.245026 0.149017 0.084503
0.275787 0.150269 0.089569
0.301056 0.150421 0.085632
0.330017 0.153564 0.080200
0.365692 0.154572 0.080719
0.401001 0.156616 0.081970
0.438049 0.160034 0.082367
0.482117 0.163940 0.084259
0.517273 0.164825 0.074524
0.561066 0.169891 0.071594
0.601532 0.175323 0.067535
0.645294 0.184814 0.058838
0.687042 0.190125 0.052887
0.725006 0.200745 0.044281
0.768127 0.208740 0.034668
0.803436 0.227570 0.014801
0.842499 0.243530 0.007843
0.880585 0.262756 0.003937
0.914490 0.278687 0.007965
0.940674 0.302704 0.000000
0.974579 0.325989 0.000000
0.998352 0.346619 0.000000
0.996704 0.370514 0.000000
0.112976 0.147369 0.101959
0.116882 0.150543 0.098785
0.120819 0.147369 0.098541
0.129028 0.143829 0.098053
0.142578 0.153961 0.101959
0.149658 0.153687 0.098785
0.166229 0.154449 0.087799
0.195435 0.164825 0.093231
0.227325 0.163055 0.101715
0.252869 0.163422 0.096130
0.274872 0.166992 0.090454
0.311432 0.169647 0.089447
0.337891 0.170898 0.083862
0.375183 0.170898 0.087158
0.407837 0.174835 0.090820
0.445129 0.178741 0.081970
0.487427 0.182678 0.074524
0.529175 0.187225 0.074402
0.568268 0.188873 0.066681
0.609772 0.194427 0.066803
0.651611 0.201630 0.062744
0.693756 0.211517 0.050842
0.735504 0.224670 0.036804
0.773193 0.235535 0.024780
0.811127 0.249969 0.015808
0.847961 0.265900 0.007080
0.879211 0.284393 0.000641
0.907410 0.299042 0.003418
0.941559 0.321960 0.003540
0.975464 0.345856 0.001007
0.996582 0.368744 0.000763
0.996826 0.390503 0.000000
0.110687 0.165588 0.106781
0.110687 0.165588 0.106781
0.114227 0.162811 0.105255
0.122314 0.166473 0.102844
0.137634 0.163818 0.106262
0.149384 0.165833 0.105011
0.165466 0.170380 0.103485
0.191284 0.176086 0.097168
0.225922 0.181915 0.095886
0.249573 0.178253 0.096008
0.277649 0.186218 0.094116
0.310181 0.186951 0.089691
0.344818 0.195435 0.087158
0.385559 0.194672 0.081482
0.421112 0.196564 0.078033
0.460175 0.198608 0.077545
0.499176 0.206848 0.085144
0.538513 0.207458 0.072845
0.580414 0.212769 0.065277
0.622284 0.221375 0.063385
0.658447 0.227844 0.054657
0.705261 0.239716 0.045654
0.739410 0.250488 0.032776
0.780396 0.255524 0.022034
0.822144 0.269318 0.007843
0.857330 0.284363 0.001770
0.883759 0.302460 0.000885
0.913971 0.320160 0.000000
0.946228 0.340027 0.003540
0.978241 0.359650 0.000885
0.998871 0.383667 0.000000
1.000000 0.402649 0.000000
0.104858 0.178497 0.112701
0.111694 0.182404 0.110809
0.111053 0.179260 0.106903
0.122711 0.182800 0.107513
0.129913 0.188751 0.107391
0.148254 0.181152 0.107269
0.157227 0.186829 0.102966
0.190643 0.188232 0.099945
0.206055 0.194183 0.100952
0.244019 0.203033 0.096252
0.285645 0.205292 0.088562
0.312683 0.213409 0.091949
0.350647 0.218719 0.092590
0.391876 0.220367 0.083984
0.428314 0.225403 0.080841
0.475250 0.228455 0.078430
0.512238 0.229584 0.078308
0.555115 0.236542 0.066284
0.596710 0.241974 0.061737
0.634033 0.246674 0.062744
0.667053 0.255035 0.050201
0.709442 0.260345 0.035553
0.745483 0.276398 0.028595
0.783173 0.287292 0.010864
0.818970 0.298279 0.003784
0.858185 0.311310 0.000763
0.888672 0.330536 0.000000
0.920044 0.347107 0.002899
0.950409 0.365082 0.002533
0.981293 0.382904 0.002899
0.998749 0.403778 0.000000
1.000000 0.424652 0.004944
0.099701 0.203400 0.117645
0.101959 0.203400 0.115997
0.104736 0.203400 0.113739
0.112976 0.203796 0.110565
0.127014 0.206207 0.115875
0.146484 0.208466 0.115356
0.161530 0.210114 0.113342
0.179382 0.212128 0.112091
0.211395 0.215179 0.104370
0.235931 0.219086 0.101959
0.283478 0.232117 0.097412
0.319519 0.237305 0.090454
0.349121 0.246155 0.088928
0.390381 0.246552 0.085785
0.439575 0.249451 0.083862
0.479919 0.258301 0.082367
0.524994 0.258698 0.073364
0.562073 0.268433 0.067688
0.605835 0.273499 0.066040
0.642883 0.277527 0.056793
0.684387 0.285522 0.043396
0.722717 0.296143 0.031494
0.759033 0.303101 0.017334
0.795319 0.311554 0.008850
0.830109 0.330170 0.005951
0.858826 0.340271 0.000763
0.888794 0.358368 0.000000
0.921204 0.374939 0.000000
0.951813 0.391632 0.004822
0.979370 0.406830 0.000000
0.998749 0.429352 0.001129
0.996063 0.445404 0.002258
0.087677 0.228577 0.128021
0.091583 0.230103 0.125092
0.093353 0.229584 0.121429
0.099304 0.230347 0.123322
0.121185 0.231750 0.117523
0.135864 0.235168 0.119537
0.157104 0.235168 0.119415
0.181793 0.236053 0.122955
0.199097 0.243011 0.109924
0.229095 0.242126 0.111328
0.265259 0.252106 0.104492
0.315613 0.261353 0.104492
0.358734 0.274384 0.097412
0.398346 0.274384 0.086914
0.438446 0.281342 0.080078
0.486511 0.285370 0.077789
0.531708 0.288788 0.075134
0.574585 0.301331 0.065918
0.619476 0.309296 0.062103
0.655029 0.314484 0.040863
0.692352 0.323975 0.035431
0.733459 0.327881 0.024780
0.769379 0.335724 0.013153
0.803406 0.346466 0.009247
0.832642 0.358887 0.000000
0.868835 0.373413 0.003784
0.896149 0.386841 0.002533
0.925232 0.398865 0.003418
0.956604 0.418335 0.000000
0.982056 0.432251 0.000000
0.999756 0.450592 0.000000
0.996063 0.471710 0.002655
0.072876 0.257690 0.133331
0.074280 0.259064 0.126892
0.074768 0.256775 0.124603
0.088318 0.260468 0.123322
0.099701 0.263000 0.118652
0.124481 0.263000 0.128143
0.153961 0.262360 0.130798
0.173798 0.262238 0.123596
0.198090 0.268921 0.125366
0.226685 0.274750 0.118134
0.259705 0.281342 0.116638
0.295746 0.282593 0.108429
0.353577 0.299805 0.101837
0.396454 0.311188 0.094513
0.439819 0.315369 0.088043
0.483459 0.323212 0.081604
0.529694 0.325226 0.074005
0.577637 0.334717 0.064117
0.622681 0.344208 0.055908
0.663025 0.351929 0.036438
0.708405 0.359650 0.028839
0.741669 0.366455 0.011627
0.774719 0.375824 0.006195
0.815582 0.382416 0.006439
0.839355 0.392914 0.000000
0.871094 0.400116 0.006439
0.900818 0.417969 0.005066
0.932068 0.434540 0.001404
0.960266 0.444000 0.004944
0.986084 0.457184 0.001648
0.999878 0.478302 0.000000
0.996063 0.494354 0.000000
0.040375 0.292328 0.145111
0.040375 0.292328 0.145111
0.041504 0.288422 0.135101
0.052002 0.292328 0.131317
0.083618 0.291321 0.133331
0.107788 0.292328 0.135742
0.136505 0.293091 0.131561
0.157745 0.295624 0.136993
0.186707 0.296265 0.136749
0.218323 0.306763 0.130554
0.256927 0.309296 0.125092
0.299164 0.314606 0.113983
0.340912 0.321289 0.104095
0.396576 0.335602 0.104126
0.442230 0.346863 0.090820
0.491821 0.354553 0.083252
0.535126 0.364960 0.078674
0.582428 0.367859 0.063629
0.628723 0.377472 0.048828
0.670868 0.388855 0.035309
0.714508 0.395813 0.023285
0.755096 0.406555 0.004028
0.786713 0.414276 0.001526
0.819611 0.422241 0.001404
0.845673 0.428711 0.000000
0.879181 0.439850 0.000000
0.908783 0.450073 0.001526
0.935730 0.461975 0.005829
0.966614 0.476257 0.003021
0.989624 0.490326 0.001526
0.997711 0.506256 0.000000
0.997589 0.519775 0.003021
0.000000 0.324219 0.158508
0.000000 0.323456 0.148254
0.000000 0.325867 0.150146
0.007843 0.324585 0.142059
0.042145 0.324097 0.145599
0.073395 0.326874 0.147736
0.116516 0.325867 0.143707
0.151428 0.329010 0.143585
0.181519 0.334351 0.137634
0.211884 0.341675 0.146729
0.250458 0.343170 0.139038
0.289032 0.349396 0.130402
0.326874 0.358612 0.130157
0.376190 0.358856 0.113098
0.434387 0.378479 0.100067
0.487762 0.392761 0.081085
0.539948 0.398712 0.073242
0.582794 0.408081 0.066803
0.630005 0.415039 0.050995
0.675537 0.424652 0.040741
0.718292 0.431732 0.018707
0.754089 0.439972 0.006836
0.788239 0.452972 0.005066
0.824677 0.459808 0.000000
0.855530 0.466156 0.000000
0.887299 0.475647 0.000000
0.913483 0.486633 0.000000
0.942932 0.495758 0.003418
0.968750 0.507782 0.006195
0.992798 0.516113 0.001648
1.000000 0.536224 0.000000
1.000000 0.549377 0.000000
0.002167 0.360016 0.164703
0.003937 0.363922 0.158630
0.000000 0.363556 0.156464
0.003937 0.365692 0.152557
0.003937 0.363922 0.154327
0.021759 0.362396 0.148254
0.081726 0.368622 0.154327
0.120697 0.368347 0.150391
0.168518 0.372528 0.150787
0.202271 0.377838 0.157379
0.243256 0.380493 0.153442
0.277161 0.383148 0.135864
0.327118 0.391144 0.136230
0.374542 0.400879 0.125244
0.420593 0.406677 0.117645
0.476532 0.422638 0.102844
0.538055 0.436554 0.083984
0.585083 0.446289 0.066681
0.629242 0.450348 0.057434
0.673889 0.461090 0.045532
0.714630 0.470947 0.022003
0.753571 0.482086 0.011780
0.790405 0.490051 0.004028
0.822662 0.500183 0.000000
0.863129 0.507751 0.005585
0.890076 0.513977 0.000000
0.917511 0.522552 0.000641
0.947510 0.533813 0.000000
0.969269 0.539642 0.002167
0.993164 0.549774 0.002167
0.999878 0.563690 0.001770
0.993927 0.577454 0.005310
0.001892 0.403534 0.182281
0.000000 0.401764 0.176086
0.002289 0.403778 0.170776
0.003937 0.401611 0.166748
0.002533 0.403015 0.168762
0.003784 0.405426 0.163177
0.014679 0.408966 0.158875
0.088806 0.407715 0.168091
0.143585 0.411377 0.166595
0.190521 0.410614 0.169617
0.234528 0.418701 0.166107
0.269684 0.428070 0.151672
0.319550 0.428192 0.155334
0.364685 0.432617 0.139648
0.410614 0.440582 0.127625
0.460449 0.452606 0.119537
0.526154 0.470459 0.092224
0.581543 0.486145 0.078308
0.626709 0.491821 0.065765
0.668976 0.500183 0.048584
0.711334 0.503479 0.035309
0.753204 0.512207 0.018707
0.786713 0.523193 0.004913
0.824432 0.532043 0.000000
0.856445 0.542053 0.003052
0.894379 0.551910 0.000000
0.923584 0.561768 0.000000
0.949036 0.567719 0.000000
0.971283 0.577728 0.000000
0.995453 0.584045 0.001770
1.000000 0.595428 0.019226
0.996063 0.607452 0.036652
0.000000 0.445312 0.192291
0.001892 0.445435 0.186462
0.000000 0.443787 0.184082
0.003937 0.447327 0.178253
0.002014 0.447327 0.172821
0.001892 0.449982 0.175354
0.000000 0.453278 0.172546
0.024902 0.452515 0.174713
0.104980 0.452271 0.173828
0.171875 0.453796 0.179260
0.218445 0.457184 0.183197
0.261200 0.463898 0.173553
0.305756 0.466187 0.170288
0.360748 0.474915 0.160309
0.404663 0.482483 0.151581
0.452606 0.490479 0.141571
0.510071 0.496399 0.131439
0.566254 0.514374 0.105499
0.623932 0.531708 0.083374
0.671753 0.539551 0.064758
0.708160 0.543976 0.055908
0.747894 0.551941 0.047333
0.791534 0.559906 0.036957
0.828491 0.568756 0.027832
0.859222 0.574982 0.017975
0.891479 0.585083 0.015320
0.919678 0.593811 0.010132
0.951416 0.603699 0.011536
0.975342 0.613312 0.025055
0.998993 0.619751 0.038971
1.000000 0.629608 0.060730
1.000000 0.637604 0.080719
0.000000 0.490967 0.210785
0.002014 0.487427 0.204681
0.001770 0.491211 0.204437
0.000366 0.490967 0.200012
0.000519 0.493011 0.180786
0.003937 0.493134 0.183807
0.003937 0.495270 0.192535
0.000000 0.493134 0.188629
0.042450 0.495270 0.194550
0.137085 0.497040 0.194946
0.204132 0.497040 0.196838
0.249329 0.501984 0.190765
0.298889 0.509033 0.183563
0.349884 0.517792 0.179657
0.402374 0.522339 0.177246
0.448700 0.532074 0.171173
0.502228 0.532593 0.151672
0.550171 0.540192 0.131165
0.611786 0.562195 0.109314
0.671112 0.575470 0.087921
0.711090 0.583710 0.082367
0.745361 0.587738 0.074402
0.787598 0.596863 0.065155
0.825562 0.603699 0.064148
0.855286 0.610779 0.059967
0.883240 0.615692 0.060242
0.916901 0.623657 0.066071
0.946625 0.634674 0.067688
0.973175 0.647461 0.082764
0.995331 0.652130 0.093262
1.000000 0.659485 0.112366
1.000000 0.671753 0.126648
0.001648 0.532959 0.232025
0.001648 0.533081 0.230103
0.000000 0.533600 0.224182
0.000000 0.535248 0.220123
0.000000 0.538544 0.210114
0.002258 0.539795 0.205200
0.003937 0.539948 0.206848
0.000000 0.538544 0.206848
0.004028 0.539795 0.208496
0.087860 0.540314 0.211273
0.182648 0.542847 0.217957
0.234894 0.545380 0.218353
0.290039 0.548523 0.214935
0.340912 0.558136 0.206848
0.395050 0.561676 0.197601
0.445007 0.566620 0.181793
0.492493 0.574219 0.177368
0.550171 0.581665 0.167755
0.597351 0.586243 0.149658
0.651642 0.603699 0.140564
0.703857 0.619507 0.108551
0.747253 0.623169 0.101837
0.787598 0.628723 0.102722
0.824036 0.637848 0.101593
0.852112 0.645813 0.099823
0.887909 0.651489 0.107910
0.918030 0.655548 0.116669
0.944092 0.663513 0.119568
0.967865 0.675781 0.126129
0.991394 0.683624 0.137268
1.000000 0.688934 0.155365
1.000000 0.701599 0.170532
0.000000 0.581543 0.255798
0.000000 0.581543 0.251251
0.000000 0.583069 0.249237
0.000366 0.583069 0.244171
0.001526 0.581665 0.231262
0.003662 0.587616 0.232269
0.000763 0.585327 0.226685
0.003052 0.588501 0.229858
0.000000 0.586884 0.232635
0.026031 0.590912 0.233032
0.158478 0.590912 0.243286
0.221985 0.594818 0.239990
0.283600 0.592438 0.237976
0.338379 0.597870 0.232269
0.391479 0.601776 0.230103
0.444763 0.608490 0.221893
0.492126 0.613678 0.212646
0.547913 0.622040 0.203308
0.591797 0.623810 0.193695
0.639496 0.637970 0.173431
0.691833 0.646179 0.157898
0.741699 0.661499 0.142456
0.783691 0.668457 0.134735
0.820007 0.668945 0.136017
0.849854 0.675415 0.136383
0.884003 0.684265 0.144623
0.907898 0.689209 0.154114
0.933319 0.696411 0.154724
0.966370 0.703369 0.169281
0.987732 0.707672 0.185211
1.000000 0.719299 0.202301
1.000000 0.729675 0.218353
0.001404 0.624420 0.282104
0.001404 0.624542 0.281860
0.000000 0.625580 0.275665
0.000366 0.627350 0.272491
0.005951 0.630371 0.264526
0.007202 0.626434 0.258453
0.001404 0.625946 0.251495
0.002533 0.633423 0.255798
0.005188 0.631775 0.267944
0.002533 0.630615 0.250732
0.121277 0.634796 0.262634
0.211365 0.633423 0.265289
0.279694 0.632782 0.273010
0.336731 0.636200 0.268707
0.386322 0.641876 0.263641
0.442230 0.645935 0.260864
0.487427 0.655304 0.242645
0.539429 0.655792 0.235809
0.591278 0.660370 0.233673
0.631653 0.663513 0.220520
0.676788 0.670105 0.208740
0.727386 0.683502 0.191528
0.776611 0.696655 0.179382
0.817322 0.704620 0.173462
0.841003 0.710693 0.182159
0.877411 0.715271 0.187622
0.911957 0.720703 0.194458
0.939148 0.724731 0.205200
0.962555 0.729797 0.219513
0.981018 0.738159 0.231506
0.999878 0.747253 0.244812
0.996063 0.754089 0.258331
0.001251 0.668182 0.317780
0.001251 0.668182 0.309937
0.003937 0.670868 0.312592
0.003937 0.670868 0.304749
0.005188 0.670715 0.295502
0.003937 0.669464 0.292358
0.000000 0.670868 0.286530
0.000885 0.671753 0.285645
0.004547 0.677063 0.288788
0.002258 0.673370 0.292999
0.100891 0.678711 0.295502
0.203400 0.673401 0.297058
0.277161 0.676300 0.303497
0.328491 0.677307 0.301208
0.381897 0.679077 0.300079
0.437042 0.685791 0.294525
0.482758 0.689056 0.283875
0.531830 0.695648 0.282501
0.586243 0.696899 0.279327
0.628967 0.701080 0.269714
0.675293 0.705902 0.261627
0.719177 0.711334 0.244659
0.767120 0.723236 0.236328
0.811890 0.735107 0.223297
0.842255 0.736877 0.211914
0.875916 0.745239 0.227478
0.905243 0.748535 0.239471
0.933075 0.753326 0.244659
0.958618 0.759644 0.255920
0.981415 0.764587 0.270477
0.995941 0.773682 0.294006
0.997345 0.779144 0.304901
0.002258 0.709167 0.356232
0.000122 0.709320 0.348511
0.002533 0.712219 0.350922
0.002777 0.713104 0.347260
0.000000 0.714233 0.337769
0.003937 0.709808 0.326385
0.000000 0.713104 0.322083
0.003937 0.714752 0.325500
0.004547 0.714111 0.330444
0.004547 0.711456 0.324860
0.101288 0.714355 0.332825
0.211365 0.715607 0.327637
0.282715 0.714630 0.334747
0.339752 0.719818 0.342194
0.389862 0.717010 0.342316
0.442505 0.722839 0.337158
0.488708 0.720947 0.337158
0.535767 0.729919 0.330048
0.581177 0.733856 0.319794
0.624939 0.735504 0.308655
0.667572 0.739166 0.313354
0.714111 0.747131 0.301849
0.755096 0.751190 0.288422
0.791534 0.752563 0.276550
0.838470 0.771027 0.262878
0.871094 0.772308 0.268463
0.898804 0.775848 0.278198
0.930817 0.779907 0.286804
0.949768 0.783173 0.299438
0.974060 0.789642 0.312103
0.994690 0.799133 0.335114
1.000000 0.806091 0.351196
0.004944 0.751801 0.396973
0.006714 0.747772 0.393799
0.000000 0.746887 0.390015
0.006836 0.747894 0.386108
0.002899 0.752319 0.381561
0.009125 0.748901 0.372437
0.004303 0.750793 0.366730
0.002014 0.753845 0.364594
0.004822 0.751801 0.371307
0.010223 0.748901 0.358521
0.134460 0.747650 0.369415
0.229706 0.749786 0.377502
0.293335 0.748901 0.377258
0.349640 0.754089 0.386108
0.399719 0.751801 0.383331
0.452606 0.752808 0.387115
0.491486 0.757751 0.380035
0.538422 0.764587 0.371033
0.582306 0.766479 0.375610
0.623810 0.768005 0.371307
0.665649 0.771027 0.354828
0.707672 0.773956 0.351044
0.748383 0.780273 0.343353
0.788116 0.781281 0.340942
0.823029 0.781525 0.327026
0.864899 0.802277 0.312347
0.899445 0.803802 0.321716
0.923981 0.802917 0.337006
0.942688 0.811646 0.343353
0.974945 0.813660 0.360291
0.991913 0.821259 0.378754
1.000000 0.825439 0.389130
0.003052 0.783813 0.437836
0.003937 0.784698 0.437836
0.001129 0.781921 0.435059
0.003937 0.784698 0.431763
0.000519 0.786102 0.416565
0.003296 0.787476 0.416962
0.000000 0.787750 0.409119
0.003052 0.789520 0.410370
0.001892 0.784821 0.402283
0.059937 0.788361 0.411774
0.182922 0.784698 0.421783
0.255127 0.787750 0.419342
0.316254 0.789246 0.413666
0.364929 0.788635 0.420227
0.414520 0.790375 0.429993
0.461578 0.791412 0.435181
0.506409 0.790649 0.429871
0.547150 0.792542 0.426056
0.584717 0.798737 0.422028
0.626587 0.802795 0.419495
0.665527 0.804321 0.409119
0.704742 0.803925 0.407349
0.743347 0.811005 0.401642
0.780273 0.814941 0.393799
0.820007 0.809113 0.385956
0.855804 0.816193 0.377380
0.887909 0.828094 0.373322
0.920044 0.836060 0.373840
0.941315 0.838715 0.383423
0.968506 0.843262 0.397736
0.991791 0.846558 0.416565
0.996948 0.848328 0.433533
0.000000 0.816589 0.484894
0.003937 0.817322 0.479309
0.003174 0.816589 0.478577
0.003174 0.817322 0.476288
0.000763 0.818604 0.468811
0.000763 0.816589 0.459717
0.000000 0.817322 0.458954
0.001770 0.822144 0.456665
0.051971 0.820496 0.460358
0.163574 0.822540 0.457062
0.242493 0.820007 0.466797
0.300812 0.821136 0.462616
0.355225 0.819733 0.469971
0.399719 0.820496 0.469971
0.445129 0.817322 0.471863
0.488922 0.818604 0.479706
0.526276 0.822540 0.488068
0.559296 0.822266 0.479950
0.601288 0.826691 0.483246
0.634033 0.830750 0.473114
0.668945 0.832275 0.464264
0.707153 0.833008 0.462128
0.737000 0.832275 0.454651
0.777374 0.839600 0.453522
0.811249 0.832275 0.445801
0.847961 0.840851 0.441010
0.876160 0.847443 0.429352
0.911957 0.856812 0.431885
0.936127 0.853760 0.422913
0.967377 0.861237 0.445923
0.980255 0.865021 0.461731
1.000000 0.865906 0.475403
0.013153 0.848450 0.526886
0.026581 0.848450 0.522461
0.043518 0.845154 0.525879
0.056702 0.845795 0.525360
0.071381 0.845154 0.514618
0.077576 0.847198 0.503357
0.095154 0.852386 0.505249
0.129578 0.846039 0.503479
0.195343 0.848846 0.504486
0.255920 0.852264 0.507019
0.306519 0.851746 0.501465
0.348389 0.852386 0.509430
0.395050 0.851501 0.516632
0.437042 0.850739 0.520050
0.472992 0.846924 0.526764
0.512970 0.847198 0.529541
0.545502 0.847198 0.526245
0.580536 0.852386 0.529297
0.614075 0.851379 0.530182
0.645172 0.852997 0.523224
0.677551 0.856934 0.522461
0.714630 0.860229 0.518402
0.743835 0.856934 0.514374
0.774445 0.863770 0.509674
0.809998 0.859955 0.505005
0.840729 0.867798 0.499939
0.865417 0.869324 0.496277
0.893860 0.875519 0.485779
0.936371 0.877411 0.477814
0.957611 0.881104 0.479584
0.980530 0.884247 0.497925
0.993408 0.888947 0.507904
0.229126 0.872498 0.570038
0.229614 0.872986 0.569519
0.230133 0.872986 0.569519
0.233551 0.876404 0.572571
0.242401 0.875916 0.567993
0.247589 0.874146 0.561554
0.249847 0.876923 0.555603
0.269714 0.879822 0.554199
0.296021 0.874512 0.555847
0.339661 0.876404 0.560028
0.370514 0.878174 0.551819
0.405029 0.876038 0.553711
0.440735 0.878815 0.561066
0.478546 0.875275 0.559387
0.508667 0.873505 0.564331
