assets/luts/Presetpro - Fuji Film.cube
#Created by: Adobe Photoshop Export Color Lookup Plugin
#Copyright: (C) Copyright 2018 https://www.presetpro.com and Tim Martin
TITLE "Presetpro - Fuji Film"
#LUT size
LUT_3D_SIZE 32
#data domain
DOMAIN_MIN 0.0 0.0 0.0
DOMAIN_MAX 1.0 1.0 1.0
#LUT data points
0.048431 0.044434 0.044434
0.057983 0.048645 0.048523
0.069275 0.052338 0.051788
0.087097 0.053711 0.052246
0.119141 0.051758 0.048615
0.162842 0.049225 0.044342
0.202484 0.049316 0.044098
0.251343 0.047852 0.043732
0.303162 0.045868 0.043365
0.353699 0.043640 0.043182
0.396851 0.043488 0.043182
0.439758 0.043274 0.043182
0.481018 0.043182 0.043182
0.516663 0.043182 0.043182
0.549866 0.043182 0.043182
0.579559 0.043182 0.043182
0.608124 0.043182 0.043182
0.635620 0.043182 0.043182
0.661926 0.043182 0.043182
0.687561 0.043182 0.043182
0.712524 0.043182 0.043182
0.736847 0.043182 0.043182
0.760223 0.043182 0.043182
0.780304 0.043823 0.043823
0.790588 0.047638 0.047638
0.800598 0.051636 0.051636
0.810364 0.055695 0.055695
0.820007 0.059753 0.059753
0.829742 0.063812 0.063812
0.839905 0.067780 0.067780
0.850647 0.071777 0.071777
0.861786 0.075836 0.075836
0.061188 0.055511 0.053864
0.066864 0.060455 0.058960
0.074646 0.065369 0.063690
0.086273 0.068939 0.066772
0.102295 0.071136 0.067932
0.129822 0.070496 0.065643
0.163818 0.069855 0.062988
0.217743 0.066681 0.057800
0.288696 0.061737 0.052338
0.361206 0.056763 0.047089
0.435272 0.051270 0.043182
0.485931 0.049408 0.043182
0.533722 0.046783 0.043182
0.576965 0.043823 0.043182
0.609589 0.043182 0.043182
0.638916 0.043182 0.043182
0.665039 0.043182 0.043182
0.690521 0.043182 0.043182
0.715057 0.043182 0.043182
0.732117 0.045349 0.045349
0.747772 0.047974 0.047974
0.763550 0.050507 0.050507
0.778046 0.053314 0.053314
0.792206 0.056122 0.056122
0.805817 0.059265 0.059265
0.818390 0.062622 0.062622
0.829071 0.066620 0.066620
0.839447 0.070801 0.070801
0.850372 0.074768 0.074768
0.861328 0.079010 0.079010
0.872375 0.083099 0.083099
0.883667 0.087219 0.087219
0.069489 0.068756 0.062225
0.075500 0.073517 0.067596
0.082581 0.078430 0.072479
0.091614 0.083221 0.076660
0.104156 0.086945 0.079468
0.121155 0.089508 0.080597
0.148285 0.089569 0.077759
0.182831 0.089661 0.074341
0.229095 0.088287 0.070160
0.290649 0.085480 0.063965
0.366852 0.080353 0.056488
0.442657 0.073364 0.051392
0.504059 0.068726 0.050110
0.558868 0.064972 0.049896
0.606659 0.060638 0.049774
0.648834 0.057037 0.048157
0.684937 0.054169 0.048920
0.704620 0.055603 0.051056
0.723022 0.057281 0.053833
0.741425 0.058868 0.057007
0.757935 0.061188 0.059357
0.775116 0.063080 0.062653
0.790588 0.065552 0.065369
0.806274 0.068176 0.068176
0.821503 0.070892 0.070892
0.836304 0.073700 0.073700
0.849670 0.076996 0.076996
0.861023 0.081085 0.081085
0.872345 0.085236 0.085236
0.883636 0.089417 0.089417
0.894806 0.093628 0.093628
0.905914 0.097992 0.097992
0.074615 0.084259 0.067413
0.081329 0.089142 0.073273
0.088776 0.094116 0.078613
0.097992 0.098694 0.083038
0.110199 0.102783 0.086151
0.125671 0.106140 0.088226
0.151917 0.106628 0.085052
0.185638 0.107147 0.081390
0.225769 0.107391 0.076843
0.279602 0.106140 0.070709
0.348328 0.103333 0.063232
0.424683 0.098297 0.055054
0.484985 0.093750 0.052185
0.540192 0.088654 0.050903
0.591461 0.083893 0.050751
0.636139 0.078888 0.051544
0.677582 0.074097 0.053253
0.714020 0.070526 0.055786
0.734070 0.071533 0.059723
0.753540 0.072571 0.063690
0.772858 0.073730 0.067719
0.791382 0.075165 0.071777
0.809296 0.076813 0.075592
0.825836 0.079193 0.078827
0.841766 0.081787 0.081787
0.856750 0.084625 0.084625
0.870697 0.087738 0.087494
0.883789 0.091156 0.090515
0.894531 0.095581 0.094452
0.905182 0.100037 0.098389
0.915710 0.104553 0.102386
0.926178 0.109924 0.106537
0.077271 0.102539 0.071503
0.084381 0.107391 0.077332
0.092163 0.112518 0.082886
0.101593 0.117584 0.087250
0.113708 0.122131 0.090698
0.128540 0.126190 0.093079
0.155914 0.126801 0.088989
0.188904 0.127777 0.084991
0.228363 0.128510 0.080139
0.277557 0.128540 0.073517
0.339935 0.127167 0.066010
0.414764 0.123474 0.057068
0.480255 0.118927 0.051697
0.532745 0.115051 0.049683
0.581787 0.110046 0.048889
0.627228 0.104980 0.048065
0.668488 0.099854 0.048065
0.706299 0.095062 0.049438
0.731964 0.094574 0.052002
0.751190 0.095795 0.055756
0.770233 0.097229 0.059540
0.788422 0.098877 0.063263
0.806366 0.100555 0.067169
0.823242 0.102753 0.070892
0.839844 0.105164 0.074524
0.855896 0.108368 0.077820
0.872101 0.111115 0.081665
0.885986 0.114807 0.084930
0.898926 0.118896 0.088959
0.909515 0.124359 0.092926
0.920013 0.129913 0.097015
0.930328 0.135742 0.101013
0.078705 0.123383 0.075165
0.085999 0.128784 0.081177
0.094177 0.134094 0.086609
0.103912 0.139252 0.090912
0.116547 0.144012 0.094330
0.131012 0.148407 0.097168
0.159241 0.149048 0.092712
0.193085 0.150208 0.087952
0.231720 0.151337 0.082886
0.279846 0.151733 0.076050
0.337463 0.151672 0.068390
0.406921 0.149719 0.059235
0.475952 0.145538 0.052734
0.530396 0.142242 0.049225
0.576691 0.139099 0.047760
0.621735 0.134766 0.046417
0.662018 0.130310 0.045258
0.700470 0.124786 0.044739
0.729553 0.122772 0.046173
0.751282 0.123505 0.048981
0.769775 0.125427 0.052521
0.787598 0.127838 0.055939
0.805206 0.130096 0.059479
0.822174 0.132751 0.063202
0.838501 0.135834 0.066803
0.855133 0.138580 0.070740
0.870941 0.141785 0.074341
0.886658 0.144745 0.078003
0.900330 0.148987 0.081787
0.912354 0.154633 0.085754
0.922943 0.161499 0.089783
0.933197 0.168640 0.093781
0.077911 0.147797 0.078644
0.085693 0.153381 0.084564
0.093964 0.158997 0.089966
0.104523 0.163971 0.094025
0.117737 0.168884 0.097351
0.132996 0.173340 0.100037
0.162262 0.173889 0.095306
0.196716 0.175049 0.090332
0.235626 0.176483 0.084839
0.282501 0.177460 0.077759
0.338409 0.177795 0.069946
0.403534 0.177216 0.061157
0.475769 0.173309 0.053528
0.530609 0.170380 0.049408
0.575409 0.168427 0.047516
0.618896 0.165619 0.045654
0.659454 0.161957 0.044098
0.695648 0.158325 0.043182
0.728760 0.155151 0.043182
0.754333 0.154816 0.044067
0.772186 0.157562 0.047180
0.789551 0.160400 0.050323
0.806732 0.163513 0.053558
0.823334 0.166779 0.056763
0.839447 0.170471 0.060089
0.855316 0.174377 0.063477
0.870880 0.178467 0.066833
0.886078 0.182678 0.070129
0.901031 0.186981 0.073364
0.913361 0.193176 0.076996
0.924377 0.200409 0.080963
0.934845 0.208099 0.084961
0.076416 0.174713 0.082367
0.083435 0.180878 0.088074
0.092285 0.186676 0.093323
0.103302 0.191895 0.097107
0.117432 0.196991 0.099945
0.133209 0.201691 0.102570
0.163788 0.202148 0.097168
0.199463 0.203430 0.091370
0.238770 0.205170 0.085419
0.285370 0.206482 0.077759
0.339203 0.207520 0.070190
0.401764 0.207520 0.062103
0.471527 0.205017 0.054413
0.530304 0.201813 0.048798
0.575745 0.200287 0.046265
0.617676 0.198639 0.044159
0.656616 0.196503 0.043182
0.691010 0.194183 0.043182
0.722870 0.191956 0.043182
0.751221 0.191040 0.043182
0.774658 0.191986 0.043182
0.793365 0.194916 0.044922
0.810364 0.198578 0.048004
0.826843 0.202545 0.051056
0.842682 0.206970 0.054138
0.858398 0.211456 0.057343
0.873596 0.216431 0.060455
0.888855 0.221436 0.063690
0.903595 0.226471 0.066742
0.917175 0.231964 0.069916
0.929108 0.238892 0.073547
0.939545 0.247284 0.077454
0.074738 0.204559 0.086182
0.081177 0.211548 0.091858
0.088837 0.218170 0.097076
0.100464 0.223541 0.100220
0.114838 0.229004 0.102875
0.131958 0.233765 0.104675
0.163055 0.234222 0.098846
0.200470 0.235321 0.092163
0.241150 0.237244 0.084930
0.287994 0.238861 0.076935
0.341278 0.240417 0.069183
0.401184 0.240906 0.062408
0.469116 0.239380 0.055023
0.527985 0.237061 0.048767
0.577057 0.235291 0.044739
0.617065 0.234558 0.043182
0.653290 0.234131 0.043182
0.687469 0.232819 0.043182
0.719208 0.231171 0.043182
0.747528 0.230804 0.043182
0.771942 0.231934 0.043182
0.792847 0.234619 0.043182
0.813324 0.237274 0.043182
0.830902 0.241119 0.045258
0.846680 0.246124 0.048157
0.862061 0.251343 0.051147
0.877167 0.256866 0.054169
0.892151 0.262665 0.057190
0.907013 0.268433 0.060211
0.920868 0.274414 0.063141
0.933990 0.280945 0.066345
0.944733 0.289185 0.070129
0.075500 0.235931 0.087708
0.080994 0.243866 0.093475
0.087585 0.251587 0.099152
0.095673 0.259125 0.103363
0.110504 0.264557 0.105713
0.128296 0.269165 0.107147
0.162598 0.268707 0.100128
0.201447 0.269562 0.092804
0.243927 0.271332 0.084930
0.290619 0.273224 0.077728
0.343292 0.275269 0.070038
0.401611 0.276550 0.063141
0.467255 0.276337 0.055542
0.527588 0.274475 0.048553
0.578949 0.272705 0.043182
0.615265 0.273346 0.043182
0.650970 0.273560 0.043182
0.685089 0.273468 0.043182
0.716248 0.272949 0.043182
0.744781 0.272797 0.043182
0.770874 0.273895 0.043182
0.790802 0.277618 0.043182
0.810638 0.281219 0.043182
0.830139 0.284821 0.043182
0.849396 0.288574 0.043182
0.866302 0.293518 0.044861
0.881226 0.299561 0.047760
0.896088 0.305786 0.050690
0.910706 0.312073 0.053619
0.925018 0.318298 0.056458
0.938568 0.324615 0.059357
0.949677 0.332520 0.062988
0.076843 0.269104 0.088715
0.082336 0.277679 0.094513
0.087891 0.286285 0.100342
0.094757 0.294800 0.104828
0.104034 0.303375 0.108765
0.122437 0.307770 0.109772
0.157654 0.306213 0.102234
0.201172 0.306030 0.093597
0.245270 0.307800 0.085480
0.293091 0.309662 0.077850
0.345215 0.311859 0.070801
0.402771 0.313507 0.063812
0.466675 0.314117 0.056244
0.528809 0.313110 0.048431
0.580597 0.311584 0.043182
0.616699 0.312805 0.043182
0.651550 0.313629 0.043182
0.685272 0.314087 0.043182
0.717346 0.314331 0.043182
0.746552 0.313965 0.043182
0.773376 0.314850 0.043182
0.793732 0.319183 0.043182
0.812897 0.323273 0.043182
0.831909 0.327332 0.043182
0.850708 0.331482 0.043182
0.869324 0.335663 0.043182
0.886383 0.340637 0.044098
0.901031 0.346863 0.046997
0.915588 0.353210 0.049957
0.929749 0.359711 0.052887
0.943573 0.365936 0.055756
0.956390 0.372711 0.058746
0.078827 0.303436 0.089417
0.084137 0.312866 0.094910
0.089539 0.322296 0.100494
0.094543 0.332520 0.105255
0.102295 0.342285 0.109497
0.115417 0.349121 0.111786
0.148651 0.346863 0.104370
0.197632 0.344696 0.094452
0.244965 0.345520 0.086670
0.293915 0.347260 0.078796
0.346741 0.349365 0.071594
0.404114 0.351562 0.064575
0.467285 0.352692 0.056915
0.528900 0.352386 0.048889
0.582581 0.350677 0.043182
0.618591 0.352173 0.043182
0.653107 0.353485 0.043182
0.686554 0.354431 0.043182
0.718781 0.355103 0.043182
0.747803 0.355316 0.043182
0.775909 0.355469 0.043182
0.796509 0.359680 0.043182
0.815887 0.364319 0.043182
0.834473 0.368805 0.043182
0.852783 0.373413 0.043182
0.870972 0.377960 0.043182
0.888672 0.382812 0.043182
0.905975 0.387909 0.043427
0.920441 0.394379 0.046356
0.934784 0.401062 0.049225
0.948639 0.407501 0.052032
0.961823 0.414032 0.054901
0.081757 0.337769 0.091705
0.086823 0.347717 0.096680
0.092133 0.357452 0.102051
0.097137 0.367859 0.106812
0.102203 0.378876 0.111542
0.111115 0.388794 0.116089
0.140839 0.386353 0.108185
0.193451 0.382874 0.096863
0.243652 0.382996 0.088104
0.294434 0.384583 0.079803
0.347809 0.386719 0.072327
0.404816 0.389343 0.064972
0.466644 0.391418 0.056976
0.528900 0.391602 0.048523
0.582855 0.389557 0.043182
0.619568 0.391602 0.043182
0.653961 0.393066 0.043182
0.687134 0.394409 0.043182
0.719543 0.395660 0.043182
0.748779 0.396149 0.043182
0.776489 0.396759 0.043182
0.799103 0.400177 0.043182
0.818695 0.404938 0.043182
0.836914 0.409790 0.043182
0.854828 0.414673 0.043182
0.872681 0.419617 0.043182
0.890076 0.424683 0.043182
0.907288 0.429901 0.043182
0.924438 0.435089 0.043182
0.939392 0.441376 0.045288
0.953461 0.447784 0.048004
0.967224 0.453979 0.050659
0.085144 0.371918 0.094177
0.090240 0.381866 0.099152
0.095398 0.391907 0.104126
0.100403 0.402283 0.109009
0.105469 0.413452 0.113800
0.110596 0.425018 0.119598
0.132324 0.427338 0.114960
0.187958 0.420654 0.100708
0.241943 0.420410 0.090820
0.295135 0.421326 0.082123
0.349823 0.423401 0.074097
0.406982 0.425934 0.066528
0.468414 0.428192 0.058563
0.529694 0.429260 0.049927
0.585144 0.427185 0.043182
0.623199 0.428802 0.043182
0.657379 0.430847 0.043182
0.690399 0.432220 0.043182
0.722198 0.433838 0.043182
0.751251 0.434937 0.043182
0.779266 0.435577 0.043182
0.803192 0.438660 0.043182
0.823059 0.443481 0.043182
0.840790 0.448486 0.043182
0.858124 0.453735 0.043182
0.875610 0.458862 0.043182
0.892639 0.464142 0.043182
0.909424 0.469543 0.043182
0.926208 0.474854 0.043182
0.942749 0.480408 0.043182
0.958160 0.486145 0.044495
0.971924 0.492432 0.047150
0.088409 0.405853 0.097168
0.093414 0.415802 0.102203
0.098572 0.425812 0.107361
0.103546 0.436005 0.112671
0.108612 0.446991 0.117737
0.113586 0.458405 0.123474
0.130890 0.462311 0.120361
0.180023 0.456909 0.106628
0.240784 0.455322 0.094818
0.296478 0.456024 0.085510
0.352692 0.457825 0.077179
0.410736 0.460114 0.069336
0.471832 0.462524 0.061310
0.532593 0.463989 0.052704
0.588013 0.462982 0.043427
0.627411 0.464172 0.043182
0.662537 0.466064 0.043182
0.694641 0.468048 0.043182
0.725952 0.469788 0.043182
0.755188 0.471191 0.043182
0.782806 0.472351 0.043182
0.807648 0.474731 0.043182
0.828491 0.479462 0.043182
0.845703 0.484711 0.043182
0.862793 0.490051 0.043182
0.879791 0.495239 0.043182
0.896576 0.500549 0.043182
0.913116 0.506042 0.043182
0.929443 0.511230 0.043182
0.945679 0.516479 0.043182
0.961914 0.521667 0.043182
0.976837 0.527283 0.044678
0.091431 0.438934 0.099945
0.096497 0.448883 0.105011
0.101624 0.458740 0.110443
0.106628 0.468933 0.115784
0.111572 0.479858 0.120911
0.116302 0.490936 0.126404
0.129608 0.497040 0.125092
0.173157 0.492828 0.111847
0.237152 0.489777 0.099030
0.297577 0.489502 0.088715
0.355316 0.491089 0.080078
0.413879 0.493195 0.071838
0.474762 0.495636 0.063660
0.534485 0.497223 0.055023
0.589783 0.496887 0.045685
0.632294 0.497986 0.043182
0.667419 0.499878 0.043182
0.699463 0.501892 0.043182
0.730377 0.503662 0.043182
0.760101 0.505249 0.043182
0.787628 0.506500 0.043182
0.814087 0.507782 0.043182
0.835083 0.512177 0.043182
0.852631 0.517487 0.043182
0.869385 0.522552 0.043182
0.886200 0.527557 0.043182
0.902802 0.532501 0.043182
0.919067 0.537628 0.043182
0.935211 0.542786 0.043182
0.951202 0.547974 0.043182
0.967224 0.553070 0.043182
0.982361 0.558441 0.044128
0.094482 0.471008 0.103882
0.099579 0.480743 0.108917
0.104645 0.490448 0.114471
0.109711 0.500549 0.119904
0.114655 0.511139 0.125092
0.119171 0.522156 0.130219
0.131470 0.528534 0.128723
0.165955 0.526611 0.117462
0.231140 0.523224 0.103760
0.296814 0.521912 0.092072
0.357361 0.522980 0.082825
0.416809 0.524933 0.074402
0.477783 0.527344 0.066101
0.537048 0.529236 0.057373
0.591827 0.529144 0.047974
0.636414 0.530273 0.043182
0.672302 0.531891 0.043182
0.704285 0.533813 0.043182
0.735504 0.535645 0.043182
0.765442 0.537354 0.043182
0.792603 0.538361 0.043182
0.819244 0.539368 0.043182
0.841797 0.542816 0.043182
0.859406 0.548035 0.043182
0.876190 0.553101 0.043182
0.892700 0.558014 0.043182
0.909149 0.562836 0.043182
0.925232 0.567810 0.043182
0.941162 0.572845 0.043182
0.957001 0.577881 0.043182
0.972809 0.582916 0.043182
0.988007 0.588043 0.043915
0.098755 0.500488 0.109131
0.103516 0.510406 0.113739
0.108612 0.519928 0.119476
0.113434 0.529999 0.124542
0.118195 0.540466 0.129303
0.122070 0.551849 0.133545
0.131378 0.559998 0.133942
0.160400 0.559814 0.123871
0.221710 0.554993 0.108917
0.294983 0.552704 0.095764
0.358063 0.553467 0.085846
0.419373 0.555145 0.076996
0.480621 0.557373 0.068542
0.539581 0.559204 0.059753
0.594208 0.559631 0.050323
0.640442 0.560852 0.043488
0.677399 0.562225 0.043182
0.709259 0.564209 0.043182
0.740540 0.565979 0.043182
0.770844 0.567688 0.043182
0.797607 0.568756 0.043182
0.824432 0.569550 0.043182
0.847168 0.572632 0.043182
0.866272 0.577240 0.043182
0.883026 0.582245 0.043182
0.899292 0.587006 0.043182
0.915527 0.591827 0.043182
0.931488 0.596710 0.043182
0.947327 0.601624 0.043182
0.962952 0.606567 0.043182
0.978577 0.611420 0.043182
0.993652 0.616425 0.043915
0.103668 0.528259 0.115997
0.108429 0.537933 0.120544
0.113220 0.547668 0.125977
0.118042 0.557556 0.131073
0.122467 0.568207 0.135315
0.126129 0.579346 0.139099
0.132294 0.589325 0.139862
0.155426 0.590302 0.131409
0.210480 0.585907 0.116119
0.293610 0.581970 0.100037
0.359802 0.582123 0.089325
0.422333 0.583618 0.080170
0.484131 0.585541 0.071289
0.542816 0.587372 0.062347
0.596985 0.587982 0.052734
0.644135 0.589111 0.045227
0.682098 0.590546 0.043182
0.713928 0.592407 0.043182
0.745270 0.594116 0.043182
0.775177 0.595734 0.043182
0.802368 0.596924 0.043182
0.828918 0.597839 0.043182
0.852661 0.600342 0.043182
0.872772 0.604584 0.043182
0.889404 0.609589 0.043182
0.905548 0.614319 0.043182
0.921631 0.619049 0.043182
0.937531 0.623840 0.043182
0.953278 0.628632 0.043182
0.968750 0.633453 0.043182
0.984283 0.638306 0.043182
0.999115 0.643219 0.044128
0.108521 0.555237 0.123505
0.113312 0.564728 0.127777
0.118164 0.574188 0.133270
0.123169 0.583740 0.138306
0.127625 0.593872 0.142548
0.130768 0.605133 0.145386
0.136566 0.614960 0.146210
0.156342 0.617920 0.139648
0.202698 0.614166 0.125275
0.292023 0.609039 0.106262
0.362061 0.609222 0.093781
0.426270 0.610626 0.084045
0.488373 0.612427 0.074738
0.546661 0.614105 0.065369
0.600342 0.614868 0.055542
0.647583 0.615967 0.047699
0.687042 0.617554 0.043182
0.719055 0.619293 0.043182
0.750427 0.621033 0.043182
0.779999 0.622589 0.043182
0.807190 0.623779 0.043182
0.833679 0.624786 0.043182
0.858002 0.626984 0.043182
0.879120 0.630768 0.043182
0.895599 0.635834 0.043182
0.911560 0.640656 0.043182
0.927521 0.645294 0.043182
0.943329 0.649963 0.043182
0.958984 0.654663 0.043182
0.974365 0.659454 0.043182
0.989777 0.664215 0.043182
1.000000 0.670410 0.048096
0.113312 0.581329 0.131470
0.118195 0.590485 0.135742
0.123016 0.599640 0.141205
0.127808 0.609161 0.145752
0.132263 0.619019 0.149933
0.135376 0.630066 0.152222
0.138885 0.640961 0.153900
0.156616 0.644897 0.148071
0.205994 0.640259 0.132324
0.291595 0.635193 0.113403
0.364197 0.634857 0.099152
0.431763 0.635956 0.088837
0.494781 0.637482 0.079376
0.552704 0.639008 0.069855
0.605713 0.639587 0.059906
0.652863 0.640717 0.051514
0.692566 0.642487 0.045715
0.725403 0.644897 0.043182
0.756317 0.646637 0.043182
0.785400 0.648102 0.043182
0.812714 0.649536 0.043182
0.838837 0.650604 0.043182
0.863220 0.652679 0.043182
0.885590 0.655945 0.043182
0.901825 0.661102 0.043182
0.917603 0.665924 0.043182
0.933197 0.670624 0.043182
0.948853 0.675262 0.043182
0.964478 0.679840 0.043182
0.979736 0.684631 0.043182
0.994324 0.689301 0.043182
1.000000 0.697144 0.052124
0.118286 0.606384 0.139282
0.123291 0.615265 0.143585
0.128174 0.624146 0.149139
0.132904 0.633606 0.153351
0.137115 0.643433 0.157318
0.140106 0.654388 0.159149
0.143402 0.665192 0.160767
0.158417 0.670319 0.156250
0.203796 0.666260 0.141357
0.286285 0.660461 0.122467
0.366089 0.659515 0.105103
0.436615 0.660370 0.093811
0.500793 0.661896 0.083984
0.558624 0.663116 0.074249
0.611176 0.663574 0.064148
0.658295 0.664612 0.055511
0.698273 0.666504 0.049286
0.731262 0.669159 0.045685
0.762970 0.671112 0.043182
0.791962 0.672607 0.043182
0.819153 0.673950 0.043182
0.845337 0.674927 0.043182
0.870453 0.676483 0.043182
0.893494 0.679199 0.043182
0.910126 0.684479 0.043182
0.925903 0.689270 0.043182
0.941406 0.693939 0.043182
0.956787 0.698547 0.043182
0.972321 0.703064 0.043182
0.986786 0.707764 0.043182
1.000000 0.712433 0.044220
1.000000 0.721649 0.061188
0.122894 0.630249 0.148865
0.128021 0.638885 0.153107
0.132812 0.647797 0.158539
0.136810 0.657990 0.160706
0.141144 0.667694 0.164703
0.144287 0.678406 0.166168
0.147308 0.689117 0.167755
0.159149 0.695770 0.164795
0.202942 0.691956 0.150055
0.282318 0.685669 0.131104
0.363190 0.683716 0.112976
0.440338 0.684235 0.098633
0.505554 0.685669 0.088593
0.563965 0.686920 0.078644
0.616364 0.686951 0.068329
0.663544 0.687836 0.059448
0.703857 0.689575 0.052917
0.736938 0.692383 0.049316
0.768890 0.694611 0.045654
0.798676 0.696381 0.043182
0.825806 0.697601 0.043182
0.852020 0.698578 0.043182
0.877380 0.699951 0.043182
0.901581 0.701843 0.043182
0.918243 0.707031 0.043182
0.934235 0.711823 0.043182
0.949615 0.716309 0.043182
0.964905 0.720703 0.043182
0.979889 0.725159 0.043182
0.993317 0.729858 0.043610
1.000000 0.736023 0.055176
1.000000 0.745026 0.072205
0.127563 0.653076 0.157776
0.132660 0.661987 0.161865
0.137482 0.670807 0.167145
0.141388 0.681000 0.168823
0.145081 0.691040 0.172119
0.148346 0.701599 0.173340
0.151520 0.712158 0.175049
0.161652 0.719604 0.172852
0.201935 0.716827 0.158508
0.278717 0.710632 0.139954
0.364349 0.707642 0.120392
0.442963 0.707611 0.103638
0.510376 0.708954 0.093109
0.569122 0.710175 0.083038
0.621460 0.710114 0.072571
0.668915 0.710449 0.063263
0.709503 0.712006 0.056549
0.742706 0.714905 0.052917
0.774323 0.717194 0.049316
0.804474 0.719025 0.045715
0.832153 0.720398 0.043182
0.858368 0.721313 0.043182
0.884247 0.722290 0.043182
0.909241 0.723694 0.043182
0.926117 0.728729 0.043182
0.942230 0.733643 0.043182
0.957489 0.738129 0.043182
0.972748 0.742523 0.043182
0.986359 0.746979 0.043915
0.998810 0.751709 0.046417
1.000000 0.758850 0.067749
1.000000 0.767609 0.085876
0.131958 0.675293 0.168762
0.136871 0.684357 0.171844
0.141663 0.693298 0.176788
0.145264 0.703674 0.176849
0.148804 0.713715 0.179932
0.152283 0.724030 0.180695
0.155579 0.734436 0.182465
0.162689 0.743164 0.181641
0.199768 0.740906 0.167450
0.281433 0.733704 0.146973
0.364532 0.730530 0.127960
0.445129 0.730103 0.109680
0.514557 0.731323 0.097626
0.574371 0.732605 0.087250
0.626312 0.732452 0.076691
0.673981 0.732819 0.067261
0.715118 0.733887 0.060089
0.748444 0.736694 0.056458
0.779816 0.739105 0.052917
0.810059 0.741119 0.049316
0.837524 0.742493 0.045837
0.864502 0.743591 0.043182
0.890625 0.744476 0.043182
0.916168 0.745422 0.043182
0.933777 0.750366 0.043182
0.949921 0.755280 0.043182
0.965240 0.759674 0.043182
0.978882 0.764130 0.044434
0.991791 0.768524 0.046722
1.000000 0.773438 0.059387
1.000000 0.781158 0.081696
1.000000 0.789642 0.101257
0.136353 0.696808 0.182220
0.140350 0.706665 0.182983
0.145050 0.715607 0.187714
0.148712 0.725830 0.187531
0.152100 0.735779 0.190399
0.155762 0.745911 0.191040
0.159119 0.756104 0.192932
0.165710 0.765167 0.192169
0.199463 0.763763 0.176300
0.282074 0.756927 0.154388
0.369049 0.752777 0.134308
0.446503 0.752258 0.116394
0.518127 0.753235 0.101959
0.579163 0.754333 0.091309
0.631348 0.754364 0.080719
0.679047 0.754578 0.071136
0.720490 0.755646 0.063812
0.753998 0.758209 0.059998
0.785370 0.760468 0.056396
0.815460 0.762604 0.052887
0.842499 0.764099 0.049347
0.869598 0.765320 0.045837
0.896515 0.766296 0.043182
0.922577 0.767059 0.043182
0.940582 0.771820 0.043182
0.957428 0.776642 0.043182
0.971375 0.780975 0.044922
0.984283 0.785370 0.047211
0.997192 0.789825 0.049591
1.000000 0.794678 0.076508
1.000000 0.802826 0.097321
1.000000 0.811035 0.118561
0.140991 0.717682 0.198029
0.144592 0.727905 0.196991
0.148193 0.737762 0.198792
0.152039 0.747772 0.198273
0.155457 0.757721 0.200348
0.159363 0.767731 0.200287
0.162994 0.777710 0.202301
0.167847 0.787384 0.202057
0.199066 0.786743 0.186676
0.283813 0.779449 0.162750
0.369537 0.775146 0.141937
0.445648 0.774109 0.123627
0.522369 0.774750 0.106445
0.583649 0.775696 0.095215
0.636078 0.775665 0.084442
0.683716 0.776031 0.074799
0.725372 0.776978 0.067261
0.759033 0.779510 0.063446
0.790405 0.781219 0.059753
0.820160 0.783081 0.056152
0.847107 0.784607 0.052643
0.873993 0.786011 0.049194
0.901031 0.787140 0.045593
0.927917 0.788116 0.043182
0.947296 0.792389 0.043182
0.963440 0.797272 0.045288
0.976501 0.801666 0.047607
0.989441 0.806091 0.049927
1.000000 0.810516 0.058685
1.000000 0.815735 0.092499
1.000000 0.823730 0.114532
1.000000 0.831757 0.138062
0.146027 0.737579 0.219177
0.149353 0.747955 0.218323
0.152863 0.757935 0.219635
0.156464 0.767944 0.218994
0.159973 0.777802 0.220825
0.163818 0.787842 0.220123
0.167328 0.797882 0.221649
0.171600 0.807892 0.219971
0.202271 0.807709 0.202789
0.285400 0.801270 0.176178
0.364105 0.797577 0.153046
0.442505 0.796051 0.131897
0.524658 0.796326 0.112000
0.588196 0.796844 0.098938
0.640808 0.796783 0.088074
