assets/luts/Presetpro - Vibe.cube
#Created by: Adobe Photoshop Export Color Lookup Plugin
#Copyright: (C) Copyright 2022 Tim Martin and Presetpro.com
TITLE "Presetpro - Vibe.jpg"
#LUT size
LUT_3D_SIZE 32
#data domain
DOMAIN_MIN 0.0 0.0 0.0
DOMAIN_MAX 1.0 1.0 1.0
#LUT data points
0.039215 0.035309 0.019623
0.050995 0.035309 0.023529
0.059082 0.039459 0.023773
0.070221 0.038849 0.027069
0.074524 0.039215 0.019623
0.087524 0.042511 0.027466
0.101074 0.039978 0.021118
0.122467 0.046173 0.029602
0.139282 0.048065 0.022522
0.168121 0.049835 0.025177
0.197327 0.049713 0.024933
0.220093 0.053528 0.019623
0.260071 0.053375 0.018097
0.310181 0.049347 0.010132
0.369232 0.047455 0.010010
0.423004 0.035431 0.005951
0.488831 0.005829 0.000000
0.550568 0.001770 0.000000
0.608124 0.002289 0.000000
0.672638 0.001526 0.004822
0.719940 0.000000 0.000000
0.764984 0.000000 0.000000
0.816711 0.000000 0.003937
0.850861 0.002899 0.000000
0.889709 0.051758 0.000000
0.927155 0.105255 0.000763
0.955597 0.149780 0.000000
0.986206 0.189636 0.003937
1.000000 0.218475 0.000000
1.000000 0.253632 0.000000
0.999878 0.281860 0.007599
0.992157 0.309814 0.003937
0.035309 0.039337 0.019745
0.043274 0.039337 0.023529
0.059082 0.046814 0.027191
0.063995 0.043640 0.020111
0.079071 0.043762 0.023895
0.091339 0.047302 0.023407
0.108032 0.047943 0.026825
0.126373 0.051117 0.026703
0.138397 0.055908 0.021637
0.168121 0.053253 0.027191
0.193420 0.062744 0.015930
0.230621 0.060211 0.022278
0.265625 0.060455 0.015686
0.311920 0.059204 0.008087
0.367706 0.055664 0.007843
0.430573 0.043640 0.000000
0.488708 0.025665 0.000000
0.552216 0.003784 0.000000
0.608368 0.002167 0.006195
0.674805 0.001526 0.004547
0.722595 0.000000 0.000000
0.774200 0.000122 0.000000
0.811127 0.004181 0.000244
0.856934 0.025177 0.002777
0.887054 0.078308 0.000122
0.923462 0.122711 0.000885
0.954224 0.157867 0.003784
0.986084 0.197723 0.000000
1.000000 0.226074 0.000000
0.999481 0.265289 0.000000
0.999756 0.286163 0.000000
0.996216 0.321686 0.007721
0.039215 0.051483 0.024048
0.043274 0.047424 0.023529
0.054901 0.054901 0.023529
0.066925 0.055145 0.027191
0.083099 0.048309 0.020111
0.091339 0.058685 0.019867
0.107391 0.055664 0.023010
0.127014 0.059723 0.026581
0.141541 0.061096 0.023285
0.174835 0.057159 0.017944
0.195557 0.071106 0.022766
0.229065 0.068573 0.020233
0.270691 0.073486 0.007202
0.319641 0.070190 0.016571
0.371246 0.070831 0.007965
0.428558 0.061615 0.003296
0.490997 0.043884 0.003815
0.550812 0.024139 0.002014
0.617615 0.008453 0.000000
0.672882 0.004425 0.000000
0.722717 0.002777 0.000000
0.774963 0.003662 0.000000
0.818726 0.030884 0.002533
0.857452 0.067291 0.000519
0.893616 0.105896 0.000000
0.922974 0.141815 0.000000
0.955231 0.171417 0.000000
0.983063 0.203156 0.003662
0.999634 0.237701 0.000000
0.996063 0.266418 0.003662
1.000000 0.298035 0.000244
0.999756 0.325745 0.003662
0.038849 0.059570 0.030609
0.038971 0.059448 0.030609
0.051239 0.062988 0.027191
0.062744 0.063507 0.031006
0.086273 0.064270 0.016052
0.095367 0.071350 0.024536
0.113739 0.064270 0.026703
0.119537 0.074005 0.025818
0.145844 0.071106 0.022125
0.174072 0.072113 0.016052
0.199738 0.079071 0.014801
0.238312 0.080566 0.013794
0.276123 0.083099 0.011383
0.317749 0.086029 0.007477
0.379852 0.083496 0.002167
0.436798 0.079559 0.000000
0.496918 0.069702 0.000000
0.559784 0.061737 0.000000
0.616089 0.042877 0.000366
0.674927 0.037201 0.002411
0.727142 0.035156 0.003540
0.778625 0.052643 0.000000
0.817841 0.074524 0.002411
0.860229 0.095520 0.003540
0.891479 0.125610 0.000000
0.929932 0.158508 0.003540
0.961426 0.193298 0.001404
0.989624 0.222260 0.003052
1.000000 0.250610 0.003937
0.998993 0.278809 0.000244
0.999481 0.306274 0.000366
0.996063 0.341187 0.003937
0.039215 0.068695 0.034271
0.042633 0.075531 0.030853
0.046814 0.072113 0.030609
0.058685 0.071991 0.034149
0.071594 0.076538 0.020111
0.095245 0.083496 0.023651
0.111328 0.086517 0.022522
0.131927 0.083862 0.018738
0.156464 0.092224 0.022522
0.172150 0.095123 0.016205
0.206818 0.090302 0.014435
0.253387 0.093994 0.008606
0.282593 0.103088 0.009857
0.325226 0.109039 0.003418
0.381134 0.106506 0.003784
0.439178 0.107391 0.001007
0.501099 0.099915 0.004578
0.564606 0.092346 0.012390
0.624298 0.086639 0.002777
0.680481 0.082367 0.000000
0.731323 0.087402 0.005432
0.776733 0.097137 0.001251
0.816711 0.116272 0.000000
0.859711 0.136230 0.000000
0.896149 0.160919 0.000000
0.927155 0.188751 0.000000
0.963440 0.211395 0.002777
0.992035 0.235809 0.000519
0.996582 0.266541 0.003937
0.996338 0.294617 0.000519
0.999481 0.318787 0.000000
0.995575 0.343201 0.000000
0.033386 0.090820 0.031372
0.034668 0.091461 0.030731
0.038208 0.085144 0.021118
0.053650 0.089417 0.028076
0.063385 0.092102 0.027710
0.083618 0.095367 0.019623
0.109924 0.100189 0.022125
0.128510 0.111053 0.012634
0.152435 0.110687 0.019104
0.177460 0.112335 0.008209
0.214935 0.119537 0.013153
0.243103 0.126007 0.007599
0.292694 0.128021 0.000641
0.334961 0.132324 0.000000
0.392273 0.134094 0.003418
0.444489 0.130035 0.003296
0.511108 0.128021 0.005951
0.574738 0.124084 0.003296
0.630615 0.124084 0.000641
0.684784 0.125610 0.000000
0.730957 0.127899 0.002533
0.779907 0.135864 0.002533
0.823914 0.153198 0.002167
0.863892 0.171417 0.001251
0.899323 0.188751 0.000641
0.927765 0.212006 0.005829
0.958893 0.239227 0.000641
0.987366 0.265900 0.001251
1.000000 0.290955 0.003937
0.996948 0.314850 0.007477
0.999359 0.338776 0.003540
0.996063 0.363312 0.000641
0.017334 0.104980 0.028198
0.026062 0.111450 0.035309
0.030609 0.108917 0.028961
0.037689 0.108917 0.032501
0.051483 0.113098 0.027191
0.070343 0.119781 0.022003
0.099548 0.120667 0.021271
0.119537 0.133331 0.015564
0.149384 0.143707 0.015808
0.181519 0.144958 0.011017
0.217468 0.148132 0.002655
0.243988 0.157745 0.000000
0.300049 0.155975 0.003174
0.344818 0.160645 0.003052
0.402130 0.161652 0.000000
0.462219 0.163055 0.000763
0.519684 0.164581 0.000000
0.578766 0.160004 0.000000
0.644287 0.157501 0.000000
0.694519 0.162292 0.004822
0.739288 0.167114 0.000000
0.790924 0.180145 0.001892
0.832397 0.189758 0.000000
0.866547 0.201782 0.000000
0.901459 0.221619 0.003784
0.928650 0.244659 0.000000
0.960785 0.263885 0.000000
0.985962 0.288300 0.000000
0.998871 0.307770 0.002777
0.998993 0.334076 0.000000
0.993927 0.358002 0.000000
0.996063 0.378754 0.003937
0.003937 0.132935 0.035309
0.003937 0.135986 0.027466
0.007843 0.139893 0.031372
0.013153 0.137634 0.024536
0.025818 0.143829 0.031738
0.046936 0.147736 0.029236
0.077057 0.148621 0.017212
0.106781 0.156464 0.012634
0.146088 0.172028 0.004059
0.181885 0.171387 0.005951
0.210236 0.179626 0.000000
0.258575 0.183929 0.009857
0.301697 0.192413 0.000000
0.357483 0.193420 0.000000
0.411987 0.196564 0.000000
0.467896 0.197571 0.001770
0.532867 0.197723 0.005066
0.588135 0.194794 0.000000
0.646820 0.197968 0.001648
0.698547 0.204407 0.001526
0.745239 0.210114 0.001648
0.788116 0.218842 0.001770
0.826569 0.231628 0.000000
0.861603 0.243652 0.000000
0.897552 0.258423 0.000000
0.929535 0.278168 0.000000
0.958252 0.297913 0.002411
0.980133 0.314606 0.000000
1.000000 0.333954 0.006439
0.996338 0.361542 0.002777
0.998993 0.375946 0.000000
1.000000 0.396576 0.000000
0.000000 0.167725 0.027466
0.002899 0.168732 0.031250
0.000244 0.169006 0.021881
0.001007 0.170776 0.020630
0.001007 0.172668 0.028839
0.008728 0.174683 0.020233
0.039612 0.185455 0.013153
0.082489 0.188354 0.008606
0.116760 0.195312 0.001007
0.174957 0.206451 0.000000
0.213776 0.219482 0.002014
0.258179 0.224670 0.002899
0.317871 0.228088 0.002014
0.370636 0.230225 0.000000
0.430481 0.231750 0.000000
0.481049 0.236420 0.000000
0.544739 0.233521 0.000000
0.602295 0.237427 0.000000
0.656433 0.238708 0.002899
0.706665 0.243774 0.001526
0.752441 0.249329 0.002014
0.793701 0.258698 0.001007
0.830750 0.272217 0.001007
0.870361 0.283478 0.005707
0.900330 0.295624 0.002777
0.927155 0.313354 0.000000
0.960266 0.328278 0.003296
0.984833 0.349030 0.000000
0.997467 0.365082 0.000000
1.000000 0.382904 0.000000
0.998871 0.401642 0.000000
0.997101 0.418701 0.000000
0.002258 0.202911 0.020752
0.002014 0.205811 0.023529
0.000000 0.207062 0.021271
0.000000 0.213898 0.015320
0.002777 0.214020 0.017975
0.000641 0.220856 0.013916
0.003937 0.225281 0.003937
0.035553 0.227295 0.004547
0.092224 0.230469 0.000000
0.147369 0.235413 0.002777
0.209351 0.259186 0.002258
0.265137 0.260590 0.002533
0.317627 0.270691 0.005066
0.375183 0.271210 0.000000
0.438812 0.275238 0.001770
0.496979 0.277039 0.000000
0.555603 0.277161 0.000885
0.608887 0.280182 0.000000
0.666290 0.281311 0.001648
0.712463 0.285248 0.003937
0.752441 0.293365 0.001129
0.797089 0.298523 0.001129
0.836334 0.309296 0.000000
0.871613 0.324463 0.003937
0.894623 0.335236 0.004547
0.927521 0.348114 0.000000
0.960419 0.360779 0.002777
0.985565 0.376099 0.006195
0.998871 0.393158 0.000000
0.997467 0.410736 0.000000
0.998871 0.426544 0.000000
0.996063 0.446533 0.000000
0.002655 0.250702 0.011780
0.002655 0.251984 0.010498
0.000000 0.255890 0.010498
0.000000 0.260834 0.010498
0.000000 0.258545 0.009491
0.002655 0.263123 0.005951
0.000000 0.267670 0.005310
0.000885 0.275116 0.002655
0.028351 0.278168 0.000244
0.108032 0.279419 0.000122
0.172150 0.292603 0.001251
0.252228 0.307251 0.002533
0.321777 0.316132 0.004944
0.389099 0.320923 0.000000
0.447174 0.321289 0.001251
0.508514 0.321930 0.003937
0.565735 0.321930 0.000000
0.620636 0.327881 0.001251
0.670471 0.325226 0.000000
0.717773 0.330170 0.002777
0.760406 0.333069 0.002533
0.802795 0.343567 0.001251
0.832397 0.353058 0.001526
0.871979 0.362427 0.002533
0.904999 0.368866 0.000000
0.932312 0.385193 0.000000
0.958893 0.397217 0.002655
0.979889 0.409210 0.000519
0.998749 0.423889 0.000000
0.997589 0.438568 0.000000
1.000000 0.450592 0.000000
0.997345 0.466522 0.000000
0.000000 0.295990 0.001404
0.000000 0.302460 0.005066
0.000000 0.302460 0.000000
0.000000 0.304840 0.001007
0.000000 0.311676 0.000000
0.000641 0.314850 0.000000
0.005707 0.319397 0.002533
0.003418 0.319031 0.003418
0.000000 0.331909 0.000000
0.031372 0.330170 0.000000
0.145599 0.334076 0.000122
0.227936 0.341675 0.002533
0.317871 0.357605 0.001648
0.396301 0.370514 0.002289
0.457153 0.368744 0.004181
0.518494 0.370270 0.000000
0.580933 0.366577 0.000000
0.635834 0.371277 0.001770
0.682251 0.374420 0.002533
0.726776 0.373047 0.003937
0.765594 0.379730 0.001404
0.807983 0.381012 0.002533
0.841370 0.390137 0.001129
0.877289 0.400879 0.004425
0.905762 0.408600 0.001648
0.931824 0.418579 0.000000
0.958130 0.429718 0.001404
0.981262 0.441742 0.001892
0.994568 0.456146 0.001404
0.997223 0.466644 0.000000
1.000000 0.478546 0.007477
0.996063 0.494354 0.000000
0.001526 0.355713 0.002411
0.001404 0.355713 0.002411
0.000000 0.355713 0.002411
0.000000 0.358124 0.000000
0.000000 0.362549 0.000000
0.003937 0.365051 0.001526
0.003937 0.368988 0.003937
0.000000 0.374695 0.000000
0.002411 0.377716 0.002411
0.000366 0.391754 0.001526
0.083984 0.391876 0.003662
0.193268 0.397583 0.002899
0.287262 0.398834 0.002411
0.382507 0.404907 0.000244
0.469055 0.420868 0.000000
0.527863 0.421234 0.001892
0.588257 0.418823 0.002014
0.638367 0.417328 0.000641
0.689819 0.422363 0.000000
0.724243 0.421753 0.000885
0.768646 0.421875 0.006317
0.810883 0.428955 0.002411
0.843781 0.432373 0.002411
0.880707 0.440460 0.003418
0.902344 0.447418 0.000000
0.928040 0.454010 0.004822
0.959534 0.464264 0.000641
0.981293 0.475250 0.000000
0.998474 0.486755 0.002777
0.997833 0.496002 0.001526
0.997711 0.506256 0.000122
0.998474 0.518280 0.001526
0.002289 0.411499 0.000000
0.002411 0.411377 0.000000
0.003937 0.409851 0.000000
0.003296 0.413116 0.000000
0.000519 0.414276 0.000519
0.003296 0.416687 0.002289
0.000000 0.424011 0.004547
0.000000 0.425781 0.000000
0.005310 0.427795 0.002289
0.004547 0.437805 0.002289
0.009857 0.439697 0.000763
0.157074 0.453125 0.009125
0.270569 0.442993 0.001526
0.367706 0.451355 0.000000
0.460052 0.458801 0.001770
0.542542 0.468414 0.005554
0.593323 0.468292 0.002655
0.646332 0.470428 0.003296
0.698669 0.467041 0.000000
0.742310 0.467804 0.000000
0.777130 0.468658 0.002533
0.814301 0.471344 0.002289
0.845947 0.475372 0.000000
0.878052 0.477539 0.004913
0.902466 0.481842 0.002533
0.931824 0.490448 0.001648
0.960541 0.498413 0.005585
0.984436 0.508026 0.000000
0.997986 0.517883 0.003662
1.000000 0.526001 0.000000
1.000000 0.534088 0.004303
1.000000 0.543823 0.002289
0.001770 0.465515 0.002167
0.001648 0.465393 0.002167
0.001526 0.465759 0.002167
0.003143 0.466888 0.002167
0.001770 0.467651 0.000000
0.000000 0.471191 0.000000
0.000000 0.477020 0.002167
0.000000 0.479034 0.000000
0.003784 0.483612 0.002014
0.002777 0.488403 0.000641
0.004303 0.490814 0.000000
0.126984 0.492188 0.006470
0.256012 0.496887 0.000000
0.356201 0.498535 0.002167
0.433746 0.494720 0.003937
0.525726 0.505493 0.000000
0.611664 0.516602 0.003937
0.655670 0.512573 0.001770
0.705017 0.515839 0.001648
0.743835 0.514709 0.000000
0.780518 0.516479 0.002533
0.815948 0.516479 0.000000
0.849976 0.518646 0.005066
0.880463 0.518250 0.000000
0.906281 0.523834 0.000000
0.932465 0.525482 0.000000
0.960419 0.531311 0.000000
0.982788 0.539886 0.001648
0.997864 0.543945 0.004303
0.998108 0.555847 0.000000
1.000000 0.562042 0.000000
1.000000 0.569611 0.000000
0.000000 0.515228 0.002014
0.000000 0.517365 0.004059
0.000000 0.517242 0.004059
0.000000 0.520782 0.000000
0.000000 0.523193 0.002014
0.000000 0.523193 0.002014
0.000000 0.524963 0.001892
0.001892 0.531158 0.000000
0.004059 0.528137 0.000000
0.002258 0.538513 0.002014
0.004700 0.534973 0.002533
0.072937 0.537994 0.000000
0.239441 0.540009 0.000000
0.343536 0.542664 0.000000
0.427795 0.542816 0.000000
0.511292 0.540771 0.001892
0.587158 0.550903 0.000122
0.661743 0.562408 0.007721
0.707794 0.558502 0.000000
0.751556 0.558502 0.000000
0.783173 0.558990 0.001892
0.824280 0.560394 0.000000
0.851105 0.557495 0.003937
0.880219 0.559357 0.000000
0.902344 0.558502 0.000000
0.932831 0.564453 0.001282
0.959167 0.566956 0.001404
0.981415 0.569763 0.003418
0.995941 0.578094 0.004181
1.000000 0.583801 0.000000
1.000000 0.591888 0.002014
0.998108 0.599731 0.000000
0.000000 0.559296 0.022034
0.000000 0.561188 0.023926
0.000000 0.561432 0.023926
0.000000 0.565491 0.016083
0.002411 0.565613 0.022278
0.003937 0.569031 0.018738
0.000000 0.572937 0.014069
0.000885 0.572052 0.010132
0.004028 0.577759 0.006836
0.003784 0.576996 0.001770
0.005035 0.581573 0.001892
0.048615 0.586365 0.004181
0.225281 0.583191 0.001526
0.339233 0.586212 0.001892
0.425659 0.586884 0.000000
0.507385 0.582825 0.003784
0.578888 0.582703 0.003937
0.642914 0.588867 0.003540
0.717163 0.600281 0.004913
0.761047 0.601929 0.002258
0.786591 0.602295 0.001404
0.821136 0.599640 0.000000
0.851501 0.600281 0.000000
0.879333 0.597351 0.001007
0.903992 0.597351 0.000885
0.937378 0.601532 0.000000
0.958893 0.602295 0.005310
0.981659 0.604553 0.003296
0.991791 0.609619 0.000000
0.997986 0.615967 0.000000
0.997986 0.619751 0.001770
0.997986 0.627716 0.001892
0.000000 0.606842 0.077423
0.000000 0.606842 0.077423
0.000000 0.606842 0.077423
0.002167 0.611145 0.075684
0.002258 0.611267 0.074005
0.003296 0.612305 0.071503
0.000763 0.613281 0.070740
0.002167 0.614685 0.064301
0.001770 0.619141 0.067719
0.002777 0.622650 0.053284
0.008362 0.625031 0.038239
0.046204 0.626465 0.003540
0.227661 0.624939 0.003296
0.339508 0.626465 0.009216
0.425903 0.624298 0.001770
0.503693 0.622406 0.000000
0.570923 0.626068 0.002289
0.630768 0.626465 0.000000
0.692749 0.628479 0.000122
0.758026 0.646454 0.000000
0.792664 0.639984 0.000000
0.826324 0.638214 0.000000
0.852509 0.636078 0.004944
0.881744 0.639221 0.001007
0.908051 0.632141 0.000885
0.934235 0.634308 0.000763
0.956726 0.638214 0.004303
0.977234 0.641632 0.004303
0.995697 0.643524 0.000000
0.999756 0.642395 0.001526
1.000000 0.645538 0.000244
1.000000 0.655670 0.000000
0.002289 0.648987 0.121857
0.003784 0.650482 0.123352
0.001892 0.648590 0.118164
0.003540 0.652527 0.115265
0.003937 0.652893 0.115631
0.003937 0.652893 0.115631
0.000763 0.655304 0.116394
0.003052 0.657562 0.118683
0.002289 0.659088 0.111603
0.002289 0.662384 0.113373
0.003296 0.665680 0.110443
0.059113 0.667053 0.081268
0.243103 0.664673 0.046997
0.343170 0.662384 0.006744
0.430481 0.665649 0.001648
0.499786 0.662781 0.000000
0.567871 0.662384 0.000000
0.624298 0.664032 0.001648
0.682617 0.658447 0.001648
0.733978 0.664276 0.002411
0.790771 0.675140 0.000000
0.831116 0.672760 0.000000
0.858826 0.673645 0.000000
0.882874 0.670227 0.001251
0.910187 0.670990 0.003052
0.937256 0.667938 0.004791
0.958252 0.670227 0.004944
0.978882 0.674133 0.005066
0.995972 0.675415 0.000000
0.998108 0.673492 0.002289
0.996857 0.679596 0.010132
0.993805 0.683624 0.004547
0.002411 0.685638 0.167389
0.001648 0.686676 0.167511
0.001526 0.687042 0.167633
0.001526 0.691345 0.165741
0.000000 0.691101 0.164093
0.004547 0.691101 0.162567
0.003021 0.691223 0.164825
0.003296 0.691101 0.161957
0.004303 0.693878 0.165619
0.003021 0.697174 0.168793
0.000000 0.703491 0.167511
0.123566 0.701569 0.156647
0.269440 0.698944 0.131744
0.359253 0.702240 0.113251
0.433746 0.700073 0.070160
0.503448 0.698822 0.020538
0.564362 0.698303 0.002014
0.622284 0.699829 0.000000
0.680359 0.694397 0.000000
0.723358 0.698303 0.000000
0.772552 0.696167 0.001404
0.823669 0.709167 0.000000
0.860992 0.709930 0.002777
0.887665 0.703735 0.000000
0.908661 0.706787 0.000885
0.934998 0.700592 0.000000
0.956238 0.703735 0.000000
0.981781 0.703735 0.002533
0.997589 0.704254 0.001129
0.998749 0.701080 0.001526
0.996063 0.706146 0.004944
0.997589 0.709167 0.000000
0.000000 0.727783 0.212677
0.001404 0.723846 0.215210
0.002533 0.726135 0.216095
0.002533 0.725250 0.215210
0.001404 0.725250 0.219360
0.004547 0.727264 0.215302
0.002533 0.728546 0.216980
0.001648 0.730316 0.215210
0.002014 0.730316 0.215973
0.006714 0.729187 0.220520
0.040405 0.731842 0.216339
0.193542 0.731689 0.216339
0.300293 0.732727 0.205597
0.381775 0.729431 0.186249
0.446655 0.733459 0.157532
0.510651 0.730438 0.134521
0.566620 0.731201 0.095306
0.617981 0.733093 0.031647
0.676178 0.727539 0.002777
0.717651 0.729156 0.000000
0.766998 0.727783 0.002533
0.808350 0.731689 0.001404
0.854523 0.738403 0.001404
0.887177 0.739532 0.000000
0.907410 0.738647 0.002655
0.932312 0.737000 0.000000
0.953186 0.733093 0.000763
0.976837 0.732574 0.000519
0.996704 0.736633 0.002533
1.000000 0.733337 0.002533
1.000000 0.734467 0.002533
0.998596 0.739532 0.000000
0.000000 0.756989 0.264282
0.003937 0.759644 0.268188
0.000000 0.755737 0.264282
0.005188 0.758392 0.264404
0.002655 0.762177 0.265686
0.003296 0.759644 0.265045
0.001251 0.763062 0.268188
0.000000 0.762817 0.266937
0.000000 0.763184 0.264008
0.028290 0.761322 0.265411
0.160065 0.759796 0.269867
0.260101 0.763580 0.266937
0.331177 0.762054 0.263153
0.406677 0.763580 0.253296
0.464752 0.761810 0.230408
0.520538 0.760406 0.214447
0.571198 0.761536 0.189148
0.622528 0.764832 0.161682
0.672516 0.757385 0.119446
0.717529 0.760925 0.073425
0.756500 0.758270 0.017853
0.798859 0.758392 0.000000
0.835052 0.762451 0.000122
0.877930 0.767120 0.000000
0.905365 0.767883 0.003540
0.933960 0.767487 0.002655
0.953064 0.764221 0.000641
0.971802 0.763580 0.000763
0.994293 0.760529 0.000000
1.000000 0.760925 0.000000
0.997345 0.763458 0.001251
0.994812 0.764832 0.000000
0.000000 0.788757 0.322601
0.000122 0.787598 0.315887
0.000244 0.785065 0.313354
0.002777 0.788757 0.317017
0.003937 0.784821 0.321472
0.004425 0.788757 0.317017
0.001129 0.787598 0.321472
0.002258 0.788757 0.314758
0.038177 0.793304 0.326111
0.158386 0.789886 0.318054
0.255035 0.789612 0.316895
0.316620 0.791534 0.315887
0.378998 0.791779 0.326752
0.428833 0.794312 0.313110
0.481934 0.790405 0.306152
0.536469 0.789642 0.283264
0.584351 0.788757 0.268951
0.624695 0.790894 0.243896
0.673004 0.787598 0.214294
0.711212 0.788757 0.187744
0.754730 0.787598 0.153198
0.793701 0.788757 0.100861
0.826813 0.788757 0.019501
0.860992 0.786102 0.000122
0.900696 0.793793 0.000000
0.933838 0.794312 0.000000
0.959381 0.795441 0.003296
0.975586 0.788757 0.000000
0.997223 0.791534 0.000366
1.000000 0.787598 0.000000
1.000000 0.788635 0.001129
1.000000 0.792664 0.000000
0.000000 0.814667 0.368378
0.000000 0.813660 0.368378
0.001007 0.812653 0.368378
0.003937 0.815582 0.371307
0.012665 0.811127 0.370026
0.000000 0.814301 0.376862
0.023773 0.813171 0.365234
0.113770 0.817596 0.362579
0.205719 0.816711 0.366608
0.259583 0.817841 0.371307
0.319794 0.813660 0.361664
0.363800 0.817719 0.372925
0.411896 0.820892 0.376862
0.459076 0.817841 0.375610
0.501953 0.818359 0.359924
0.549530 0.816589 0.343964
0.592560 0.819611 0.335999
0.632294 0.817596 0.317017
0.676422 0.812653 0.297150
0.710083 0.817078 0.278687
0.742584 0.809753 0.247955
0.786591 0.812653 0.220367
0.818726 0.811646 0.175964
0.843140 0.809753 0.129944
0.887909 0.813812 0.043793
0.921051 0.819733 0.001007
0.948883 0.821136 0.010132
0.974945 0.820007 0.000000
0.985565 0.817200 0.000000
0.998993 0.816589 0.000000
0.995056 0.812653 0.000000
1.000000 0.809753 0.000000
0.003052 0.832642 0.423431
0.006195 0.839478 0.421021
0.035187 0.838715 0.417084
0.080505 0.839600 0.414795
0.114929 0.837952 0.409241
0.162476 0.836578 0.411652
0.222168 0.837463 0.419739
0.263031 0.839203 0.421265
0.299438 0.842377 0.416321
0.339020 0.840240 0.414307
0.378754 0.841370 0.419495
0.417084 0.843018 0.416595
0.455017 0.842896 0.429749
0.490936 0.842133 0.426819
0.527252 0.844025 0.423431
0.557617 0.840607 0.409637
0.604309 0.839600 0.392792
0.639099 0.841766 0.381653
0.675781 0.839600 0.363434
0.703735 0.843536 0.348267
0.748260 0.840485 0.327637
0.780151 0.836182 0.304382
0.812775 0.836578 0.274902
0.843018 0.837463 0.253143
0.873627 0.839600 0.202942
0.907654 0.835815 0.152344
0.942322 0.841614 0.053528
0.974945 0.844269 0.000366
0.988373 0.843536 0.000000
1.000000 0.839600 0.000000
1.000000 0.836578 0.000763
0.995209 0.839600 0.000885
0.216217 0.857300 0.460602
0.229004 0.857422 0.464417
0.244171 0.857574 0.462372
0.258850 0.857697 0.465668
0.277191 0.857300 0.466553
0.297791 0.859070 0.465912
0.326508 0.862885 0.467682
0.348022 0.862122 0.466034
0.385834 0.857941 0.473114
0.407471 0.863129 0.468445
0.434021 0.860840 0.462738
0.468689 0.861847 0.470337
0.493347 0.865295 0.469330
0.525848 0.866028 0.466156
0.556976 0.864380 0.471375
0.581909 0.866943 0.465942
0.614563 0.864380 0.452393
0.642761 0.865417 0.438965
0.685272 0.859711 0.433899
0.710083 0.860474 0.412659
0.743469 0.862000 0.395844
0.779266 0.861237 0.371033
0.809998 0.857300 0.351196
0.846680 0.863892 0.327026
0.860992 0.858063 0.290833
0.898163 0.862885 0.259857
0.927643 0.860474 0.210266
0.957611 0.864136 0.171692
0.987488 0.864777 0.105804
0.999237 0.864655 0.079865
0.998596 0.863770 0.050629
0.999237 0.858063 0.028473
0.347382 0.876526 0.509308
0.353210 0.884369 0.510559
0.353699 0.882874 0.509308
0.364960 0.884369 0.513855
0.371155 0.880585 0.514496
0.386475 0.881104 0.511200
0.410248 0.880463 0.509949
0.425323 0.881989 0.506897
0.443390 0.879822 0.514496
0.470581 0.879333 0.515625
0.490326 0.879822 0.514496
0.514343 0.884491 0.517670
0.535339 0.886169 0.513855
0.560272 0.886658 0.522705
0.587708 0.881104 0.517792
0.612885 0.885651 0.511963
0.635681 0.886902 0.510559
0.662872 0.888306 0.499298
0.693512 0.881104 0.489075
0.725372 0.881104 0.474884
0.743469 0.887543 0.460999
0.770020 0.881714 0.443909
0.800018 0.883881 0.421265
0.829102 0.882111 0.413300
0.855927 0.881104 0.383423
0.890961 0.884369 0.349152
0.921692 0.881104 0.312592
0.947113 0.880707 0.286926
0.976990 0.884247 0.233154
0.995819 0.888672 0.188751
0.999359 0.884888 0.165222
1.000000 0.877808 0.166992
0.426819 0.900452 0.550415
0.430878 0.896637 0.550537
0.441498 0.900452 0.554352
0.449341 0.900940 0.558258
0.444519 0.900940 0.553833
0.467316 0.900452 0.556610
0.478577 0.898285 0.552185
0.490448 0.901337 0.564972
0.499542 0.899048 0.555237
0.519684 0.900452 0.554199
0.542572 0.904358 0.561157
0.562439 0.903473 0.562683
0.575958 0.901855 0.561066
0.594696 0.903107 0.555969
0.614288 0.900940 0.560547
