assets/luts/Presetpro - Stylish.cube
#Created by: Adobe Photoshop Export Color Lookup Plugin
#Copyright: (C) Copyright 2022 Tim Martin and Presetpro.com
TITLE "Presetpro - Stylish.jpg"
#LUT size
LUT_3D_SIZE 5
#data domain
#LUT data points
DOMAIN_MIN 0.000000 0.000000 0.000000
DOMAIN_MAX 0.903226 0.903226 0.903226
0.000000 0.000000 0.000000
0.063629 0.007843 0.003052
0.316498 0.000000 0.000000
0.686554 0.000000 0.000000
0.978119 0.003540 0.003540
0.000000 0.069305 0.019623
0.063629 0.082855 0.010895
0.434143 0.049713 0.000885
0.753571 0.000000 0.000000
0.994934 0.048553 0.001770
0.004303 0.422363 0.109039
0.001770 0.411499 0.116364
0.398834 0.457275 0.000000
0.809387 0.490814 0.000000
1.000000 0.518250 0.000366
0.001251 0.738647 0.361053
0.172455 0.737915 0.368530
0.466919 0.716522 0.377502
0.742706 0.750549 0.181915
0.995697 0.765717 0.002655
0.631897 0.912964 0.683990
0.660095 0.912598 0.676544
0.733582 0.906525 0.684753
0.817963 0.910065 0.683990
0.951416 0.925110 0.576599
0.003052 0.000885 0.067169
0.057556 0.008728 0.066284
0.328247 0.000000 0.068420
0.674774 0.000000 0.062347
0.967499 0.000366 0.000885
0.003052 0.087646 0.114227
0.096771 0.104218 0.124725
0.417175 0.045776 0.104614
0.735748 0.001251 0.058441
0.986969 0.015015 0.001251
0.002167 0.450317 0.232758
0.003052 0.457275 0.249329
0.433746 0.479919 0.173035
0.822021 0.502563 0.009735
0.996582 0.509521 0.000885
0.069489 0.747498 0.442383
0.280212 0.746124 0.443756
0.507385 0.731812 0.452515
0.754486 0.750031 0.320923
0.998352 0.765717 0.193420
0.653137 0.917023 0.708801
0.675903 0.913849 0.710052
0.743958 0.907257 0.710052
0.827576 0.906891 0.710571
0.951050 0.924347 0.616211
0.000000 0.001770 0.349640
0.003540 0.003052 0.351410
0.390228 0.000000 0.347870
0.713104 0.000000 0.343445
0.965332 0.001770 0.289429
0.000885 0.067566 0.390991
0.012360 0.088928 0.400208
0.459442 0.119904 0.394531
0.738770 0.018066 0.365692
0.969269 0.003937 0.303833
0.003540 0.484741 0.469055
0.000000 0.504333 0.471191
0.524323 0.536102 0.500793
0.788879 0.499023 0.441956
0.994934 0.485504 0.375305
0.179291 0.770172 0.583160
0.356750 0.772308 0.582794
0.597198 0.764832 0.611115
0.778900 0.765350 0.552307
0.997101 0.772675 0.501312
0.621643 0.924347 0.742828
0.668182 0.922211 0.752289
0.761047 0.918671 0.773193
0.842896 0.909546 0.771912
0.950043 0.928284 0.706116
0.000000 0.000000 0.645935
0.001251 0.000885 0.653381
0.532318 0.001770 0.674774
0.804199 0.001251 0.659088
0.979767 0.107056 0.641632
0.001770 0.042755 0.670868
0.034119 0.031097 0.679199
0.560638 0.151764 0.690460
0.806335 0.252502 0.673889
0.977997 0.311829 0.654266
0.002167 0.370483 0.676422
0.001251 0.381897 0.682098
0.530029 0.490814 0.719055
0.807098 0.577087 0.717407
0.967865 0.538635 0.668579
0.000000 0.773956 0.743958
0.060608 0.774841 0.751953
0.547119 0.779266 0.753571
0.827576 0.798859 0.779144
0.973053 0.760559 0.711700
0.605194 0.936493 0.832001
0.647308 0.934845 0.828979
0.743561 0.932587 0.830994
0.858826 0.924744 0.849457
0.947388 0.929535 0.812897
0.162201 0.000000 0.903595
0.382294 0.000000 0.909180
0.680054 0.003540 0.907898
0.898682 0.396606 0.902100
0.992920 0.424408 0.881592
0.130707 0.000000 0.910431
0.369904 0.002655 0.909180
0.677399 0.153809 0.914368
0.885132 0.494507 0.904236
0.998749 0.513977 0.890686
0.000366 0.318268 0.908295
0.016357 0.350891 0.903107
0.601379 0.460815 0.911835
0.870331 0.643402 0.908295
0.992157 0.672974 0.894745
0.000366 0.709564 0.909943
0.001770 0.704376 0.907898
0.085815 0.670868 0.903992
0.806702 0.758759 0.918274
0.968231 0.822784 0.913849
0.365601 0.940430 0.935730
0.448700 0.933838 0.933197
0.631226 0.931580 0.932587
0.811523 0.933472 0.933960
0.957245 0.952179 0.944733
