assets/luts/Presetpro - Moody Stock.cube
#Created by: Adobe Photoshop Export Color Lookup Plugin
#Copyright: (C) Copyright 2023 Tim Martin and Presetpro.com
TITLE "Moody Stock.jpg"
#LUT size
LUT_3D_SIZE 8
#data domain
#LUT data points
DOMAIN_MIN 0.000000 0.000000 0.000000
DOMAIN_MAX 0.903226 0.903226 0.903226
0.109802 0.113739 0.121582
0.113739 0.113739 0.120544
0.184418 0.117645 0.116638
0.309540 0.127014 0.113739
0.476929 0.135376 0.103973
0.661102 0.145111 0.094116
0.811279 0.191284 0.078430
0.928650 0.246307 0.077667
0.106384 0.129913 0.122070
0.121582 0.130920 0.117645
0.218201 0.150543 0.121582
0.340393 0.162292 0.108795
0.506775 0.170654 0.108154
0.673004 0.195190 0.082367
0.812286 0.231995 0.072235
0.929657 0.282104 0.061859
0.092224 0.198090 0.131439
0.119171 0.202026 0.126495
0.203033 0.227570 0.114746
0.368347 0.259460 0.085266
0.566101 0.273743 0.054779
0.719421 0.294250 0.025818
0.835815 0.320801 0.011658
0.944977 0.352692 0.011902
0.084747 0.333069 0.166229
0.136749 0.330536 0.174561
0.204041 0.348236 0.158752
0.347229 0.376831 0.115234
0.566498 0.431091 0.000000
0.740448 0.444397 0.000000
0.869446 0.444397 0.003296
0.959137 0.457550 0.001526
0.082367 0.508179 0.215698
0.146240 0.506287 0.216339
0.238312 0.504242 0.212769
0.357117 0.526764 0.170288
0.519806 0.557129 0.082367
0.711945 0.600403 0.002014
0.855164 0.599243 0.000000
0.968262 0.579132 0.000366
0.228119 0.662506 0.307037
0.254272 0.665039 0.304749
0.328400 0.657196 0.323853
0.398865 0.670349 0.284515
0.513489 0.684143 0.233673
0.653259 0.700317 0.135620
0.825317 0.721832 0.001404
0.944733 0.710327 0.000366
0.425201 0.777740 0.461365
0.441742 0.778625 0.460083
0.469086 0.776855 0.460205
0.520447 0.771423 0.467712
0.570038 0.780640 0.427094
0.657318 0.790375 0.374725
0.762054 0.801270 0.283997
0.911316 0.816437 0.123871
0.610260 0.846680 0.633789
0.620880 0.850220 0.647949
0.631134 0.854156 0.641998
0.659332 0.848328 0.647339
0.687286 0.849854 0.640869
0.718658 0.856293 0.605560
0.778259 0.868958 0.562561
0.857300 0.873383 0.490723
0.111206 0.117157 0.137268
0.122070 0.117157 0.141174
0.200104 0.105896 0.137268
0.319275 0.121063 0.144592
0.480713 0.131439 0.155853
0.662506 0.149658 0.149902
0.806458 0.190399 0.144073
0.925232 0.249847 0.143188
0.098053 0.137756 0.142181
0.134338 0.138275 0.147125
0.214783 0.149536 0.153442
0.340912 0.155457 0.154449
0.511230 0.173553 0.151031
0.679321 0.191772 0.146118
0.811005 0.232391 0.147003
0.939026 0.282471 0.141541
0.114746 0.220245 0.174561
0.136353 0.214783 0.167725
0.206940 0.238312 0.148132
0.388977 0.256531 0.131927
0.571442 0.269318 0.128387
0.717010 0.289795 0.122589
0.834045 0.317261 0.110291
0.941040 0.355957 0.115234
0.106903 0.350281 0.204559
0.158264 0.353180 0.212769
0.221741 0.356079 0.203430
0.357086 0.389496 0.158875
0.575348 0.433624 0.083496
0.748901 0.438568 0.031860
0.866028 0.445404 0.029724
0.963562 0.457916 0.057434
0.126129 0.522461 0.259460
0.178619 0.522461 0.258453
0.268311 0.511597 0.268188
0.364441 0.535126 0.218994
0.524231 0.563202 0.151184
0.712982 0.603943 0.002533
0.858185 0.598511 0.000000
0.974823 0.576630 0.000000
0.266174 0.672882 0.348785
0.290710 0.672882 0.349915
0.347382 0.667053 0.350677
0.427063 0.669098 0.338165
0.522705 0.688568 0.283478
0.661102 0.703735 0.199249
0.830231 0.727783 0.016937
0.944458 0.709564 0.005035
0.447693 0.781677 0.487671
0.454529 0.784576 0.488800
0.489319 0.773193 0.492737
0.531189 0.773315 0.495636
0.578888 0.783569 0.463379
0.657318 0.792908 0.412415
0.765594 0.798737 0.328522
0.914368 0.816315 0.192169
0.621246 0.850616 0.649078
0.626068 0.850739 0.649597
0.640350 0.854004 0.656433
0.664001 0.847687 0.658325
0.689575 0.850616 0.653015
0.725891 0.860229 0.621765
0.778381 0.865906 0.576233
0.860229 0.873383 0.514740
0.091217 0.113739 0.219727
0.135864 0.110321 0.223145
0.222626 0.106903 0.227570
0.351166 0.098053 0.225677
0.520966 0.057678 0.217834
0.683746 0.066589 0.226685
0.795593 0.202148 0.253265
0.920441 0.266541 0.266022
0.076416 0.147125 0.229095
0.131439 0.149017 0.234406
0.232513 0.154968 0.237427
0.368347 0.152435 0.233887
0.536499 0.127014 0.220367
0.675903 0.187500 0.256042
0.803925 0.239471 0.260468
0.925995 0.291962 0.266144
0.082367 0.235413 0.237305
0.141174 0.246155 0.244781
0.251099 0.252106 0.259949
0.394806 0.259460 0.260834
0.556122 0.270844 0.251099
0.710052 0.291321 0.246674
0.829865 0.320801 0.244263
0.937653 0.360138 0.252106
0.147125 0.385071 0.295258
0.203522 0.386078 0.298676
0.274231 0.390869 0.295746
0.390381 0.414398 0.263885
0.606720 0.436035 0.234894
0.755615 0.431610 0.221100
0.863129 0.442993 0.224152
0.954712 0.461609 0.235931
0.210114 0.556244 0.349274
0.245422 0.552338 0.349915
0.322845 0.548401 0.349396
0.413025 0.548920 0.336487
0.546387 0.578766 0.276794
0.731934 0.603668 0.219727
0.865906 0.593445 0.207825
0.971405 0.576752 0.203522
0.342560 0.688568 0.435547
0.366089 0.685638 0.432648
0.409119 0.686035 0.434296
0.469818 0.673370 0.433655
0.550659 0.692108 0.386719
0.667419 0.710693 0.329041
0.826813 0.726898 0.243500
0.948273 0.709167 0.235168
0.487793 0.785583 0.545471
0.502472 0.783569 0.546631
0.518036 0.781677 0.547241
0.564850 0.784180 0.549774
0.605194 0.779633 0.527008
0.670471 0.792542 0.486420
0.773834 0.800140 0.416199
0.912079 0.813538 0.321198
0.637695 0.857056 0.682465
0.647186 0.854156 0.681458
0.661865 0.850220 0.684387
0.683502 0.852264 0.685516
0.705902 0.852264 0.688934
0.737122 0.857941 0.657684
0.786469 0.866302 0.620239
0.861603 0.871613 0.570526
0.054291 0.117645 0.356598
0.137756 0.113739 0.363434
0.256531 0.109802 0.362549
0.400360 0.100433 0.381653
0.558167 0.063751 0.376709
0.738647 0.005432 0.364929
0.851990 0.051971 0.349396
0.942688 0.200409 0.355713
0.008240 0.157379 0.376190
0.124084 0.160278 0.374695
0.263885 0.161804 0.383026
0.415039 0.158386 0.389984
0.572815 0.141174 0.383545
0.738525 0.131042 0.374664
0.849854 0.161041 0.354706
0.936493 0.281219 0.376221
0.002014 0.268311 0.383545
0.066925 0.260468 0.389374
0.252625 0.263885 0.398346
0.428314 0.274628 0.408081
0.599365 0.277649 0.403656
0.731689 0.278809 0.381653
0.830872 0.329163 0.388092
0.912598 0.407715 0.422882
0.000000 0.413025 0.409088
0.136749 0.422363 0.416443
0.283478 0.430725 0.421875
0.445892 0.441986 0.434143
0.609497 0.444000 0.428192
0.731689 0.456146 0.419464
0.836823 0.470947 0.417816
0.928650 0.495514 0.413025
0.274536 0.586243 0.467926
0.316650 0.587616 0.473389
0.409241 0.587616 0.481842
0.486664 0.585571 0.483215
0.577728 0.599884 0.445038
0.741943 0.610016 0.419098
0.865540 0.596863 0.411987
0.951172 0.593414 0.416412
0.447968 0.709564 0.554352
0.469452 0.711578 0.553833
0.487549 0.708527 0.547363
0.533051 0.700836 0.552307
0.586975 0.701721 0.532196
0.687286 0.718414 0.484619
0.836578 0.728149 0.435272
0.944214 0.708160 0.420868
0.548523 0.794312 0.626312
0.563812 0.790894 0.629852
0.575592 0.791779 0.627838
0.608215 0.787994 0.629364
0.643402 0.781677 0.621124
0.693878 0.794434 0.582031
0.787994 0.802795 0.536743
0.912964 0.812408 0.467529
0.671844 0.856171 0.722076
0.673126 0.854523 0.722076
0.687531 0.857056 0.727905
0.702850 0.853638 0.717499
0.730164 0.851746 0.721802
0.754852 0.859589 0.710297
0.796082 0.867554 0.684387
0.866302 0.869843 0.636047
0.001892 0.119690 0.529938
0.129028 0.122589 0.532715
0.287415 0.114746 0.536652
0.457184 0.103973 0.552826
0.615967 0.080444 0.561066
0.737000 0.085022 0.538910
0.875916 0.173065 0.523865
0.962433 0.266174 0.510712
0.000519 0.169281 0.541962
0.114868 0.171661 0.542450
0.285645 0.170654 0.545502
0.467804 0.168243 0.559143
0.626343 0.164978 0.575867
0.742310 0.181030 0.552185
0.879822 0.247070 0.539673
0.959137 0.316650 0.517151
0.003937 0.284485 0.555084
0.005920 0.275116 0.556610
0.264740 0.278564 0.563049
0.465759 0.290436 0.574341
0.627716 0.310059 0.580658
0.747009 0.332184 0.560181
0.865906 0.378754 0.542450
0.946503 0.410248 0.535614
0.003418 0.440460 0.562195
0.000519 0.442871 0.571442
0.234558 0.442352 0.569916
0.459961 0.448303 0.586609
0.623810 0.483612 0.598755
0.748383 0.500824 0.584198
0.839996 0.505371 0.570801
0.923340 0.519409 0.557739
0.190674 0.604309 0.582550
0.262268 0.602295 0.594818
0.374847 0.611023 0.595459
0.502350 0.619507 0.608124
0.627716 0.627716 0.623932
0.730560 0.626343 0.608612
0.824524 0.623810 0.594452
0.916504 0.625824 0.586243
0.461243 0.735992 0.648468
0.490356 0.728790 0.647461
0.531677 0.730164 0.652130
0.597473 0.725739 0.659088
0.644562 0.722198 0.651001
0.714355 0.729156 0.625824
0.833160 0.733734 0.597504
0.936249 0.713867 0.585724
0.608215 0.798218 0.705505
0.613922 0.805939 0.712982
0.641754 0.800140 0.711212
0.664520 0.798737 0.713989
0.690582 0.794312 0.702362
0.719666 0.800140 0.688934
0.797211 0.803162 0.652405
0.908020 0.810638 0.612671
0.713104 0.865906 0.770782
0.711578 0.859833 0.773071
0.713989 0.863007 0.772064
0.727142 0.862976 0.767395
0.754333 0.858063 0.766876
0.781677 0.857697 0.768890
0.810638 0.866425 0.743591
0.877289 0.871338 0.704895
0.000000 0.142578 0.684631
0.149139 0.142334 0.686676
0.313477 0.137390 0.692627
0.474731 0.138763 0.697906
0.638092 0.158142 0.710846
0.780151 0.189148 0.721069
0.865417 0.235168 0.686279
0.961426 0.353333 0.666412
0.003052 0.188751 0.697052
0.135864 0.190887 0.694885
0.311951 0.195709 0.696899
0.481567 0.197723 0.706787
0.638458 0.225830 0.715149
0.774200 0.259216 0.723846
0.861115 0.301453 0.691589
0.956360 0.401520 0.676666
0.000000 0.292847 0.698669
0.063385 0.291321 0.696014
0.296631 0.300323 0.696777
0.478149 0.314972 0.714478
0.638977 0.354706 0.718536
0.768372 0.389130 0.726257
0.853638 0.423401 0.697296
0.946228 0.492615 0.688934
0.003418 0.449829 0.696411
0.061920 0.452972 0.699432
0.310547 0.459564 0.713989
0.472992 0.471466 0.713593
0.630127 0.503723 0.725769
0.755096 0.533722 0.730682
0.844269 0.554443 0.712585
0.932312 0.595306 0.701965
0.136810 0.610138 0.710693
0.211029 0.607605 0.713348
0.337646 0.611664 0.705902
0.464874 0.610138 0.713593
0.619751 0.628357 0.729309
0.746887 0.656830 0.741058
0.836182 0.669342 0.733612
0.909546 0.669464 0.715637
0.414948 0.737000 0.738159
0.441254 0.740936 0.729156
0.494385 0.735474 0.732574
0.571533 0.741058 0.737122
0.660614 0.744995 0.745605
0.752686 0.752686 0.760529
0.825684 0.744354 0.746002
0.897278 0.738525 0.726379
0.628357 0.817322 0.770782
0.641113 0.814789 0.775574
0.661224 0.817841 0.781158
0.698792 0.816437 0.785065
0.736633 0.813416 0.788483
0.768005 0.809113 0.776733
0.812775 0.812531 0.756226
0.913361 0.811523 0.733978
0.725739 0.866913 0.817841
0.733215 0.871368 0.816437
0.744720 0.867432 0.818604
0.763947 0.865906 0.820740
0.785065 0.866302 0.817841
0.807861 0.863007 0.820374
0.830994 0.865540 0.805573
0.880585 0.874756 0.783325
0.140686 0.189514 0.816071
0.218964 0.188995 0.809631
0.348267 0.196472 0.814056
0.495361 0.212158 0.816071
0.636566 0.248474 0.821747
0.770142 0.327026 0.831757
0.871857 0.372040 0.826569
0.940918 0.412415 0.800903
0.141174 0.239349 0.816956
0.224426 0.244019 0.815582
0.357758 0.246429 0.817963
0.498138 0.263489 0.816833
0.636444 0.301971 0.825684
0.766998 0.373688 0.828491
0.872223 0.419250 0.832123
0.942078 0.449982 0.803802
0.135254 0.334595 0.815948
0.223389 0.334717 0.818115
0.352936 0.348389 0.816833
0.502716 0.371399 0.816071
0.636688 0.409363 0.824799
0.761169 0.469086 0.827332
0.863007 0.505249 0.829468
0.925751 0.529907 0.804047
0.224548 0.482086 0.815186
0.274994 0.485992 0.811523
0.367615 0.478668 0.813416
0.507782 0.502319 0.817596
0.636566 0.531799 0.821259
0.751190 0.578857 0.825317
0.850098 0.604279 0.825684
0.917267 0.622009 0.811523
0.156006 0.606232 0.803040
0.233398 0.608765 0.807220
0.369904 0.615082 0.807983
0.507141 0.627319 0.818359
0.627594 0.639496 0.821625
0.746246 0.672363 0.824921
0.844147 0.695648 0.833649
0.907410 0.706146 0.814423
0.395599 0.732574 0.817841
0.412292 0.733978 0.814941
0.465149 0.732574 0.819733
0.535217 0.733093 0.814423
0.619873 0.732697 0.814545
0.746490 0.742828 0.824799
0.840118 0.766357 0.839966
0.901581 0.773315 0.832520
0.575958 0.817841 0.828735
0.589142 0.815826 0.831757
0.617218 0.816956 0.837585
0.665527 0.818726 0.831360
0.720062 0.820740 0.835541
0.781158 0.819214 0.843536
0.843536 0.826569 0.849213
0.900330 0.817474 0.836060
0.744476 0.880219 0.864014
0.753845 0.873749 0.862488
0.769012 0.874634 0.861481
0.780762 0.879181 0.865417
0.807465 0.874756 0.865540
0.834930 0.874146 0.870209
0.855408 0.869324 0.864655
0.891968 0.873749 0.847565
0.319672 0.300446 0.905518
0.359406 0.307037 0.904755
0.433258 0.320312 0.899048
0.541412 0.352173 0.909058
0.655182 0.394318 0.900574
0.759155 0.462006 0.901581
0.853882 0.537018 0.897278
0.933716 0.562805 0.901581
0.333710 0.344208 0.909180
0.370789 0.355469 0.902100
0.448456 0.365326 0.907776
0.552063 0.388855 0.906006
0.654663 0.432526 0.904114
0.761047 0.491974 0.906891
0.856049 0.558502 0.908813
0.936890 0.586731 0.901581
0.353058 0.429962 0.903748
0.391388 0.434418 0.903229
0.463257 0.445648 0.899048
0.555725 0.470703 0.902588
0.657928 0.508423 0.897797
0.756989 0.555481 0.898682
0.852875 0.610992 0.902466
0.928650 0.628723 0.900208
0.383179 0.540649 0.901215
0.413910 0.543579 0.896759
0.476532 0.555603 0.901215
0.566467 0.571014 0.900696
0.660217 0.597076 0.899689
0.755615 0.631226 0.899811
0.847198 0.670074 0.898804
0.921570 0.685150 0.897278
0.405579 0.644928 0.889832
0.437805 0.648468 0.892365
0.496521 0.652771 0.890839
0.566589 0.657684 0.896759
0.661499 0.675903 0.893860
0.764465 0.699310 0.899170
0.846802 0.726257 0.895752
0.917633 0.737000 0.899689
0.427216 0.735229 0.896271
0.442902 0.731689 0.892365
0.477417 0.734467 0.892975
0.556976 0.736511 0.891205
0.665161 0.744354 0.892487
0.749542 0.759155 0.899811
0.850861 0.777374 0.897797
0.911835 0.790009 0.901215
0.576843 0.817322 0.892487
0.590393 0.817474 0.892975
0.608490 0.816833 0.894897
0.650085 0.818207 0.896637
0.692871 0.817719 0.895264
0.748260 0.815948 0.895386
0.841003 0.821747 0.900055
0.906372 0.838837 0.901581
0.705139 0.881592 0.901947
0.709167 0.884644 0.904755
0.722839 0.881226 0.899048
0.741791 0.883118 0.906647
0.783936 0.881989 0.901581
0.824921 0.884521 0.904877
0.867950 0.888550 0.912079
0.913361 0.885895 0.913361
