assets/luts/Presetpro - Stylish.cube
#Created by: Adobe Photoshop Export Color Lookup Plugin
#Copyright: (C) Copyright 2022 Tim Martin and Presetpro.com
TITLE "Presetpro - Stylish.jpg"
#LUT size
LUT_3D_SIZE 32
#data domain
DOMAIN_MIN 0.0 0.0 0.0
DOMAIN_MAX 1.0 1.0 1.0
#LUT data points
0.000000 0.000000 0.000000
0.000244 0.000000 0.000122
0.007843 0.000000 0.003937
0.015686 0.000000 0.003937
0.023529 0.000000 0.000000
0.036560 0.003937 0.000000
0.044647 0.004669 0.000000
0.063629 0.007843 0.003052
0.072601 0.010742 0.000000
0.103729 0.013428 0.002777
0.134338 0.003937 0.001251
0.178101 0.000000 0.002533
0.216034 0.002411 0.000000
0.268677 0.000000 0.003296
0.316498 0.000000 0.000000
0.374054 0.002014 0.000000
0.425964 0.003937 0.000000
0.483521 0.003937 0.000000
0.539185 0.000000 0.008484
0.593323 0.000000 0.001526
0.642639 0.002533 0.000000
0.686554 0.000000 0.000000
0.727661 0.001129 0.005066
0.772430 0.002899 0.000000
0.819122 0.000000 0.003052
0.862885 0.000763 0.000763
0.899445 0.003937 0.000641
0.935242 0.000000 0.000000
0.978119 0.003540 0.003540
0.996063 0.000000 0.000000
0.996063 0.000000 0.000000
0.996063 0.000000 0.000000
0.003784 0.003937 0.000000
0.003784 0.004059 0.000122
0.007965 0.007843 0.000000
0.011902 0.007965 0.000122
0.027466 0.007965 0.000000
0.039337 0.007965 0.000000
0.048462 0.008606 0.000763
0.067688 0.011780 0.000366
0.078674 0.015808 0.002899
0.114349 0.007965 0.002777
0.142426 0.004059 0.000122
0.181030 0.002533 0.005066
0.222382 0.000000 0.000000
0.273743 0.001526 0.001770
0.324707 0.001770 0.000000
0.381897 0.000000 0.000244
0.435822 0.005676 0.003784
0.493378 0.003784 0.000000
0.540802 0.000000 0.003784
0.594818 0.001526 0.001526
0.641632 0.000122 0.000000
0.686554 0.000000 0.000000
0.738281 0.000000 0.000000
0.782043 0.000122 0.002777
0.820007 0.003784 0.000122
0.862885 0.000763 0.000000
0.899567 0.003784 0.000641
0.939148 0.003937 0.000000
0.978638 0.003418 0.004303
0.995575 0.000366 0.000000
0.999756 0.003662 0.003937
0.999878 0.003784 0.011627
0.000244 0.008087 0.004181
0.003937 0.004425 0.003662
0.004181 0.012024 0.000244
0.011902 0.012024 0.003662
0.024536 0.009094 0.000244
0.035553 0.015930 0.000244
0.045929 0.013275 0.000244
0.074768 0.018982 0.006073
0.086151 0.013031 0.000763
0.119415 0.015045 0.001129
0.146332 0.014679 0.002899
0.191010 0.002533 0.004791
0.224396 0.000000 0.001251
0.282593 0.000000 0.000519
0.340271 0.000000 0.000000
0.391113 0.000244 0.006958
0.440369 0.000000 0.000000
0.495789 0.000000 0.000000
0.547516 0.003662 0.000000
0.598389 0.002167 0.000244
0.645691 0.003662 0.001404
0.695770 0.003662 0.001526
0.743347 0.001129 0.000000
0.780518 0.002655 0.000000
0.826965 0.003052 0.002655
0.866547 0.003662 0.002899
0.904114 0.000244 0.000641
0.946503 0.003418 0.006836
0.979370 0.003540 0.003296
0.995575 0.000244 0.000000
0.999878 0.003784 0.003784
0.996338 0.000244 0.007599
0.000000 0.019623 0.003937
0.007080 0.016052 0.003784
0.007477 0.016449 0.000000
0.011780 0.019623 0.000000
0.016937 0.020477 0.000000
0.029358 0.024170 0.003296
0.053253 0.023529 0.000000
0.075775 0.023010 0.000000
0.094727 0.023895 0.000366
0.124084 0.018097 0.001892
0.157867 0.013916 0.007080
0.195801 0.006439 0.000000
0.247559 0.002411 0.000000
0.296875 0.000000 0.000000
0.344330 0.000366 0.000000
0.402252 0.003540 0.000000
0.455048 0.001892 0.001648
0.504639 0.000000 0.000366
0.557526 0.002014 0.001648
0.612915 0.001526 0.002014
0.654022 0.002533 0.000000
0.700958 0.000000 0.000000
0.746124 0.003937 0.003937
0.787109 0.002899 0.002899
0.825043 0.000000 0.000000
0.867188 0.003540 0.002777
0.908051 0.003540 0.002411
0.943451 0.003418 0.006073
0.979248 0.003540 0.003540
0.995575 0.000244 0.000519
0.996063 0.000000 0.000000
0.996460 0.000366 0.000366
0.003418 0.024536 0.001526
0.003540 0.024933 0.000519
0.004181 0.024780 0.000763
0.004944 0.024536 0.001007
0.013794 0.032379 0.004944
0.030243 0.032013 0.000122
0.053009 0.036316 0.000000
0.076782 0.034912 0.000000
0.113831 0.032379 0.002899
0.137115 0.027832 0.000519
0.179352 0.018860 0.001770
0.215424 0.007324 0.000519
0.263092 0.000000 0.000000
0.316223 0.000000 0.000000
0.365051 0.000000 0.001770
0.418335 0.000000 0.002014
0.471619 0.000519 0.006470
0.519318 0.000000 0.001007
0.569794 0.005188 0.002289
0.615845 0.003418 0.000000
0.667694 0.003418 0.002533
0.712738 0.000000 0.000000
0.758392 0.000519 0.002289
0.798370 0.001526 0.002411
0.829865 0.003937 0.000519
0.874908 0.001251 0.000519
0.915619 0.003418 0.000000
0.953339 0.000519 0.000000
0.983307 0.000519 0.004059
0.996063 0.000000 0.000000
0.996063 0.000000 0.000000
0.996582 0.002533 0.000519
0.000000 0.039856 0.008484
0.000000 0.039856 0.008484
0.000641 0.039856 0.008209
0.000641 0.039856 0.007843
0.006958 0.042999 0.008972
0.032623 0.043762 0.007202
0.056671 0.046936 0.000122
0.077545 0.045044 0.000244
0.114227 0.047943 0.001251
0.152679 0.033783 0.000000
0.190613 0.037964 0.005951
0.237061 0.018097 0.000000
0.287903 0.003052 0.002411
0.330414 0.000641 0.003296
0.380493 0.000641 0.002777
0.436157 0.000000 0.000641
0.483398 0.001892 0.004547
0.539032 0.000000 0.000000
0.585846 0.000000 0.004547
0.637085 0.002136 0.000000
0.681335 0.000000 0.004547
0.722321 0.000641 0.000000
0.763702 0.003296 0.000000
0.802399 0.000000 0.000000
0.842651 0.003052 0.003937
0.885651 0.000000 0.003174
0.920319 0.000000 0.003937
0.959381 0.000641 0.001129
0.992920 0.000641 0.007080
0.996063 0.000000 0.001251
0.996216 0.002655 0.006714
1.000000 0.074249 0.000000
0.003174 0.055664 0.015686
0.000122 0.052368 0.012512
0.004181 0.051727 0.012512
0.008606 0.048584 0.012909
0.012512 0.051727 0.016449
0.028076 0.058197 0.014435
0.048584 0.062744 0.007843
0.073364 0.065765 0.004547
0.115601 0.064758 0.006073
0.155457 0.061462 0.000000
0.194916 0.059082 0.000000
0.252350 0.052734 0.002258
0.310150 0.033630 0.000763
0.351654 0.009979 0.000000
0.405029 0.001770 0.000763
0.457397 0.002014 0.002655
0.506653 0.003174 0.000763
0.556366 0.001770 0.000000
0.603424 0.000763 0.003174
0.649719 0.002411 0.001648
0.692230 0.000763 0.001404
0.736389 0.000000 0.000000
0.777496 0.000763 0.003174
0.811005 0.000763 0.001007
0.852875 0.006195 0.000000
0.889435 0.000000 0.000000
0.926270 0.001251 0.000000
0.959534 0.000763 0.001251
0.988983 0.003174 0.001526
0.999756 0.011993 0.002899
1.000000 0.084351 0.000000
0.997742 0.151917 0.000000
0.000000 0.069305 0.019623
0.000000 0.072357 0.022644
0.000000 0.069305 0.019623
0.003784 0.069824 0.023529
0.018341 0.068939 0.029205
0.023529 0.066284 0.020111
0.039734 0.077789 0.008850
0.063629 0.082855 0.010895
0.112823 0.087921 0.010742
0.152161 0.089813 0.000000
0.207947 0.093719 0.003937
0.259705 0.090179 0.001770
0.317383 0.082458 0.001770
0.381012 0.071350 0.001770
0.434143 0.049713 0.000885
0.482574 0.019592 0.003052
0.533875 0.007202 0.003052
0.580292 0.000000 0.001282
0.625305 0.000885 0.001648
0.665649 0.001526 0.000000
0.712219 0.002533 0.000885
0.753571 0.000000 0.000000
0.786346 0.000885 0.000000
0.822266 0.002899 0.000000
0.863129 0.000000 0.002655
0.902985 0.001648 0.001648
0.935364 0.000000 0.002411
0.967987 0.012360 0.002533
0.994934 0.048553 0.001770
0.999115 0.117493 0.000885
0.995209 0.167969 0.002899
1.000000 0.209229 0.003937
0.001007 0.099182 0.021637
0.003052 0.098297 0.023651
0.000000 0.095245 0.020630
0.000000 0.091339 0.028473
0.003937 0.094238 0.031372
0.015167 0.091064 0.026550
0.036438 0.101562 0.024048
0.060974 0.111694 0.018585
0.095245 0.117767 0.003937
0.147980 0.126862 0.003052
0.202271 0.130554 0.005585
0.260437 0.136993 0.000000
0.320923 0.133972 0.000519
0.385040 0.131561 0.000000
0.448669 0.123962 0.000763
0.504456 0.113068 0.002777
0.559418 0.095367 0.001007
0.606079 0.078278 0.002899
0.652008 0.057404 0.001648
0.689056 0.036407 0.001007
0.723114 0.021729 0.003937
0.763336 0.020844 0.000000
0.802032 0.022095 0.000000
0.840118 0.023102 0.003937
0.872986 0.030304 0.002014
0.909698 0.058533 0.005066
0.940918 0.101562 0.000641
0.970520 0.126862 0.003418
0.996338 0.162292 0.000000
0.998993 0.195038 0.001251
0.998993 0.230103 0.000000
1.000000 0.258057 0.002899
0.000000 0.135101 0.032501
0.002777 0.136230 0.036438
0.000519 0.133179 0.033630
0.001892 0.131927 0.033264
0.000000 0.128387 0.034790
0.000641 0.131165 0.037567
0.012512 0.133972 0.037201
0.042389 0.139893 0.025787
0.081451 0.152802 0.006317
0.125610 0.166473 0.000000
0.194672 0.175323 0.000000
0.260712 0.180756 0.004669
0.321930 0.182922 0.000366
0.384033 0.188354 0.000000
0.452728 0.185547 0.001129
0.512817 0.181274 0.000763
0.578888 0.177704 0.000000
0.625824 0.175049 0.000000
0.669067 0.167084 0.001648
0.706787 0.157990 0.002655
0.745483 0.151154 0.001404
0.778748 0.145447 0.000000
0.815063 0.148621 0.001648
0.851349 0.155945 0.003784
0.878937 0.165680 0.003662
0.916656 0.176453 0.000763
0.944855 0.196564 0.000000
0.978882 0.210846 0.000000
0.994049 0.238190 0.000000
1.000000 0.259308 0.005066
0.997223 0.286407 0.000122
1.000000 0.313843 0.000000
0.002655 0.182770 0.040466
0.001129 0.186829 0.047058
0.000000 0.181396 0.043152
0.000000 0.181396 0.043152
0.000000 0.179626 0.050476
0.000000 0.177460 0.052246
0.000000 0.180115 0.046661
0.014923 0.180634 0.044769
0.063995 0.192383 0.026550
0.111450 0.207458 0.008728
0.174805 0.224518 0.000000
0.245270 0.233765 0.002777
0.317749 0.238953 0.002411
0.384277 0.244141 0.000000
0.450317 0.244629 0.005585
0.515839 0.245392 0.000000
0.575623 0.246643 0.000000
0.633942 0.249329 0.000000
0.683258 0.249573 0.000000
0.725616 0.244385 0.000000
0.759003 0.240082 0.001404
0.796082 0.236145 0.000000
0.828094 0.238800 0.000000
0.864777 0.241577 0.002533
0.895752 0.250580 0.005188
0.928284 0.257660 0.003815
0.956360 0.268280 0.000000
0.984955 0.284851 0.000519
0.998749 0.299530 0.000000
1.000000 0.315216 0.001251
0.999756 0.339142 0.000000
1.000000 0.359253 0.001251
0.000000 0.236023 0.048462
0.002655 0.238434 0.051239
0.001404 0.239716 0.053772
0.005310 0.235779 0.058838
0.002533 0.236298 0.060486
0.000000 0.233368 0.059448
0.000000 0.231873 0.061737
0.003937 0.227936 0.062988
0.036682 0.236786 0.049713
0.086121 0.254883 0.030762
0.152802 0.264496 0.004059
0.231873 0.276398 0.004181
0.304718 0.292206 0.002533
0.375061 0.297394 0.000000
0.446289 0.299164 0.000366
0.513458 0.301819 0.001404
0.569153 0.307251 0.000000
0.631531 0.307373 0.000000
0.685425 0.309143 0.004181
0.733215 0.319519 0.001404
0.772308 0.317230 0.001404
0.808105 0.315826 0.001282
0.841370 0.315582 0.001129
0.877289 0.318756 0.001526
0.906769 0.321411 0.002533
0.934601 0.325470 0.001770
0.962189 0.337250 0.002533
0.990875 0.345581 0.004181
0.999634 0.357208 0.000000
0.993561 0.372284 0.002533
0.997467 0.393402 0.002533
1.000000 0.403015 0.007599
0.001526 0.300812 0.068176
0.000000 0.299774 0.068420
0.000000 0.297119 0.072357
0.005951 0.295624 0.073242
0.004822 0.293976 0.075134
0.002411 0.291168 0.072723
0.000000 0.293701 0.078308
0.000000 0.289032 0.075134
0.006073 0.289917 0.084259
0.068420 0.300812 0.064117
0.141052 0.312439 0.024780
0.206940 0.328003 0.002411
0.282074 0.341522 0.000000
0.358368 0.352539 0.002289
0.433136 0.358978 0.005188
0.500671 0.361511 0.000366
0.565613 0.367859 0.004059
0.622925 0.372253 0.003937
0.678070 0.372772 0.000000
0.729950 0.374695 0.001526
0.775848 0.384186 0.000000
0.819885 0.386200 0.000000
0.854767 0.389740 0.000000
0.885254 0.389587 0.000000
0.917145 0.390106 0.006073
0.947510 0.390991 0.001526
0.972809 0.397949 0.001770
0.996460 0.404266 0.000519
0.998474 0.415283 0.000000
0.996338 0.426025 0.000000
0.999878 0.436401 0.000000
1.000000 0.453125 0.005432
0.000000 0.358215 0.084991
0.000000 0.360504 0.087280
0.002289 0.358215 0.084991
0.002289 0.355957 0.089569
0.002289 0.355957 0.089569
0.002289 0.352661 0.090820
0.000000 0.354309 0.092194
0.000000 0.349487 0.090942
0.003296 0.344818 0.098053
0.042877 0.349365 0.100189
0.121429 0.361786 0.073883
0.192383 0.375946 0.022522
0.256012 0.391754 0.004700
0.334686 0.403656 0.001648
0.418945 0.408203 0.002167
0.492432 0.417572 0.000000
0.556396 0.418457 0.003662
0.611786 0.425537 0.000000
0.668579 0.427185 0.005554
0.723358 0.432739 0.001648
0.771545 0.436646 0.002289
0.815338 0.448425 0.000000
0.855408 0.450195 0.002289
0.894012 0.452332 0.003296
0.926758 0.448425 0.000000
0.953827 0.453125 0.000000
0.976868 0.461853 0.001648
0.996704 0.464233 0.001648
0.995453 0.466125 0.003296
1.000000 0.477661 0.003662
0.999756 0.482452 0.001648
0.996704 0.487000 0.004547
0.004303 0.422363 0.109039
0.002167 0.418060 0.111176
0.000000 0.415894 0.109039
0.002899 0.419464 0.107635
0.002167 0.416290 0.109406
0.002167 0.418060 0.112457
0.000000 0.416290 0.119415
0.001770 0.411499 0.116364
0.000763 0.407684 0.124359
0.018188 0.404022 0.128021
0.112335 0.412750 0.119659
0.178986 0.422363 0.080170
0.249054 0.433502 0.029846
0.319397 0.449188 0.004700
0.398834 0.457275 0.000000
0.472473 0.465759 0.001770
0.547668 0.471588 0.003540
0.603699 0.479034 0.003540
0.657196 0.478302 0.003540
0.708557 0.481567 0.000000
0.762054 0.485504 0.000763
0.809387 0.490814 0.000000
0.850250 0.498535 0.001007
0.892853 0.507629 0.002167
0.928925 0.510803 0.000000
0.960907 0.509644 0.002167
0.982178 0.515869 0.000000
0.998993 0.514221 0.001648
1.000000 0.518250 0.000366
0.997986 0.524078 0.000000
0.995819 0.530151 0.000000
0.997833 0.537872 0.003937
0.001892 0.476013 0.131165
0.000000 0.477905 0.131165
0.000000 0.481964 0.133698
0.000000 0.477905 0.134949
0.003937 0.478027 0.141052
0.001892 0.476013 0.140289
0.001129 0.471191 0.144073
0.000000 0.470062 0.142944
0.003906 0.467163 0.144958
0.006561 0.463104 0.145966
0.107361 0.463593 0.151276
0.173920 0.470184 0.130280
0.239960 0.479156 0.100433
0.306854 0.493469 0.040955
0.376831 0.503204 0.000366
0.446655 0.515228 0.001892
0.522491 0.519409 0.007568
0.591431 0.527130 0.000000
0.653290 0.523438 0.000763
0.702728 0.529022 0.002014
0.751953 0.534088 0.001404
0.802032 0.540283 0.001251
0.842773 0.541656 0.000000
0.887177 0.547729 0.000000
0.915253 0.549774 0.000000
0.954468 0.560883 0.000000
0.987122 0.563812 0.001892
0.999481 0.563293 0.004578
1.000000 0.564301 0.004181
0.998230 0.567963 0.000000
0.998108 0.572144 0.001892
0.997986 0.577972 0.000000
0.007843 0.531830 0.162933
0.001892 0.531982 0.161041
0.000000 0.531708 0.162933
0.003662 0.531464 0.162689
0.000000 0.531708 0.166748
0.003937 0.527924 0.164825
0.004059 0.523254 0.172302
0.002014 0.521698 0.173706
0.002045 0.519073 0.176605
0.006805 0.517792 0.175842
0.109131 0.513641 0.186462
0.191650 0.514252 0.177521
0.240204 0.525391 0.149078
0.307648 0.531708 0.127686
0.371002 0.539276 0.065338
0.435028 0.553070 0.006897
0.502350 0.559143 0.000000
0.568268 0.570923 0.000000
0.635681 0.569031 0.003296
0.694397 0.572571 0.000000
0.742584 0.574860 0.002014
0.790253 0.578888 0.000641
0.838226 0.584717 0.000000
0.878174 0.586731 0.000000
0.911072 0.594452 0.000000
0.944733 0.598755 0.000000
0.979279 0.602173 0.003296
0.998993 0.604706 0.002014
1.000000 0.608246 0.001892
0.996063 0.613800 0.000244
0.999878 0.612305 0.004059
0.998108 0.622040 0.000000
0.000000 0.583710 0.196838
0.000000 0.581818 0.195343
0.000000 0.579773 0.199402
0.000000 0.581543 0.201172
0.000000 0.575989 0.205078
0.002411 0.577637 0.199127
0.000000 0.571930 0.203308
0.002655 0.570679 0.206451
0.000000 0.569794 0.209015
0.016815 0.566498 0.203552
0.129517 0.564209 0.216461
0.209473 0.559784 0.212921
0.261963 0.561066 0.203461
0.312195 0.571442 0.180542
0.377075 0.578613 0.151337
0.425537 0.587250 0.099243
0.494263 0.594971 0.020782
0.554108 0.600769 0.001770
0.621765 0.604706 0.000000
0.685547 0.616211 0.000000
0.740295 0.614319 0.002533
0.780670 0.614319 0.000000
0.824554 0.620392 0.000000
0.870483 0.623291 0.002167
0.905884 0.629883 0.000885
0.943085 0.631775 0.000000
0.973938 0.637207 0.004425
0.998993 0.642151 0.002258
1.000000 0.642151 0.001404
0.997833 0.652771 0.000519
0.995697 0.652252 0.000000
0.998230 0.655670 0.001770
0.002289 0.623169 0.232635
0.003937 0.624817 0.234283
0.000000 0.625458 0.232635
0.000366 0.623169 0.237213
0.002289 0.623169 0.237213
0.001648 0.622528 0.236572
0.000763 0.617706 0.243530
0.003296 0.615326 0.246063
0.000000 0.615051 0.241119
0.055511 0.611420 0.242767
0.171173 0.610382 0.253265
0.235291 0.606079 0.247192
0.284882 0.603424 0.255432
0.335327 0.608490 0.239502
0.380371 0.612671 0.219025
0.427673 0.619629 0.175385
0.494904 0.628723 0.138397
0.548401 0.640228 0.075775
0.611389 0.641144 0.010132
0.667328 0.649109 0.000122
0.725739 0.654785 0.002289
0.774078 0.653534 0.001251
0.821136 0.656189 0.003418
0.864258 0.660736 0.000000
0.895264 0.663910 0.002289
0.935120 0.664795 0.002533
0.963837 0.669586 0.003540
0.994568 0.676422 0.002289
0.998352 0.680084 0.000366
0.995178 0.681976 0.000000
1.000000 0.689697 0.000122
0.997711 0.693115 0.000000
0.003937 0.669342 0.277191
0.001526 0.666931 0.274780
0.000000 0.668457 0.274780
0.002014 0.670471 0.276794
0.000000 0.666931 0.273254
0.000000 0.666046 0.272369
0.000000 0.663025 0.281097
0.000000 0.661499 0.279572
0.019196 0.660614 0.280731
0.133087 0.656067 0.282379
0.208374 0.655548 0.286926
0.273987 0.650269 0.292236
0.321564 0.644287 0.287170
0.362946 0.644165 0.285034
0.407318 0.647339 0.277954
0.445648 0.655029 0.245697
0.498199 0.663757 0.214447
0.548401 0.666046 0.181427
0.601929 0.673004 0.140808
0.655182 0.684143 0.064178
0.708435 0.686554 0.000000
0.764221 0.691711 0.000000
0.809631 0.688812 0.002655
0.854279 0.691986 0.001526
0.892975 0.692596 0.000641
0.928040 0.696655 0.000000
0.962189 0.699188 0.000885
0.986847 0.706787 0.000000
0.997223 0.707275 0.000000
0.995178 0.710571 0.000000
0.997589 0.713867 0.006836
0.997589 0.717010 0.000000
0.002533 0.710693 0.315765
0.000000 0.708160 0.313232
0.000000 0.706787 0.316010
0.002533 0.700317 0.319702
0.002014 0.702850 0.314117
0.003784 0.699707 0.320953
0.000000 0.701477 0.317017
0.036926 0.700592 0.316132
0.136414 0.698944 0.323486
0.211121 0.695007 0.319946
0.267181 0.691101 0.319794
0.311432 0.687164 0.326630
0.358521 0.685669 0.331573
0.395691 0.682098 0.330048
0.431122 0.683258 0.326538
0.466156 0.691101 0.299591
0.506287 0.693634 0.281738
0.552704 0.702484 0.255554
0.604462 0.702606 0.221527
0.654663 0.713348 0.187866
0.701477 0.714630 0.120575
0.750671 0.720062 0.032928
0.802399 0.723358 0.005554
0.848083 0.722839 0.002014
0.881592 0.719940 0.000885
0.920563 0.727020 0.000641
0.951813 0.731689 0.000641
0.978607 0.731689 0.000000
0.998596 0.737000 0.000000
1.000000 0.740936 0.005066
1.000000 0.740936 0.000000
0.998596 0.748779 0.001404
0.001251 0.738647 0.361053
0.001251 0.738647 0.361053
0.000244 0.737640 0.360046
0.002655 0.740051 0.362457
0.004791 0.737396 0.360046
0.030884 0.735992 0.355103
0.094177 0.734344 0.360535
0.172455 0.737915 0.368530
0.231018 0.735107 0.364594
0.275421 0.732452 0.365112
0.318909 0.729675 0.366089
0.358765 0.724243 0.363464
0.395813 0.720428 0.370026
0.427338 0.720428 0.365845
0.466919 0.716522 0.377502
0.495880 0.718536 0.368408
0.533234 0.722321 0.344727
0.570679 0.731689 0.316650
0.611542 0.731812 0.302368
0.647339 0.742188 0.262756
0.701355 0.745117 0.232269
0.742706 0.750549 0.181915
0.795593 0.746368 0.119324
0.833008 0.754486 0.012665
0.873993 0.751801 0.000000
0.911194 0.751068 0.000000
0.946503 0.756378 0.000641
0.982788 0.760406 0.000000
0.995697 0.765717 0.002655
0.997742 0.767761 0.000000
0.996216 0.765961 0.000000
0.997345 0.772675 0.000000
0.044556 0.774200 0.407745
0.062927 0.770782 0.403931
0.083160 0.771027 0.403809
0.111908 0.774323 0.404938
0.159302 0.771912 0.404938
0.187256 0.767365 0.405060
0.230133 0.769135 0.407227
0.267700 0.770020 0.405823
0.305023 0.765869 0.411285
0.333221 0.765228 0.403809
0.370911 0.761169 0.408478
0.406586 0.756226 0.413666
0.441498 0.755859 0.415710
0.467560 0.753448 0.408234
0.493622 0.750153 0.413818
0.527374 0.751312 0.412018
0.553864 0.752319 0.402679
0.584595 0.759033 0.387115
0.625305 0.756226 0.359528
0.659088 0.765594 0.341827
0.698059 0.767761 0.311340
0.744354 0.771912 0.282745
0.783691 0.776978 0.234039
0.820740 0.780792 0.192810
0.870209 0.781921 0.115662
0.901947 0.779755 0.011139
0.939270 0.783691 0.000641
0.975586 0.781525 0.006195
0.996826 0.785583 0.001526
0.995453 0.792419 0.000000
0.994934 0.792664 0.000000
1.000000 0.795441 0.003937
0.221039 0.800903 0.444916
0.230133 0.800903 0.446045
0.242920 0.796478 0.448578
0.260742 0.801392 0.448853
0.277557 0.797485 0.445557
0.295654 0.797363 0.448578
0.320312 0.796967 0.449982
0.343719 0.795074 0.450867
0.371429 0.796967 0.452881
0.393311 0.793060 0.454773
0.429108 0.788116 0.458344
0.449097 0.790649 0.451385
0.482727 0.789520 0.461609
0.507385 0.783569 0.460236
0.534607 0.782440 0.462372
0.561401 0.777374 0.457825
0.588257 0.776337 0.456665
0.609131 0.784454 0.449585
0.638458 0.787476 0.427948
0.669861 0.792542 0.397858
0.709686 0.795593 0.387360
0.746887 0.796967 0.358002
0.783691 0.799744 0.323853
0.819489 0.800903 0.299713
0.858307 0.802917 0.256805
0.891205 0.804565 0.191681
0.932190 0.811005 0.118958
0.962311 0.804810 0.015564
0.991791 0.806458 0.034943
1.000000 0.811646 0.049500
0.996948 0.813660 0.078339
1.000000 0.824432 0.110352
0.333618 0.826965 0.489685
0.334503 0.827850 0.490570
0.340424 0.829742 0.493622
0.346252 0.827332 0.494873
0.367645 0.824799 0.496521
0.376099 0.824799 0.492737
0.397369 0.821625 0.495636
0.418213 0.825684 0.501862
0.434143 0.819855 0.498413
0.459839 0.820618 0.502472
0.481750 0.818726 0.498810
0.507782 0.814178 0.498413
0.527130 0.813904 0.499939
0.548889 0.813904 0.500061
0.574310 0.812531 0.506256
0.591522 0.811127 0.508423
0.619385 0.802155 0.505249
0.640869 0.806061 0.498413
0.666931 0.808350 0.486420
0.692627 0.815430 0.470734
0.724609 0.814789 0.455414
0.750916 0.816956 0.427582
0.784698 0.823425 0.402405
0.820129 0.827850 0.387238
0.851379 0.828735 0.352844
0.893372 0.829620 0.308929
0.925995 0.830231 0.251740
0.955841 0.836182 0.214081
0.991516 0.828857 0.149811
1.000000 0.833282 0.158142
1.000000 0.837311 0.166748
1.000000 0.838318 0.188110
0.423035 0.848694 0.532715
0.427704 0.851868 0.536621
0.428986 0.852386 0.537384
0.435181 0.849854 0.537781
0.440247 0.848694 0.536377
0.452881 0.849335 0.536987
0.466034 0.847198 0.537384
0.484375 0.849579 0.543854
0.495514 0.842896 0.542572
0.518921 0.846069 0.548920
0.534485 0.840851 0.546509
0.554352 0.844788 0.546997
0.574951 0.837067 0.551575
0.592529 0.836945 0.550049
0.617096 0.835175 0.553955
0.630615 0.835052 0.552307
0.653656 0.829865 0.553314
0.670471 0.832001 0.554474
0.689453 0.832275 0.543335
0.710815 0.837708 0.531189
0.739532 0.840118 0.514496
0.761414 0.841614 0.498413
0.790405 0.844788 0.480591
0.822662 0.847961 0.454285
0.851379 0.848694 0.428864
0.879333 0.851868 0.396210
0.915253 0.856049 0.362183
0.946991 0.857300 0.332092
0.979645 0.859711 0.281860
0.996826 0.860718 0.230621
0.993561 0.863007 0.234802
0.999237 0.861237 0.247955
0.492981 0.872620 0.581146
0.503479 0.873260 0.585083
0.508667 0.873260 0.585724
0.513611 0.868439 0.592041
0.516510 0.873260 0.588379
0.525635 0.869324 0.588379
0.534485 0.871979 0.592407
0.548767 0.870850 0.597107
0.556488 0.867676 0.588745
0.579254 0.868073 0.595581
0.583679 0.868683 0.594940
0.604828 0.862885 0.590912
0.622131 0.865662 0.594818
0.633148 0.862488 0.594574
0.656799 0.863007 0.596222
0.669830 0.860352 0.600128
0.685272 0.858185 0.599365
0.702209 0.857574 0.603027
0.725250 0.855927 0.600525
0.744354 0.854279 0.595215
0.755615 0.861481 0.574188
0.779907 0.864136 0.563446
0.803162 0.865906 0.539520
0.828979 0.868317 0.524994
0.854279 0.869324 0.509552
0.886536 0.873108 0.487549
0.911194 0.880463 0.453156
0.940277 0.880585 0.413300
0.968384 0.884003 0.388123
0.998596 0.884369 0.343475
1.000000 0.884369 0.307404
0.999359 0.885651 0.302094
0.567505 0.892609 0.632782
0.569153 0.892975 0.632782
0.572418 0.893097 0.629364
0.577240 0.896149 0.633270
0.581299 0.892609 0.636688
0.588623 0.889191 0.633270
0.593292 0.892090 0.636688
0.604553 0.896027 0.635162
0.611755 0.886780 0.641113
0.630249 0.892609 0.636810
0.635681 0.892609 0.633270
0.647705 0.889191 0.633667
0.662231 0.890594 0.639587
0.677429 0.886902 0.638977
0.691711 0.885254 0.639465
