assets/luts/Presetpro - Vibe.cube
#Created by: Adobe Photoshop Export Color Lookup Plugin
#Copyright: (C) Copyright 2022 Tim Martin and Presetpro.com
TITLE "Presetpro - Vibe.jpg"
#LUT size
LUT_3D_SIZE 8
#data domain
#LUT data points
DOMAIN_MIN 0.000000 0.000000 0.000000
DOMAIN_MAX 0.903226 0.903226 0.903226
0.039215 0.035309 0.019623
0.074524 0.039215 0.019623
0.139282 0.048065 0.022522
0.260071 0.053375 0.018097
0.488831 0.005829 0.000000
0.719940 0.000000 0.000000
0.889709 0.051758 0.000000
1.000000 0.218475 0.000000
0.039215 0.068695 0.034271
0.071594 0.076538 0.020111
0.156464 0.092224 0.022522
0.282593 0.103088 0.009857
0.501099 0.099915 0.004578
0.731323 0.087402 0.005432
0.896149 0.160919 0.000000
0.996582 0.266541 0.003937
0.000000 0.167725 0.027466
0.001007 0.172668 0.028839
0.116760 0.195312 0.001007
0.317871 0.228088 0.002014
0.544739 0.233521 0.000000
0.752441 0.249329 0.002014
0.900330 0.295624 0.002777
0.997467 0.365082 0.000000
0.001526 0.355713 0.002411
0.000000 0.362549 0.000000
0.002411 0.377716 0.002411
0.287262 0.398834 0.002411
0.588257 0.418823 0.002014
0.768646 0.421875 0.006317
0.902344 0.447418 0.000000
0.998474 0.486755 0.002777
0.000000 0.559296 0.022034
0.002411 0.565613 0.022278
0.004028 0.577759 0.006836
0.225281 0.583191 0.001526
0.578888 0.582703 0.003937
0.786591 0.602295 0.001404
0.903992 0.597351 0.000885
0.991791 0.609619 0.000000
0.000000 0.727783 0.212677
0.001404 0.725250 0.219360
0.002014 0.730316 0.215973
0.300293 0.732727 0.205597
0.566620 0.731201 0.095306
0.766998 0.727783 0.002533
0.907410 0.738647 0.002655
0.996704 0.736633 0.002533
0.003052 0.832642 0.423431
0.114929 0.837952 0.409241
0.299438 0.842377 0.416321
0.455017 0.842896 0.429749
0.604309 0.839600 0.392792
0.748260 0.840485 0.327637
0.873627 0.839600 0.202942
0.988373 0.843536 0.000000
0.495392 0.920441 0.586731
0.515137 0.914368 0.597229
0.557739 0.916901 0.604950
0.611389 0.919281 0.594940
0.684265 0.923218 0.610626
0.752197 0.922577 0.569519
0.848846 0.924347 0.513458
0.951813 0.920807 0.427979
0.046539 0.039215 0.059326
0.079437 0.035797 0.051483
0.150024 0.048065 0.052002
0.269928 0.063629 0.054016
0.493134 0.021362 0.052368
0.722961 0.002533 0.006439
0.897797 0.073639 0.002533
1.000000 0.229858 0.003418
0.040222 0.075531 0.063751
0.079956 0.083862 0.060333
0.152557 0.095123 0.060852
0.290039 0.107391 0.055908
0.516296 0.101959 0.036682
0.734222 0.088562 0.002014
0.896545 0.171906 0.001526
1.000000 0.274750 0.003052
0.000000 0.179993 0.076538
0.003418 0.187347 0.076019
0.127625 0.204041 0.052002
0.316620 0.226166 0.012787
0.550568 0.241241 0.000519
0.753845 0.250732 0.002899
0.900818 0.296906 0.003418
0.999634 0.367371 0.005432
0.003418 0.360626 0.114349
0.000000 0.367981 0.084869
0.003418 0.385162 0.068695
0.305359 0.402771 0.003418
0.593201 0.416412 0.001007
0.771423 0.421875 0.004913
0.905640 0.445923 0.001892
0.994934 0.486145 0.001526
0.000000 0.564606 0.154724
0.000000 0.570404 0.144867
0.001007 0.580292 0.141937
0.260803 0.586090 0.082214
0.583710 0.584717 0.000000
0.789886 0.601288 0.000000
0.910065 0.597351 0.000885
0.995941 0.605835 0.001526
0.004791 0.724365 0.285278
0.000000 0.725891 0.284760
0.001007 0.731201 0.286438
0.333954 0.736115 0.283020
0.577362 0.730682 0.212402
0.768372 0.729675 0.038361
0.906128 0.736633 0.000519
0.995453 0.733093 0.002411
0.115936 0.837830 0.455688
0.218109 0.835175 0.456055
0.342712 0.837585 0.450348
0.480072 0.838074 0.458954
0.612305 0.842896 0.439972
0.742828 0.843018 0.383057
0.874146 0.837952 0.280731
0.988220 0.843903 0.139160
0.520172 0.917389 0.611145
0.537262 0.917389 0.616943
0.564178 0.918915 0.623535
0.619110 0.918915 0.621643
0.686279 0.920685 0.623535
0.765228 0.921814 0.594177
0.845673 0.925354 0.543335
0.949005 0.921204 0.460205
0.026428 0.050995 0.149139
0.067688 0.048065 0.145721
0.158875 0.047058 0.142303
0.303314 0.045044 0.142822
0.515259 0.001007 0.151184
0.734100 0.020874 0.173309
0.890442 0.139648 0.173676
0.997101 0.262604 0.173798
0.017578 0.088806 0.159515
0.068573 0.095642 0.161926
0.155579 0.102966 0.161926
0.305725 0.114746 0.156982
0.518677 0.123596 0.170380
0.741058 0.135986 0.182922
0.896545 0.205811 0.173279
1.000000 0.299927 0.169373
0.001007 0.193298 0.176575
0.000000 0.204041 0.178101
0.141296 0.220734 0.179626
0.320526 0.238831 0.185944
0.557526 0.238464 0.182404
0.761688 0.263489 0.166992
0.900330 0.315002 0.157867
0.996338 0.386597 0.160645
0.001007 0.367462 0.228180
0.000000 0.378723 0.235535
0.000000 0.395416 0.230591
0.344055 0.413025 0.191376
0.607727 0.419342 0.151154
0.776855 0.425293 0.129028
0.903748 0.450836 0.117493
0.997589 0.493103 0.122314
0.000000 0.564087 0.321838
0.002045 0.564087 0.322693
0.003052 0.587463 0.299316
0.321655 0.592072 0.291992
0.600403 0.586609 0.221863
0.789520 0.599396 0.149506
0.907135 0.597504 0.084473
0.995819 0.614929 0.051178
0.002899 0.717010 0.432251
0.025513 0.723480 0.428986
0.150299 0.724243 0.399994
0.400116 0.733093 0.404175
0.594086 0.734100 0.368256
0.772308 0.729309 0.293610
0.902740 0.737000 0.218079
0.992401 0.735626 0.164825
0.360901 0.827698 0.538788
0.368134 0.830109 0.530029
0.421631 0.833649 0.529175
0.528656 0.838959 0.531067
0.631653 0.839478 0.529022
0.745850 0.840485 0.476410
0.876526 0.836578 0.406433
0.984589 0.843018 0.326508
0.566223 0.912964 0.656799
0.562683 0.916504 0.647552
0.595428 0.913971 0.655792
0.647552 0.915894 0.660095
0.707550 0.920563 0.661102
0.769012 0.919281 0.644653
0.847687 0.920929 0.601776
0.943207 0.921448 0.532959
0.000000 0.063629 0.312561
0.000000 0.060333 0.321289
0.136749 0.058838 0.314453
0.325836 0.022003 0.331543
0.569153 0.001892 0.310150
0.768524 0.001526 0.322693
0.901703 0.169647 0.346985
0.991394 0.338623 0.404266
0.000000 0.107910 0.330658
0.000519 0.114227 0.334595
0.133972 0.112335 0.331665
0.341034 0.102478 0.338501
0.581940 0.099060 0.327759
0.763702 0.141937 0.330292
0.892456 0.252899 0.365082
0.992554 0.369873 0.403381
0.001007 0.223755 0.343933
0.001526 0.224152 0.352295
0.093231 0.233002 0.358215
0.359741 0.237946 0.359619
0.594971 0.267792 0.356079
0.760803 0.307648 0.371521
0.888062 0.371033 0.401764
0.991516 0.432739 0.407196
0.003937 0.387970 0.383148
0.000000 0.393402 0.376831
0.017059 0.405273 0.383148
0.379852 0.426300 0.392517
0.599518 0.434509 0.396820
0.769409 0.446930 0.389740
0.896027 0.480316 0.387695
0.994568 0.519409 0.397186
0.000519 0.564606 0.428864
0.000000 0.566498 0.442749
0.202667 0.578247 0.452362
0.420227 0.592926 0.461578
0.619110 0.595825 0.427948
0.786591 0.598755 0.395294
0.901581 0.600891 0.370239
0.987976 0.621399 0.379089
0.135925 0.716003 0.528900
0.250000 0.715515 0.529572
0.389496 0.719299 0.549286
0.488281 0.730194 0.532318
0.623413 0.735107 0.526886
0.768372 0.734589 0.472107
0.897766 0.735626 0.439575
0.990021 0.731689 0.401520
0.456573 0.822388 0.618713
0.490326 0.825317 0.624908
0.550903 0.827728 0.640228
0.586212 0.832642 0.615662
0.670990 0.841370 0.623657
0.760040 0.840485 0.597961
0.868835 0.841125 0.542175
0.974182 0.839355 0.491455
0.639343 0.911072 0.726379
0.648193 0.912598 0.724609
0.650970 0.916382 0.709686
0.672485 0.915741 0.704224
0.724731 0.918793 0.713715
0.783691 0.923981 0.700562
0.856689 0.920929 0.669556
0.943207 0.919281 0.618713
0.000000 0.080444 0.504395
0.003052 0.078949 0.504395
0.007080 0.077545 0.497437
0.316620 0.036713 0.501373
0.580780 0.001892 0.512238
0.785461 0.000000 0.501221
0.917023 0.199493 0.506409
0.997742 0.358521 0.530823
0.001526 0.134491 0.510834
0.005676 0.136505 0.515503
0.012634 0.135345 0.515656
0.329254 0.116760 0.517029
0.593079 0.058929 0.520081
0.789001 0.143951 0.512085
0.913605 0.271088 0.514374
0.991516 0.400635 0.544617
0.001892 0.247314 0.523865
0.005829 0.249176 0.534607
0.001007 0.257050 0.536499
0.350525 0.257050 0.534760
0.605469 0.252106 0.537659
0.787750 0.319916 0.525391
0.901215 0.392670 0.539551
0.980652 0.478821 0.564972
0.000000 0.409485 0.542969
0.002014 0.411987 0.549286
0.001892 0.420868 0.546753
0.381897 0.431091 0.557739
0.621918 0.438049 0.565094
0.776855 0.479187 0.559143
0.879059 0.522064 0.572937
0.962311 0.575836 0.594849
0.002014 0.572815 0.572815
0.000000 0.575867 0.571289
0.174469 0.581665 0.571930
0.450470 0.586609 0.581299
0.637604 0.606232 0.594452
0.768890 0.610138 0.591919
0.882477 0.621918 0.583557
0.971802 0.643768 0.586609
0.217102 0.709045 0.608124
0.290619 0.712097 0.617096
0.413269 0.715515 0.626709
0.549408 0.719421 0.630768
0.663269 0.732208 0.645935
0.775726 0.739044 0.617737
0.878571 0.738647 0.595093
0.970917 0.738007 0.568756
0.461487 0.820007 0.677795
0.486023 0.822266 0.685150
0.549408 0.822906 0.680725
0.635162 0.825317 0.699310
0.699310 0.834656 0.696411
0.777222 0.841003 0.692596
0.866913 0.843384 0.649353
0.963684 0.843140 0.616455
0.593658 0.907532 0.744110
0.611267 0.906769 0.745880
0.655670 0.910553 0.756744
0.727264 0.910034 0.765839
0.744995 0.918396 0.758118
0.802277 0.924866 0.763580
0.857574 0.920807 0.741577
0.938385 0.922852 0.704498
0.000000 0.116272 0.659729
0.002533 0.114227 0.663788
0.002899 0.112335 0.664520
0.341522 0.077942 0.667938
0.585846 0.000000 0.658722
0.795837 0.002533 0.670593
0.914612 0.215302 0.658447
0.999634 0.393188 0.656433
0.001892 0.170776 0.670471
0.005829 0.171295 0.671234
0.003021 0.172668 0.668976
0.357727 0.153442 0.666565
0.597626 0.097260 0.669067
0.791809 0.123840 0.674896
0.915009 0.283875 0.662262
0.998993 0.429871 0.659088
0.000000 0.279175 0.676300
0.001007 0.286011 0.672882
0.012115 0.285004 0.678192
0.383301 0.278687 0.675781
0.609131 0.271729 0.677185
0.789124 0.301331 0.682098
0.908051 0.403412 0.667572
0.988861 0.505768 0.675262
0.000000 0.432129 0.678314
0.002014 0.435669 0.686676
0.025787 0.438934 0.676910
0.409851 0.445404 0.690979
0.615204 0.443756 0.685638
0.783691 0.464996 0.691956
0.891479 0.534210 0.682861
0.972168 0.596954 0.689697
0.001892 0.585968 0.692474
0.002411 0.589508 0.693237
0.194946 0.590546 0.698944
0.437683 0.590912 0.698425
0.633667 0.600403 0.704254
0.780273 0.614563 0.709198
0.880707 0.654785 0.707672
0.953064 0.684021 0.718048
0.167389 0.714630 0.703094
0.256317 0.717529 0.710327
0.389374 0.712982 0.712097
0.531311 0.721313 0.713837
0.663025 0.727264 0.718781
0.780151 0.738403 0.731934
0.868835 0.743469 0.724365
0.952179 0.758148 0.721313
0.459351 0.816956 0.744476
0.491608 0.817474 0.743835
0.558380 0.815552 0.745483
0.630585 0.821747 0.747742
0.716888 0.831635 0.761047
0.794952 0.840118 0.771423
0.870575 0.843536 0.747498
0.957001 0.837463 0.725250
0.595703 0.905518 0.782532
0.611145 0.909668 0.790009
0.638092 0.910431 0.792542
0.694244 0.906525 0.797729
0.761536 0.912323 0.809998
0.821381 0.917511 0.814545
0.867950 0.927277 0.813538
0.940430 0.927277 0.786865
0.003052 0.181671 0.787750
0.001892 0.177612 0.796478
0.140411 0.171783 0.782410
0.429077 0.150299 0.789520
0.628876 0.113220 0.786591
0.794434 0.092987 0.787598
0.925873 0.222137 0.789520
0.994446 0.394196 0.768127
0.002533 0.231110 0.793427
0.000000 0.232635 0.785309
0.176727 0.224152 0.787476
0.436401 0.215057 0.789520
0.633911 0.191528 0.791901
0.795074 0.191772 0.788635
0.921967 0.282501 0.794708
0.993439 0.431366 0.772552
0.000000 0.337646 0.792542
0.000000 0.338531 0.792297
0.206940 0.333588 0.796204
0.452484 0.330170 0.794434
0.638733 0.324860 0.789520
0.786591 0.328766 0.787109
0.917023 0.392670 0.797607
0.981903 0.507385 0.776337
0.001526 0.463989 0.794312
0.005798 0.464996 0.794556
0.228973 0.468414 0.790649
0.462860 0.471832 0.797974
0.637085 0.472351 0.793427
0.777618 0.476410 0.795319
0.903229 0.515625 0.797974
0.973328 0.598846 0.781281
0.000885 0.599396 0.796478
0.001007 0.602173 0.795837
0.263519 0.599243 0.800385
0.468567 0.597992 0.796478
0.638611 0.606232 0.802429
0.769775 0.611145 0.799896
0.885651 0.639496 0.803284
0.958496 0.696899 0.795441
0.235443 0.723846 0.801788
0.294647 0.723358 0.805450
0.398254 0.721313 0.804688
0.519562 0.721954 0.807739
0.650360 0.722961 0.805695
0.767487 0.731689 0.808746
0.871368 0.746002 0.811646
0.948273 0.783173 0.816437
0.433899 0.820007 0.815186
0.464905 0.823792 0.807098
0.521820 0.817841 0.815063
0.604309 0.820892 0.818481
0.689453 0.824799 0.821625
0.784576 0.833160 0.824799
0.876678 0.843536 0.833527
0.940918 0.847443 0.828339
0.586853 0.904877 0.845032
0.600494 0.904358 0.848083
0.634033 0.907288 0.841644
0.690826 0.907135 0.846680
0.755096 0.908661 0.854401
0.821136 0.917511 0.860992
0.880341 0.924347 0.869446
0.938263 0.924744 0.855286
0.187378 0.292969 0.897278
0.270203 0.292603 0.896912
0.408478 0.290466 0.897522
0.553558 0.287781 0.893372
0.691589 0.290710 0.894623
0.821899 0.304749 0.889435
0.925507 0.332825 0.895264
0.999634 0.436554 0.892975
0.221649 0.336243 0.896393
0.292480 0.337250 0.901215
0.421875 0.336243 0.900818
0.555206 0.333466 0.899567
0.695526 0.334869 0.891327
0.820129 0.349396 0.895142
0.922974 0.370789 0.892975
1.000000 0.461853 0.896027
0.258331 0.427582 0.901978
0.315491 0.423004 0.896271
0.425293 0.425049 0.900818
0.561401 0.422272 0.892456
0.693634 0.424164 0.892975
0.808502 0.434418 0.888428
0.914490 0.447327 0.895142
0.994568 0.525604 0.892975
0.236694 0.524078 0.896759
0.306152 0.524841 0.889038
0.450989 0.533203 0.898407
0.567749 0.531158 0.899689
0.682617 0.536224 0.892090
0.796967 0.541809 0.894867
0.903229 0.547607 0.891571
0.989502 0.601898 0.891479
0.228088 0.631256 0.893860
0.286774 0.627716 0.897278
0.399628 0.626312 0.894501
0.551910 0.632782 0.892456
0.677795 0.642517 0.896393
0.787231 0.644531 0.891968
0.882599 0.648590 0.888062
0.976837 0.683746 0.897278
0.347900 0.736633 0.901459
0.380035 0.738647 0.897919
0.455658 0.736633 0.901978
0.544983 0.734589 0.898926
0.653259 0.728790 0.895020
0.772308 0.740936 0.895905
0.866425 0.744476 0.897400
0.962189 0.765106 0.902344
0.472351 0.828735 0.901703
0.495514 0.829102 0.901581
0.533325 0.833282 0.899292
0.604797 0.832642 0.905762
0.677673 0.830109 0.903870
0.768372 0.828217 0.903229
0.854004 0.837189 0.897400
0.944855 0.849213 0.905640
0.571777 0.905121 0.912964
0.583801 0.911713 0.912201
0.617584 0.905518 0.910065
0.668945 0.909058 0.906647
0.727142 0.910553 0.910553
0.795837 0.915497 0.914490
0.868835 0.916901 0.916901
0.944733 0.928650 0.923981
