assets/luts/Presetpro - Moody Stock.cube
#Created by: Adobe Photoshop Export Color Lookup Plugin
#Copyright: (C) Copyright 2023 Tim Martin and Presetpro.com
TITLE "Moody Stock.jpg"
#LUT size
LUT_3D_SIZE 32
#data domain
DOMAIN_MIN 0.0 0.0 0.0
DOMAIN_MAX 1.0 1.0 1.0
#LUT data points
0.109802 0.113739 0.121582
0.109802 0.113739 0.121582
0.113739 0.117645 0.125488
0.113342 0.117279 0.125122
0.113739 0.113739 0.120544
0.126740 0.117645 0.120300
0.144196 0.119171 0.117645
0.163422 0.120697 0.117645
0.184418 0.117645 0.116638
0.212402 0.124359 0.120422
0.244263 0.121582 0.120300
0.281219 0.121582 0.122955
0.309540 0.127014 0.113739
0.353302 0.131042 0.115356
0.390991 0.133331 0.113739
0.432983 0.131317 0.111694
0.476929 0.135376 0.103973
0.526642 0.133331 0.105896
0.570557 0.137268 0.105896
0.618347 0.141174 0.101959
0.661102 0.145111 0.094116
0.702240 0.154327 0.083618
0.738281 0.170288 0.083496
0.769531 0.178375 0.081329
0.811279 0.191284 0.078430
0.842499 0.201660 0.075256
0.868073 0.221649 0.074524
0.900452 0.230865 0.081329
0.928650 0.246307 0.077667
0.960022 0.262238 0.075012
0.980133 0.278168 0.082367
0.996063 0.294128 0.094116
0.101959 0.117645 0.129150
0.113586 0.117523 0.125366
0.113464 0.117401 0.125244
0.114105 0.117645 0.125244
0.118652 0.117645 0.125000
0.133575 0.117889 0.120544
0.151154 0.118286 0.117523
0.180389 0.123962 0.120544
0.188599 0.124847 0.114746
0.223907 0.125610 0.116516
0.249329 0.127014 0.119049
0.282593 0.129669 0.116394
0.313599 0.131042 0.105103
0.358612 0.133331 0.118896
0.393402 0.135864 0.108154
0.438690 0.135223 0.109802
0.479095 0.139404 0.106018
0.532471 0.141296 0.103851
0.578400 0.141418 0.099548
0.630646 0.147766 0.100067
0.663757 0.155609 0.093994
0.699554 0.163574 0.085907
0.737762 0.178131 0.088562
0.769531 0.181641 0.076416
0.805206 0.194427 0.075653
0.840851 0.210388 0.072235
0.868835 0.222382 0.067413
0.900055 0.241760 0.070221
0.928650 0.254150 0.074249
0.959534 0.270447 0.078430
0.987610 0.286163 0.086029
0.996063 0.301971 0.090210
0.102478 0.117401 0.121582
0.102478 0.117401 0.121582
0.110046 0.113983 0.121826
0.114349 0.121429 0.117889
0.118896 0.118408 0.117401
0.138397 0.121704 0.117645
0.155731 0.122833 0.115479
0.177979 0.131561 0.122833
0.196442 0.133575 0.120300
0.229340 0.136108 0.116760
0.248932 0.134857 0.117401
0.287018 0.137756 0.112854
0.320038 0.137512 0.111328
0.362793 0.137512 0.116638
0.399353 0.143463 0.104614
0.446411 0.145355 0.105255
0.486938 0.147369 0.102203
0.540436 0.147491 0.101715
0.575958 0.153442 0.095764
0.627960 0.159515 0.092865
0.664398 0.163818 0.087036
0.705902 0.172668 0.082367
0.740814 0.183441 0.082367
0.779022 0.194061 0.072601
0.805695 0.203552 0.071472
0.841370 0.215698 0.074524
0.875275 0.237335 0.077301
0.904633 0.246307 0.070587
0.932068 0.258575 0.071106
0.963196 0.278168 0.074249
0.984070 0.289948 0.085510
0.999756 0.302216 0.089691
0.105896 0.121582 0.125488
0.105896 0.121582 0.125244
0.106140 0.121826 0.125000
0.106628 0.122314 0.118408
0.122467 0.122467 0.114624
0.135620 0.129791 0.114746
0.162689 0.130157 0.118011
0.182526 0.137634 0.119415
0.204407 0.141541 0.126373
0.236298 0.141541 0.116119
0.260712 0.141937 0.117157
0.302582 0.144073 0.114868
0.329132 0.145844 0.116516
0.374817 0.147491 0.108673
0.407440 0.153687 0.109802
0.452606 0.154846 0.109436
0.493378 0.156097 0.095520
0.547028 0.157990 0.101593
0.581055 0.165710 0.091827
0.631134 0.173309 0.091461
0.674255 0.178986 0.086914
0.709320 0.186096 0.075378
0.743347 0.199249 0.078796
0.776733 0.205566 0.076660
0.806458 0.215179 0.071106
0.844025 0.229858 0.069061
0.871613 0.245911 0.066925
0.903870 0.255035 0.067413
0.929047 0.274139 0.069458
0.955841 0.283112 0.070221
0.987732 0.298431 0.074005
1.000000 0.314117 0.081970
0.106384 0.129913 0.122070
0.109802 0.126495 0.121826
0.109802 0.126495 0.121063
0.110687 0.127014 0.121582
0.121582 0.130920 0.117645
0.142578 0.138397 0.122070
0.162537 0.142944 0.124237
0.187347 0.143951 0.118896
0.218201 0.150543 0.121582
0.242493 0.151154 0.115234
0.272217 0.157379 0.111694
0.304108 0.158752 0.107544
0.340393 0.162292 0.108795
0.381256 0.166840 0.110321
0.418945 0.167999 0.106384
0.464874 0.168243 0.106903
0.506775 0.170654 0.108154
0.553711 0.175720 0.097137
0.592285 0.183685 0.089691
0.637970 0.189240 0.082367
0.673004 0.195190 0.082367
0.712860 0.207092 0.081085
0.747772 0.211121 0.070587
0.783173 0.219604 0.074005
0.812286 0.231995 0.072235
0.845306 0.242645 0.063751
0.874268 0.256927 0.059967
0.911713 0.263763 0.065643
0.929657 0.282104 0.061859
0.963440 0.297791 0.065643
0.988220 0.306763 0.066040
1.000000 0.325989 0.074005
0.101959 0.138519 0.124847
0.105255 0.141815 0.121582
0.102203 0.138763 0.118530
0.113739 0.139526 0.122070
0.123199 0.143066 0.118774
0.138519 0.150269 0.121582
0.159271 0.157745 0.117004
0.183685 0.166229 0.117889
0.215820 0.166595 0.110809
0.253876 0.167725 0.113220
0.283478 0.170532 0.112457
0.322571 0.173798 0.107147
0.353058 0.178986 0.107666
0.392761 0.181030 0.099304
0.430328 0.183411 0.099060
0.478027 0.186218 0.102722
0.519318 0.194061 0.093475
0.561676 0.195587 0.085022
0.603180 0.205170 0.083984
0.642273 0.209106 0.077545
0.687164 0.216187 0.075775
0.723114 0.223541 0.068573
0.752960 0.233276 0.063873
0.785828 0.241760 0.057190
0.812531 0.251373 0.055145
0.848450 0.259338 0.051727
0.880463 0.275146 0.053650
0.907776 0.283234 0.053131
0.937012 0.295013 0.054138
0.960907 0.307159 0.058197
0.991638 0.325104 0.062622
1.000000 0.331299 0.076538
0.104370 0.152039 0.119171
0.108276 0.155212 0.122314
0.108551 0.155457 0.122589
0.114105 0.161926 0.122711
0.122833 0.162048 0.118896
0.137878 0.169250 0.123352
0.155212 0.170898 0.115234
0.174561 0.178101 0.113983
0.215820 0.186584 0.113464
0.250458 0.189758 0.111816
0.284241 0.194427 0.101959
0.324463 0.195953 0.101959
0.365967 0.199860 0.096405
0.409729 0.200867 0.097931
0.446411 0.206940 0.091217
0.491302 0.210114 0.085510
0.536530 0.218079 0.084381
0.578766 0.217957 0.077911
0.616852 0.224152 0.075531
0.663910 0.231384 0.066681
0.692230 0.238312 0.060486
0.730957 0.244141 0.056671
0.764465 0.252106 0.056183
0.795563 0.260101 0.055145
0.824677 0.272858 0.050354
0.859711 0.276794 0.045532
0.890198 0.291199 0.044159
0.913727 0.302460 0.042389
0.937622 0.310944 0.036804
0.967865 0.326752 0.046539
0.988617 0.341675 0.059448
0.995331 0.350525 0.065918
0.095001 0.175201 0.130310
0.098053 0.178253 0.130310
0.102203 0.175446 0.125732
0.111053 0.175568 0.129791
0.126129 0.182159 0.122955
0.134583 0.182800 0.125244
0.154327 0.189880 0.121704
0.175201 0.194794 0.114624
0.208221 0.200989 0.106140
0.247437 0.208832 0.099182
0.281708 0.221375 0.103729
0.320160 0.227570 0.097015
0.373169 0.227692 0.091095
0.419342 0.231750 0.085388
0.458160 0.233643 0.079315
0.510284 0.235931 0.077545
0.546509 0.241730 0.075043
0.595093 0.244904 0.065796
0.634918 0.250336 0.061218
0.676941 0.256042 0.052246
0.707672 0.264893 0.049225
0.742188 0.269318 0.049591
0.771912 0.276031 0.043762
0.800751 0.284882 0.028320
0.827454 0.295013 0.028320
0.863770 0.303864 0.026581
0.891602 0.313354 0.027832
0.918274 0.323700 0.024811
0.937378 0.334839 0.027466
0.965088 0.345734 0.034668
0.992676 0.353699 0.049835
0.996948 0.367371 0.057068
0.092224 0.198090 0.131439
0.104858 0.202026 0.136230
0.102722 0.199371 0.133575
0.111816 0.202026 0.131439
0.119171 0.202026 0.126495
0.135620 0.203674 0.126892
0.151306 0.211639 0.124725
0.168365 0.216553 0.118530
0.203033 0.227570 0.114746
0.232239 0.228821 0.102325
0.279053 0.247192 0.100189
0.321564 0.253510 0.091949
0.368347 0.259460 0.085266
0.418701 0.263885 0.079315
0.471954 0.264618 0.072479
0.531036 0.268677 0.063629
0.566101 0.273743 0.054779
0.607727 0.278564 0.046692
0.647430 0.286407 0.044006
0.688568 0.288788 0.034180
0.719421 0.294250 0.025818
0.748901 0.296631 0.016205
0.778748 0.306641 0.019104
0.806824 0.314850 0.009735
0.835815 0.320801 0.011658
0.872131 0.329529 0.008972
0.897156 0.343567 0.008728
0.923981 0.350037 0.007843
0.944977 0.352692 0.011902
0.967865 0.363556 0.012909
0.988983 0.374329 0.028076
0.994171 0.386322 0.039215
0.098053 0.226929 0.141174
0.101959 0.229736 0.143951
0.106140 0.225037 0.136749
0.114471 0.228088 0.139526
0.125366 0.228088 0.140045
0.137390 0.229218 0.135468
0.147736 0.235931 0.132568
0.165710 0.240723 0.123840
0.192139 0.252625 0.124237
0.229218 0.256653 0.115387
0.266388 0.267670 0.095398
0.316742 0.282349 0.084625
0.368347 0.287537 0.088806
0.421600 0.296875 0.070587
0.471832 0.306519 0.058716
0.526733 0.309143 0.047577
0.579407 0.307770 0.026947
0.626465 0.316498 0.020752
0.661224 0.320557 0.011627
0.697784 0.323853 0.002777
0.728912 0.327240 0.000000
0.756866 0.331421 0.002258
0.788239 0.337891 0.001129
0.815948 0.344727 0.001129
0.842133 0.351532 0.000000
0.871338 0.356720 0.000000
0.899445 0.362549 0.001129
0.929657 0.372681 0.000000
0.949402 0.379883 0.005432
0.972931 0.383789 0.000244
0.994690 0.394165 0.011780
0.998871 0.403412 0.022400
0.095367 0.258545 0.150146
0.101959 0.257294 0.150269
0.104736 0.257050 0.150269
0.116119 0.259949 0.148499
0.127014 0.257050 0.156860
0.137878 0.260590 0.152954
0.157104 0.264618 0.145111
0.171661 0.268677 0.139404
0.196442 0.281708 0.129425
0.226685 0.283478 0.124481
0.261200 0.295258 0.111206
0.309052 0.303223 0.104614
0.366852 0.325348 0.081848
0.419342 0.333435 0.067688
0.471588 0.342163 0.055664
0.524719 0.348755 0.031647
0.573730 0.354218 0.013794
0.620758 0.357483 0.001770
0.667816 0.359253 0.003540
0.712738 0.356476 0.003815
0.739532 0.363190 0.001404
0.772552 0.365845 0.001251
0.797852 0.370148 0.002655
0.825287 0.373932 0.001251
0.852631 0.383301 0.000000
0.875519 0.388611 0.000763
0.903351 0.396576 0.001251
0.927521 0.393646 0.002167
0.953064 0.406952 0.000000
0.979370 0.405304 0.005066
0.997223 0.415436 0.002777
1.000000 0.426056 0.006592
0.087677 0.294617 0.159637
0.096893 0.297028 0.161926
0.107788 0.290436 0.155731
0.122955 0.290680 0.159637
0.130920 0.289795 0.159912
0.145599 0.296387 0.161407
0.160400 0.297760 0.156982
0.176575 0.298523 0.147614
0.200500 0.312439 0.146240
0.231750 0.319031 0.134979
0.261353 0.325867 0.125610
0.301056 0.334961 0.112335
0.348877 0.342041 0.093872
0.412872 0.365692 0.071228
0.464508 0.379486 0.044037
0.517365 0.385803 0.014557
0.569031 0.391266 0.001892
0.616974 0.397339 0.000000
0.664032 0.406952 0.002289
0.705780 0.405914 0.002533
0.744843 0.404175 0.001404
0.774200 0.403015 0.000000
0.805817 0.405823 0.000000
0.833649 0.407959 0.002411
0.858459 0.413391 0.001648
0.886780 0.419739 0.004547
0.909821 0.421234 0.003174
0.933838 0.423767 0.001404
0.959656 0.431244 0.001770
0.983307 0.431610 0.000000
0.997345 0.439331 0.000000
0.998596 0.444763 0.000000
0.084747 0.333069 0.166229
0.097656 0.335480 0.167725
0.107544 0.331818 0.167725
0.119171 0.329895 0.168884
0.136749 0.330536 0.174561
0.147888 0.328247 0.170776
0.159882 0.331421 0.166992
0.184570 0.339386 0.162933
0.204041 0.348236 0.158752
0.232361 0.352295 0.147125
0.269043 0.361786 0.138916
0.305115 0.368103 0.120789
0.347229 0.376831 0.115234
0.395172 0.388214 0.082733
0.454010 0.408325 0.040985
0.511047 0.429077 0.000000
0.566498 0.431091 0.000000
0.613800 0.440704 0.000000
0.656830 0.443634 0.000000
0.701599 0.446777 0.000000
0.740448 0.444397 0.000000
0.779144 0.445648 0.001526
0.812653 0.442871 0.003021
0.844147 0.444275 0.003021
0.869446 0.444397 0.003296
0.890076 0.448425 0.000000
0.913727 0.454895 0.003662
0.937378 0.456543 0.001892
0.959137 0.457550 0.001526
0.983551 0.459198 0.000000
0.999756 0.463257 0.005310
0.998474 0.470306 0.006317
0.082367 0.374542 0.179749
0.091095 0.374420 0.178741
0.105011 0.374542 0.178375
0.119293 0.371887 0.180267
0.134338 0.368347 0.184174
0.154205 0.372284 0.184296
0.171783 0.370636 0.180634
0.185455 0.370636 0.172791
0.207977 0.385681 0.167999
0.240356 0.390869 0.162292
0.269440 0.394165 0.151794
0.304993 0.405426 0.139404
0.344818 0.417450 0.111938
0.390228 0.423889 0.099670
0.436798 0.431335 0.071106
0.497772 0.457672 0.022278
0.558289 0.467407 0.005554
0.603455 0.477539 0.000519
0.653534 0.481079 0.002289
0.693268 0.485870 0.000763
0.731689 0.488037 0.003296
0.770172 0.485382 0.004944
0.809998 0.486633 0.000000
0.843658 0.483734 0.000000
0.873505 0.479309 0.002289
0.898926 0.481842 0.000000
0.918671 0.485626 0.004547
0.937897 0.486633 0.001648
0.963318 0.489166 0.003540
0.985077 0.489166 0.000000
0.995941 0.492706 0.004425
0.996063 0.495117 0.000000
0.078430 0.420593 0.190002
0.086517 0.420471 0.193939
0.098938 0.419098 0.191772
0.116272 0.420227 0.195679
0.136627 0.414520 0.192261
0.155334 0.417816 0.191772
0.176575 0.414520 0.187836
0.196960 0.413635 0.186951
0.219849 0.423370 0.185059
0.242615 0.428955 0.172791
0.273499 0.438049 0.161804
0.312836 0.445526 0.150787
0.346588 0.455017 0.135864
0.389740 0.461456 0.104095
0.430206 0.471191 0.084106
0.483856 0.481323 0.054535
0.542358 0.501709 0.009338
0.598022 0.515106 0.000000
0.640991 0.521301 0.001770
0.681244 0.525360 0.000000
0.722076 0.526489 0.003143
0.763580 0.526489 0.001770
0.800385 0.523590 0.001007
0.840118 0.525970 0.004181
0.870972 0.522186 0.003052
0.903229 0.514709 0.000000
0.925751 0.516876 0.000000
0.945862 0.518524 0.003815
0.971405 0.514343 0.004303
0.989624 0.518768 0.001770
1.000000 0.519043 0.001770
0.996063 0.520782 0.004303
0.076416 0.462341 0.203796
0.086792 0.460571 0.198090
0.100677 0.462341 0.204041
0.118011 0.460693 0.207336
0.144592 0.457550 0.204926
0.162689 0.461090 0.207092
0.185699 0.459167 0.208466
0.203522 0.457397 0.204681
0.226562 0.463501 0.197083
0.257172 0.471466 0.190521
0.282837 0.477386 0.180267
0.314850 0.482849 0.165222
0.348633 0.495361 0.160400
0.388458 0.499420 0.130157
0.431976 0.505341 0.104492
0.478149 0.515350 0.086273
0.526031 0.523468 0.040710
0.578552 0.539673 0.001770
0.637604 0.558228 0.002289
0.682251 0.558624 0.005310
0.720703 0.563049 0.000641
0.756500 0.564453 0.000000
0.796356 0.567078 0.003937
0.827454 0.566345 0.003052
0.860992 0.561646 0.000000
0.895020 0.558502 0.000000
0.925751 0.554565 0.001892
0.956879 0.550659 0.001892
0.977234 0.546722 0.002014
0.989868 0.543182 0.000000
1.000000 0.546722 0.002014
0.992035 0.548767 0.000000
0.082367 0.508179 0.215698
0.092468 0.506287 0.217834
0.106506 0.506287 0.218109
0.124359 0.507935 0.221649
0.146240 0.506287 0.216339
0.171295 0.505646 0.222412
0.191772 0.502350 0.220490
0.216431 0.503235 0.219727
0.238312 0.504242 0.212769
0.265137 0.509308 0.204193
0.292450 0.516510 0.195862
0.321320 0.518036 0.185730
0.357117 0.526764 0.170288
0.394562 0.535370 0.155731
0.434265 0.539825 0.132355
0.476135 0.551300 0.118042
0.519806 0.557129 0.082367
0.559906 0.567261 0.020477
0.608734 0.577881 0.000000
0.668457 0.601929 0.004303
0.711945 0.600403 0.002014
0.747772 0.600281 0.002533
0.787476 0.602173 0.005310
0.822784 0.605347 0.004059
0.855164 0.599243 0.000000
0.890198 0.595215 0.000000
0.920441 0.589905 0.001251
0.948883 0.584595 0.000000
0.968262 0.579132 0.000366
0.992035 0.575104 0.000000
1.000000 0.574707 0.000000
0.992279 0.570801 0.000000
0.104492 0.551941 0.231750
0.112732 0.548035 0.233917
0.125000 0.548401 0.236328
0.142334 0.549805 0.233917
0.158752 0.548523 0.235565
0.184204 0.547394 0.239594
0.210510 0.544098 0.242126
0.231384 0.541077 0.239990
0.255554 0.541199 0.238983
0.276642 0.549164 0.229980
0.303101 0.553223 0.224060
0.328644 0.559021 0.208618
0.361145 0.563934 0.194061
0.396942 0.573181 0.179657
0.430603 0.579010 0.163330
0.468414 0.583069 0.140076
0.509674 0.592804 0.112335
0.557648 0.598633 0.076263
0.598114 0.600891 0.025299
0.641632 0.616333 0.000000
0.699554 0.633911 0.002777
0.737640 0.636078 0.000000
0.778870 0.637207 0.000000
0.813416 0.636444 0.001007
0.847046 0.636078 0.002167
0.878326 0.634308 0.000000
0.911835 0.624298 0.001129
0.937012 0.622528 0.000000
0.963196 0.617218 0.000366
0.987091 0.608856 0.000000
0.997833 0.600769 0.000000
0.997833 0.594696 0.002167
0.138519 0.591797 0.251617
0.144867 0.590027 0.253906
0.160675 0.587860 0.254547
0.176117 0.587860 0.256165
0.187866 0.587860 0.253906
0.208099 0.588898 0.259460
0.229492 0.589508 0.263275
0.253143 0.586487 0.259216
0.275513 0.580017 0.257202
0.295380 0.585083 0.258972
0.319183 0.591156 0.252625
0.345978 0.593933 0.242126
0.371521 0.594940 0.226715
0.404297 0.605194 0.209106
0.435150 0.609131 0.197601
0.470703 0.616974 0.172333
0.505890 0.622925 0.148254
0.551819 0.630371 0.130188
0.589508 0.632660 0.084625
0.632507 0.642914 0.029877
0.670715 0.649109 0.000000
0.724854 0.667297 0.002014
0.766235 0.670105 0.001648
0.804810 0.671234 0.000000
0.837311 0.668823 0.000000
0.869843 0.664917 0.004547
0.902740 0.662384 0.002289
0.929047 0.656677 0.000000
0.957367 0.650360 0.000366
0.981262 0.643280 0.002777
0.999878 0.636566 0.002533
1.000000 0.628723 0.004547
0.182159 0.629242 0.285645
0.184967 0.623932 0.282745
0.196594 0.627472 0.281738
0.212036 0.626190 0.285645
0.221893 0.626190 0.281738
0.238983 0.625580 0.281372
0.256561 0.620636 0.280823
0.280457 0.623810 0.285645
0.298920 0.620514 0.288177
0.318909 0.622528 0.286041
0.341675 0.626831 0.284393
0.364319 0.626190 0.273254
0.385834 0.633148 0.259705
0.412903 0.635559 0.243286
0.439728 0.642761 0.226349
0.470459 0.648834 0.214050
0.506897 0.654785 0.189362
0.545868 0.658600 0.170288
0.590271 0.664398 0.144348
0.623810 0.670868 0.106140
0.661621 0.673889 0.051514
0.699066 0.677063 0.000000
0.753693 0.700592 0.000000
0.796570 0.703247 0.000000
0.828705 0.696533 0.000885
0.862732 0.695892 0.001526
0.897034 0.691986 0.002136
0.922974 0.686676 0.004822
0.946625 0.682617 0.000000
0.978485 0.675415 0.000000
0.997345 0.668579 0.003937
1.000000 0.663025 0.002411
0.228119 0.662506 0.307037
0.233429 0.666412 0.310944
0.241516 0.661377 0.307037
0.254425 0.662628 0.312469
0.254272 0.665039 0.304749
0.272858 0.662506 0.310181
0.290466 0.660339 0.314636
0.309937 0.661102 0.318298
0.328400 0.657196 0.323853
0.345734 0.657196 0.314880
0.363068 0.658569 0.312225
0.385468 0.659729 0.300323
0.398865 0.670349 0.284515
0.422913 0.670593 0.284149
0.453491 0.674255 0.269348
0.485260 0.681213 0.245544
0.513489 0.684143 0.233673
0.545258 0.686035 0.217957
0.580292 0.687408 0.191528
0.617981 0.693756 0.165863
0.653259 0.700317 0.135620
0.690582 0.707031 0.077942
0.732086 0.711212 0.010132
0.781281 0.722076 0.000366
0.825317 0.721832 0.001404
0.859833 0.725250 0.003174
0.885773 0.718781 0.002014
0.915375 0.715759 0.000000
0.944733 0.710327 0.000366
0.971802 0.707275 0.005066
0.994568 0.697906 0.005066
1.000000 0.692474 0.000000
0.278687 0.698181 0.343964
0.283997 0.699432 0.346619
0.285278 0.695648 0.342834
0.294373 0.700836 0.342712
0.302216 0.700836 0.340057
0.312592 0.698944 0.342712
0.325867 0.693756 0.344727
0.340546 0.691711 0.347504
0.362305 0.695038 0.350800
0.370911 0.691711 0.343719
0.392303 0.690338 0.346497
0.409607 0.694244 0.340057
0.426453 0.698303 0.330200
0.446167 0.698181 0.322479
0.470306 0.702972 0.314392
0.498535 0.707916 0.291504
0.519928 0.710083 0.280579
0.552460 0.715118 0.266052
0.582947 0.717773 0.239227
0.609985 0.721436 0.216339
0.647949 0.728027 0.193970
0.682495 0.729553 0.162323
0.725250 0.732208 0.122223
0.760925 0.734741 0.065582
0.808105 0.746002 0.005310
0.849731 0.749664 0.003174
0.882477 0.745850 0.003937
0.913605 0.745239 0.003418
0.935608 0.739899 0.000000
0.969879 0.733734 0.000000
0.992035 0.723083 0.000000
1.000000 0.717773 0.000000
0.323730 0.728790 0.379761
0.327911 0.731445 0.376984
0.333466 0.728546 0.374725
0.345367 0.726379 0.376221
0.349426 0.727142 0.378632
0.356873 0.724243 0.379761
0.370026 0.723724 0.383301
0.384216 0.721832 0.385590
0.395325 0.721436 0.387604
0.407227 0.719299 0.386475
0.424286 0.720551 0.386078
0.438843 0.719543 0.378876
0.449585 0.726013 0.373322
0.469330 0.727631 0.365753
0.487549 0.729797 0.354462
0.509277 0.732452 0.337280
0.535126 0.737000 0.329681
0.557770 0.741058 0.314362
0.588379 0.741699 0.298920
0.614685 0.749542 0.272247
0.638092 0.752075 0.251129
0.680084 0.753571 0.228607
0.717529 0.756226 0.192047
0.748383 0.757385 0.165985
0.783295 0.760406 0.110199
0.829468 0.767120 0.033417
0.874878 0.769775 0.003784
0.909943 0.769775 0.000519
0.932953 0.766357 0.001129
0.958130 0.757629 0.002014
0.982300 0.752441 0.000244
0.997223 0.746735 0.000000
0.377258 0.754852 0.421387
0.378387 0.753845 0.415558
0.381409 0.754089 0.415833
0.386108 0.755737 0.418488
0.391022 0.760651 0.420898
0.399506 0.751556 0.419098
0.408234 0.753082 0.421387
0.425323 0.753693 0.426453
0.430237 0.753845 0.419495
0.440247 0.748901 0.419495
0.458954 0.750549 0.424316
0.469330 0.747498 0.423279
0.484253 0.748383 0.418365
0.500183 0.749908 0.406982
0.512085 0.753845 0.404572
0.530182 0.757751 0.391174
0.551056 0.758759 0.383057
0.572052 0.764832 0.364075
0.595062 0.764954 0.346863
0.622894 0.771423 0.334106
0.649963 0.770142 0.311340
0.678558 0.773682 0.295502
0.710205 0.777222 0.273621
0.737244 0.777374 0.235168
0.771912 0.777618 0.202545
0.812164 0.778625 0.163452
0.852753 0.783691 0.109589
0.892090 0.796967 0.024292
0.922089 0.793060 0.020386
0.956848 0.784698 0.026215
0.977356 0.780396 0.034943
1.000000 0.776337 0.041779
0.425201 0.777740 0.461365
0.429108 0.781677 0.465271
0.429993 0.781677 0.465271
0.432129 0.780396 0.465271
0.441742 0.778625 0.460083
0.445435 0.775330 0.458069
0.450470 0.777740 0.461365
0.460968 0.777740 0.466156
0.469086 0.776855 0.460205
0.486908 0.776855 0.464417
0.489685 0.774689 0.471375
0.501190 0.775482 0.469208
0.520447 0.771423 0.467712
0.530029 0.773834 0.460602
0.542450 0.772949 0.453033
0.558258 0.777466 0.442017
0.570038 0.780640 0.427094
0.592041 0.780396 0.417328
0.609741 0.786346 0.406464
0.632904 0.787109 0.384186
0.657318 0.790375 0.374725
0.680206 0.791260 0.352692
0.704742 0.793427 0.330811
0.737885 0.799377 0.313477
0.762054 0.801270 0.283997
0.794189 0.798096 0.246063
0.836304 0.798218 0.209747
0.868561 0.803406 0.179138
0.911316 0.816437 0.123871
0.942810 0.813049 0.100342
0.972931 0.804443 0.118286
0.993927 0.801270 0.129303
0.480957 0.797729 0.508423
0.480957 0.797729 0.508423
0.478577 0.795319 0.506012
0.478943 0.795685 0.499298
0.486145 0.791901 0.506531
0.492737 0.794556 0.502106
0.494263 0.798492 0.512329
0.499817 0.799377 0.507660
0.510956 0.796967 0.507660
0.517639 0.797729 0.507141
0.530823 0.797211 0.509949
0.541321 0.790649 0.507172
0.548401 0.792908 0.510834
0.562683 0.796204 0.503723
0.568115 0.795563 0.496765
0.582153 0.797211 0.496643
0.590790 0.802917 0.474121
0.609619 0.805573 0.473877
0.627228 0.804810 0.457703
0.644165 0.808746 0.447205
0.667694 0.809479 0.432129
0.687683 0.807098 0.412415
0.709564 0.815826 0.403687
0.737885 0.817322 0.374969
0.761932 0.815674 0.356506
0.791534 0.817322 0.328796
0.818848 0.818726 0.296906
0.850464 0.818085 0.274017
0.891724 0.822784 0.226593
0.933075 0.833771 0.185089
0.961151 0.829987 0.172424
0.985840 0.825165 0.193939
0.519043 0.814423 0.549774
0.522339 0.817719 0.546753
0.522339 0.817719 0.553070
0.529541 0.818359 0.547119
0.530182 0.818970 0.546509
0.530823 0.817719 0.545868
0.536743 0.818359 0.549164
0.540405 0.818359 0.550659
0.547882 0.816711 0.553070
0.554840 0.817200 0.545868
0.563324 0.814423 0.549011
0.574066 0.815186 0.551178
0.587219 0.814697 0.554840
0.597473 0.814423 0.553711
0.601013 0.814423 0.545868
0.613800 0.813171 0.540680
0.619110 0.820251 0.533966
0.635803 0.821625 0.526123
0.651367 0.822266 0.512604
0.665649 0.822266 0.502350
0.683502 0.823669 0.492462
0.696136 0.826202 0.475891
0.714752 0.829620 0.463257
0.737885 0.833008 0.453522
0.759399 0.830750 0.427216
0.786469 0.832642 0.399384
0.817719 0.837952 0.372681
0.839966 0.837311 0.356110
0.877533 0.837585 0.320435
0.910065 0.842896 0.286804
0.949768 0.850342 0.248962
0.981018 0.850342 0.232147
0.565582 0.834290 0.593567
0.566345 0.834656 0.594055
0.572418 0.830872 0.593567
0.572937 0.830353 0.593567
0.573944 0.834290 0.589630
0.578003 0.831512 0.590271
0.580780 0.834290 0.593048
0.583191 0.835175 0.594452
0.590637 0.831360 0.594574
0.600372 0.837708 0.600891
0.604065 0.832520 0.599640
0.614563 0.831757 0.604187
0.624023 0.830353 0.606720
0.629852 0.829865 0.598480
0.635559 0.829224 0.598724
