assets/luts/Presetpro - Stylish.cube
#Created by: Adobe Photoshop Export Color Lookup Plugin
#Copyright: (C) Copyright 2022 Tim Martin and Presetpro.com
TITLE "Presetpro - Stylish.jpg"
#LUT size
LUT_3D_SIZE 8
#data domain
#LUT data points
DOMAIN_MIN 0.000000 0.000000 0.000000
DOMAIN_MAX 0.903226 0.903226 0.903226
0.000000 0.000000 0.000000
0.023529 0.000000 0.000000
0.072601 0.010742 0.000000
0.216034 0.002411 0.000000
0.425964 0.003937 0.000000
0.642639 0.002533 0.000000
0.819122 0.000000 0.003052
0.978119 0.003540 0.003540
0.003418 0.024536 0.001526
0.013794 0.032379 0.004944
0.113831 0.032379 0.002899
0.263092 0.000000 0.000000
0.471619 0.000519 0.006470
0.667694 0.003418 0.002533
0.829865 0.003937 0.000519
0.983307 0.000519 0.004059
0.001007 0.099182 0.021637
0.003937 0.094238 0.031372
0.095245 0.117767 0.003937
0.320923 0.133972 0.000519
0.559418 0.095367 0.001007
0.723114 0.021729 0.003937
0.872986 0.030304 0.002014
0.996338 0.162292 0.000000
0.001526 0.300812 0.068176
0.004822 0.293976 0.075134
0.006073 0.289917 0.084259
0.282074 0.341522 0.000000
0.565613 0.367859 0.004059
0.775848 0.384186 0.000000
0.917145 0.390106 0.006073
0.998474 0.415283 0.000000
0.007843 0.531830 0.162933
0.000000 0.531708 0.166748
0.002045 0.519073 0.176605
0.240204 0.525391 0.149078
0.502350 0.559143 0.000000
0.742584 0.574860 0.002014
0.911072 0.594452 0.000000
1.000000 0.608246 0.001892
0.002533 0.710693 0.315765
0.002014 0.702850 0.314117
0.136414 0.698944 0.323486
0.358521 0.685669 0.331573
0.506287 0.693634 0.281738
0.701477 0.714630 0.120575
0.881592 0.719940 0.000885
0.998596 0.737000 0.000000
0.333618 0.826965 0.489685
0.367645 0.824799 0.496521
0.434143 0.819855 0.498413
0.527130 0.813904 0.499939
0.619385 0.802155 0.505249
0.724609 0.814789 0.455414
0.851379 0.828735 0.352844
0.991516 0.828857 0.149811
0.631897 0.912964 0.683990
0.640625 0.909546 0.675659
0.672119 0.905762 0.677551
0.709045 0.910553 0.686646
0.759918 0.903107 0.689575
0.802917 0.903595 0.695374
0.868561 0.913483 0.644775
0.951416 0.925110 0.576599
0.003937 0.000000 0.020111
0.024048 0.004425 0.020111
0.078033 0.010742 0.023010
0.214539 0.004822 0.021637
0.425964 0.001892 0.016693
0.639618 0.002014 0.004059
0.812653 0.003418 0.002533
0.977997 0.003052 0.003052
0.000000 0.035309 0.032379
0.027954 0.035309 0.032898
0.099670 0.032379 0.031372
0.256775 0.000000 0.014801
0.465179 0.003418 0.006470
0.666046 0.000000 0.004791
0.836182 0.000885 0.000000
0.979767 0.003052 0.000519
0.000000 0.108032 0.061859
0.003418 0.111450 0.058441
0.116241 0.125732 0.051605
0.338623 0.133057 0.012268
0.556885 0.085999 0.008362
0.720551 0.020599 0.001526
0.871338 0.025146 0.000000
0.994934 0.151154 0.000519
0.000000 0.315094 0.122192
0.000000 0.317108 0.126617
0.044281 0.307251 0.130646
0.301300 0.353302 0.034912
0.580292 0.368988 0.004425
0.784576 0.385681 0.003784
0.914124 0.386047 0.005951
1.000000 0.409851 0.003021
0.001892 0.544495 0.219879
0.003937 0.542450 0.218353
0.002533 0.536133 0.230621
0.275879 0.527924 0.214569
0.515137 0.564972 0.043640
0.751953 0.581177 0.001007
0.914612 0.592926 0.000000
1.000000 0.608246 0.002411
0.000000 0.711212 0.359283
0.004059 0.711456 0.353333
0.196594 0.701111 0.356750
0.386353 0.690094 0.367371
0.519073 0.698547 0.333588
0.704102 0.721954 0.204437
0.885132 0.725739 0.000000
0.998596 0.734985 0.002014
0.364716 0.829102 0.517670
0.388123 0.828735 0.518158
0.453003 0.824799 0.519928
0.538910 0.816956 0.522583
0.630524 0.808594 0.527527
0.725128 0.816437 0.479340
0.852753 0.828339 0.379639
0.987854 0.832275 0.220764
0.636566 0.916901 0.687927
0.645294 0.916138 0.690460
0.672607 0.909546 0.695129
0.712585 0.909058 0.692596
0.763824 0.903595 0.700592
0.814819 0.905884 0.707520
0.871216 0.912598 0.663757
0.951813 0.926880 0.595703
0.000000 0.003937 0.096252
0.019623 0.003937 0.100067
0.082458 0.010742 0.084381
0.231232 0.000519 0.102570
0.429993 0.002014 0.096252
0.621521 0.001526 0.085388
0.799500 0.002014 0.080566
0.965729 0.002533 0.038055
0.000519 0.025055 0.123199
0.004425 0.035309 0.122192
0.103607 0.038696 0.119293
0.265503 0.000000 0.130035
0.461243 0.000000 0.105133
0.648590 0.000519 0.105499
0.820618 0.001404 0.080444
0.971924 0.003052 0.026917
0.000000 0.127625 0.156097
0.000000 0.135986 0.164429
0.139404 0.151154 0.182404
0.340027 0.135986 0.161407
0.537628 0.094360 0.137360
0.707672 0.021210 0.120789
0.859070 0.022217 0.077545
0.992035 0.138000 0.011383
0.002533 0.342041 0.216431
0.002014 0.345947 0.219849
0.118378 0.357208 0.243866
0.342926 0.373413 0.200348
0.605194 0.387085 0.155457
0.780273 0.378357 0.109528
0.898926 0.376953 0.045746
0.999115 0.402893 0.000885
0.001892 0.562073 0.310944
0.002014 0.562714 0.315369
0.104584 0.565094 0.322815
0.342682 0.551819 0.327271
0.543457 0.579651 0.246552
0.762695 0.591034 0.153809
0.918030 0.603180 0.109283
1.000000 0.605347 0.022247
0.001526 0.723358 0.420868
0.075439 0.723358 0.430511
0.278320 0.721313 0.433411
0.429474 0.703857 0.429871
0.555725 0.705750 0.414673
0.722717 0.723480 0.331451
0.892975 0.726379 0.216187
0.997101 0.740936 0.215942
0.396973 0.829742 0.562317
0.441650 0.827576 0.567352
0.489929 0.827850 0.565216
0.570648 0.822388 0.575958
0.652405 0.813019 0.571045
0.735748 0.821259 0.533844
0.852264 0.830627 0.448578
0.988495 0.834808 0.339905
0.651611 0.916504 0.708282
0.663391 0.913483 0.709290
0.682098 0.914490 0.712463
0.719788 0.910950 0.712830
0.764587 0.909546 0.718170
0.817078 0.906769 0.730408
0.869720 0.915009 0.687042
0.952820 0.921814 0.625824
0.001526 0.002411 0.259460
0.000519 0.006836 0.255127
0.088409 0.002411 0.253754
0.267029 0.002411 0.253754
0.471619 0.000000 0.262482
0.660217 0.000000 0.249817
0.810638 0.001526 0.213898
0.952576 0.002014 0.201141
0.001007 0.026947 0.285492
0.001007 0.028839 0.289429
0.126617 0.024536 0.287018
0.293091 0.000000 0.275757
0.492126 0.002899 0.280548
0.669464 0.002899 0.255127
0.819092 0.004425 0.228180
0.955597 0.001007 0.219208
0.000000 0.106506 0.312073
0.000000 0.105988 0.313080
0.133057 0.140411 0.332672
0.355316 0.169373 0.323425
0.539032 0.141388 0.314972
0.691956 0.049896 0.280548
0.831757 0.069031 0.260071
0.972809 0.120270 0.231995
0.003021 0.362671 0.365967
0.003418 0.372894 0.379608
0.009491 0.386200 0.379242
0.399719 0.412109 0.389496
0.594452 0.397827 0.365814
0.741943 0.378357 0.333038
0.877930 0.376831 0.299286
0.994171 0.394531 0.264374
0.000519 0.587738 0.423401
0.000000 0.592041 0.425812
0.179626 0.592041 0.439606
0.431732 0.593567 0.461975
0.579773 0.605713 0.416321
0.779785 0.606354 0.380737
0.921967 0.602814 0.355713
0.999481 0.594971 0.313843
0.004547 0.737000 0.515503
0.173065 0.735107 0.514465
0.341949 0.734222 0.525360
0.493591 0.733459 0.536621
0.601044 0.717407 0.536621
0.738525 0.734589 0.473389
0.893860 0.739044 0.410217
1.000000 0.744843 0.404785
0.407104 0.838074 0.610626
0.440491 0.841125 0.615692
0.521210 0.837067 0.628845
0.604279 0.833527 0.635681
0.678833 0.825806 0.637695
0.750916 0.822266 0.618469
0.859222 0.834167 0.548248
0.980133 0.842499 0.469574
0.640991 0.924225 0.728912
0.655029 0.918396 0.731445
0.693115 0.921448 0.745605
0.733704 0.915741 0.744354
0.777496 0.909424 0.746368
0.827332 0.911194 0.759521
0.874023 0.916504 0.733063
0.947510 0.924866 0.673767
0.000000 0.000000 0.435699
0.000000 0.003937 0.437592
0.052216 0.001007 0.446442
0.338623 0.001892 0.453400
0.516144 0.003937 0.443542
0.692627 0.002014 0.437714
0.838593 0.000000 0.422913
0.968628 0.001526 0.403564
0.001892 0.021637 0.459229
0.000000 0.015686 0.461761
0.094452 0.000000 0.474396
0.367584 0.002899 0.476288
0.544250 0.000000 0.452393
0.700439 0.000519 0.453766
0.842499 0.003937 0.432648
0.979126 0.000366 0.408752
0.000000 0.092346 0.481598
0.002533 0.103973 0.495514
0.111908 0.131561 0.494507
0.404419 0.188477 0.499939
0.572052 0.204285 0.484772
0.717163 0.200897 0.476440
0.850342 0.158386 0.450348
0.976990 0.097931 0.413208
0.003418 0.311035 0.510681
0.002014 0.313568 0.511444
0.002411 0.316467 0.516388
0.409088 0.392365 0.541077
0.605560 0.445892 0.540039
0.739899 0.424408 0.514374
0.862122 0.378357 0.472992
0.973206 0.363892 0.427582
0.002014 0.592560 0.547394
0.000000 0.596466 0.553345
0.004028 0.603302 0.567017
0.398468 0.615570 0.578522
0.625946 0.637604 0.584717
0.764465 0.611542 0.556244
0.885773 0.586731 0.516907
0.993683 0.571442 0.475677
0.053955 0.751312 0.621918
0.200409 0.753845 0.619354
0.359619 0.753082 0.615845
0.521057 0.754211 0.630127
0.658722 0.747772 0.648346
0.764099 0.750153 0.612793
0.900330 0.749908 0.582306
0.995575 0.745880 0.560669
0.406708 0.847321 0.678955
0.439209 0.852264 0.684265
0.510193 0.847321 0.683624
0.614288 0.847198 0.692383
0.712219 0.839478 0.707153
0.778900 0.830109 0.704987
0.866028 0.840485 0.652527
0.984711 0.845795 0.603302
0.596832 0.928650 0.755341
0.614288 0.927399 0.756226
0.661102 0.923340 0.761169
0.729279 0.920807 0.777222
0.791290 0.918915 0.787598
0.836700 0.913971 0.794189
0.876801 0.917786 0.777618
0.946228 0.926758 0.733978
0.000000 0.000000 0.603668
0.000000 0.000000 0.606201
0.069305 0.001007 0.614685
0.396576 0.001526 0.629852
0.612946 0.000000 0.628845
0.747131 0.000000 0.612671
0.870483 0.003052 0.603058
0.979645 0.003540 0.599884
0.002014 0.002014 0.620148
0.002014 0.003418 0.622528
0.112579 0.001892 0.630249
0.414520 0.002014 0.636566
0.632141 0.046295 0.647064
0.761169 0.001007 0.630249
0.875549 0.038849 0.612274
0.979645 0.143738 0.604187
0.003052 0.085876 0.635803
0.000000 0.090820 0.636566
0.137360 0.103973 0.651733
0.435272 0.157593 0.654388
0.645325 0.293488 0.663635
0.765594 0.277405 0.645569
0.873016 0.291321 0.624420
0.976349 0.305511 0.617096
0.000000 0.254761 0.637573
0.002533 0.264374 0.646454
0.003052 0.304718 0.660614
0.424408 0.369476 0.670959
0.650879 0.472351 0.687042
0.770416 0.485748 0.673370
0.868958 0.474884 0.653259
0.975983 0.449341 0.621277
0.002014 0.543854 0.668945
0.000519 0.543976 0.672516
0.004303 0.545502 0.676941
0.282562 0.539185 0.678955
0.627838 0.605194 0.706909
0.776367 0.649872 0.702362
0.867432 0.618500 0.678711
0.973938 0.571930 0.621765
0.001404 0.747375 0.712097
0.005432 0.743317 0.712097
0.136871 0.750793 0.713745
0.434143 0.752563 0.721191
0.631134 0.762573 0.734619
0.803680 0.773682 0.757751
0.886169 0.750793 0.709930
0.976349 0.720703 0.669464
0.404175 0.856171 0.757996
0.438324 0.859589 0.756744
0.517883 0.861481 0.766998
0.621002 0.857574 0.775482
0.722351 0.854797 0.776489
0.811127 0.854279 0.788483
0.876678 0.852264 0.753601
0.976593 0.851868 0.740540
0.595581 0.932953 0.808990
0.617340 0.931183 0.814301
0.657166 0.930054 0.813171
0.706879 0.931702 0.813538
0.780151 0.927002 0.824677
0.850739 0.923218 0.843536
0.887177 0.918671 0.836426
0.951813 0.929047 0.794189
0.000000 0.000000 0.765106
0.001892 0.000000 0.765594
0.232391 0.001007 0.773071
0.475494 0.002411 0.779266
0.689087 0.002014 0.789520
0.822144 0.159424 0.783051
0.925873 0.133606 0.769012
0.991028 0.241516 0.744965
0.002533 0.002533 0.769379
0.003418 0.000000 0.775482
0.250214 0.002899 0.774445
0.497650 0.000000 0.785217
0.684906 0.033295 0.790405
0.828857 0.260101 0.795959
0.920959 0.241119 0.775482
0.991028 0.305634 0.747131
0.000000 0.047028 0.780792
0.003418 0.045898 0.783173
0.246918 0.059814 0.787750
0.500061 0.127228 0.794067
0.689819 0.273376 0.796448
0.825958 0.414795 0.800385
0.910065 0.393677 0.775848
0.986969 0.418732 0.756744
0.000000 0.242004 0.784454
0.002411 0.259430 0.784058
0.131439 0.286377 0.800140
0.465515 0.349365 0.802551
0.678711 0.447052 0.807465
0.819489 0.571014 0.808350
0.908661 0.543060 0.787720
0.977875 0.540039 0.769531
0.000885 0.461121 0.771790
0.002258 0.457458 0.777374
0.000000 0.463135 0.780884
0.298370 0.496277 0.795685
0.629486 0.577759 0.806061
0.810760 0.671875 0.819244
0.896393 0.673889 0.804321
0.962433 0.654663 0.783173
0.003418 0.707672 0.806335
0.004547 0.707672 0.805450
0.004303 0.707153 0.801788
0.185425 0.703094 0.800873
0.499847 0.691864 0.809387
0.781677 0.749908 0.824432
0.893127 0.781799 0.830383
0.959534 0.752197 0.800751
0.000000 0.852264 0.828735
0.110718 0.855682 0.833923
0.327393 0.848328 0.833801
0.493591 0.852509 0.836578
0.653259 0.853149 0.839478
0.790253 0.862640 0.856171
0.897156 0.874908 0.860107
0.963074 0.848328 0.832123
0.568237 0.936493 0.865540
0.589874 0.940430 0.869324
0.636322 0.938660 0.873871
0.706238 0.937378 0.878571
0.779755 0.937500 0.879822
0.843903 0.939026 0.884644
0.903595 0.935242 0.892487
0.955597 0.932953 0.866547
0.162201 0.000000 0.903595
0.258820 0.000519 0.901337
0.421387 0.000000 0.906525
0.600250 0.000000 0.905518
0.753448 0.004059 0.912445
0.881348 0.337158 0.908417
0.951538 0.439728 0.896393
0.992920 0.424408 0.881592
0.157776 0.000000 0.903473
0.264526 0.000000 0.901825
0.426941 0.003052 0.907654
0.595825 0.002899 0.910583
0.755493 0.114380 0.907654
0.874268 0.385864 0.911835
0.958252 0.476288 0.902100
1.000000 0.460602 0.886017
0.097443 0.000000 0.901215
0.240479 0.000000 0.905884
0.409241 0.014648 0.914734
0.587463 0.132172 0.912201
0.748169 0.297546 0.909546
0.865784 0.471619 0.909821
0.946381 0.559143 0.901825
1.000000 0.534851 0.887909
0.000000 0.229065 0.911438
0.000366 0.239441 0.912201
0.328674 0.271820 0.912964
0.540802 0.341522 0.908661
0.720062 0.441986 0.914612
0.849854 0.571167 0.914124
0.932434 0.655518 0.907898
0.997742 0.628967 0.894501
0.002014 0.422791 0.906769
0.003937 0.423187 0.904602
0.009491 0.424194 0.909912
0.399292 0.476288 0.910950
0.660217 0.562714 0.906769
0.831757 0.656830 0.909698
0.922577 0.742584 0.908905
0.989899 0.718170 0.900452
0.000366 0.660248 0.906281
0.006836 0.651886 0.904755
0.002777 0.643524 0.902466
0.003296 0.620636 0.901825
0.487061 0.646454 0.908417
0.778625 0.726135 0.912598
0.909668 0.803680 0.919922
0.975708 0.800385 0.908661
0.004059 0.832123 0.916382
0.001007 0.835175 0.916260
0.002014 0.831635 0.918274
0.158752 0.823792 0.919800
0.482880 0.811249 0.909943
0.663391 0.805817 0.912598
0.884125 0.847687 0.922211
0.963440 0.877167 0.924225
0.365601 0.940430 0.935730
0.399109 0.937012 0.935608
0.472748 0.939667 0.936493
0.578735 0.932953 0.936127
0.681091 0.938141 0.942078
0.783691 0.934723 0.934723
0.884521 0.942322 0.933472
0.957245 0.952179 0.944733
