assets/luts/Presetpro - Polaroid Color.cube
#Created by: Adobe Photoshop Export Color Lookup Plugin
#Copyright: (C) Copyright 2022 Tim Martin and Presetpro.com
TITLE "Presetpro - Polaroid Color.jpg"
#LUT size
LUT_3D_SIZE 5
#data domain
#LUT data points
DOMAIN_MIN 0.000000 0.000000 0.000000
DOMAIN_MAX 0.903226 0.903226 0.903226
0.003937 0.070587 0.039215
0.132935 0.073639 0.040100
0.381378 0.008240 0.023529
0.645935 0.003937 0.001251
0.892609 0.003540 0.007080
0.000000 0.186951 0.043152
0.139893 0.211365 0.016968
0.440216 0.200500 0.008728
0.704376 0.169617 0.003052
0.916626 0.208832 0.000000
0.001770 0.395294 0.003937
0.138641 0.407074 0.000000
0.438446 0.450195 0.003540
0.735748 0.502197 0.001770
0.947510 0.581390 0.000000
0.037079 0.648590 0.000000
0.228973 0.652496 0.000000
0.463867 0.676422 0.001770
0.715271 0.716522 0.001251
0.938263 0.741821 0.000000
0.500458 0.833771 0.000000
0.539795 0.835419 0.000000
0.654755 0.843781 0.000000
0.807220 0.854156 0.000885
0.967499 0.876923 0.000763
0.000000 0.080200 0.213135
0.105499 0.088928 0.230591
0.364807 0.080597 0.194794
0.620636 0.000000 0.159515
0.878174 0.000000 0.108032
0.000000 0.203522 0.223145
0.148621 0.220093 0.229706
0.426300 0.204803 0.206573
0.677795 0.173035 0.175201
0.909180 0.181030 0.114105
0.002655 0.424896 0.220093
0.183044 0.422760 0.205688
0.454620 0.460693 0.164703
0.739166 0.520416 0.138153
0.942566 0.575317 0.095734
0.088440 0.669464 0.152039
0.245911 0.666412 0.136353
0.471222 0.687286 0.045258
0.719177 0.718658 0.000885
0.942047 0.740936 0.000885
0.484375 0.840729 0.066254
0.527130 0.839844 0.017548
0.645538 0.841614 0.000000
0.805084 0.855042 0.000366
0.967499 0.880463 0.000000
0.004303 0.117249 0.469818
0.003937 0.128143 0.485504
0.424530 0.123322 0.537872
0.628082 0.141174 0.427551
0.834534 0.000000 0.387451
0.000000 0.224915 0.463348
0.015289 0.234039 0.481201
0.454620 0.263245 0.542175
0.644653 0.246643 0.442352
0.841339 0.037781 0.376312
0.002167 0.451965 0.495514
0.176575 0.466400 0.494720
0.477661 0.508636 0.538239
0.716522 0.481201 0.474121
0.910828 0.475494 0.407074
0.057831 0.722595 0.497772
0.268951 0.720428 0.502441
0.475494 0.702972 0.458435
0.724365 0.725250 0.433258
0.937897 0.742188 0.442322
0.425964 0.855927 0.448059
0.475128 0.848572 0.429321
0.610260 0.847321 0.391388
0.777100 0.856049 0.339874
0.957123 0.881195 0.237793
0.000000 0.167358 0.742706
0.000000 0.177856 0.754486
0.369232 0.183044 0.793701
0.729553 0.231506 0.839355
0.878326 0.266418 0.751953
0.000000 0.260223 0.737000
0.000885 0.269318 0.757141
0.395782 0.292450 0.794067
0.729553 0.364838 0.836823
0.874634 0.365845 0.751434
0.001770 0.436279 0.707031
0.001770 0.451111 0.723999
0.410095 0.504730 0.773193
0.716888 0.604034 0.833282
0.859985 0.546600 0.731842
0.000000 0.721710 0.770172
0.242126 0.721710 0.770538
0.492096 0.730804 0.785339
0.730957 0.755737 0.818481
0.892609 0.720428 0.752319
0.483887 0.868195 0.812927
0.515991 0.871735 0.809875
0.602264 0.867676 0.795319
0.732208 0.856415 0.728790
0.927155 0.884247 0.708313
0.003540 0.292236 0.963562
0.088562 0.295258 0.957367
0.458679 0.315765 0.965729
0.712219 0.391266 0.971802
0.897675 0.546753 0.964691
0.000000 0.364075 0.952942
0.150665 0.370667 0.955994
0.466156 0.402008 0.960907
0.707916 0.478302 0.964325
0.896790 0.611633 0.969513
0.000366 0.529663 0.943573
0.143097 0.545868 0.950928
0.454773 0.568481 0.952179
0.698700 0.641602 0.957367
0.899445 0.703735 0.963318
0.000000 0.721313 0.935364
0.022491 0.711700 0.930420
0.373779 0.707794 0.927246
0.693115 0.742584 0.940796
0.916901 0.793549 0.956482
0.488678 0.861603 0.940796
0.533325 0.865143 0.944458
0.623413 0.871216 0.942566
0.761810 0.872864 0.938141
0.925476 0.912598 0.941162
