assets/luts/Presetpro - Fuji Film.cube
#Created by: Adobe Photoshop Export Color Lookup Plugin
#Copyright: (C) Copyright 2018 https://www.presetpro.com and Tim Martin
TITLE "Presetpro - Fuji Film"
#LUT size
LUT_3D_SIZE 8
#data domain
#LUT data points
DOMAIN_MIN 0.000000 0.000000 0.000000
DOMAIN_MAX 0.903226 0.903226 0.903226
0.048431 0.044434 0.044434
0.119141 0.051758 0.048615
0.303162 0.045868 0.043365
0.481018 0.043182 0.043182
0.608124 0.043182 0.043182
0.712524 0.043182 0.043182
0.790588 0.047638 0.047638
0.829742 0.063812 0.063812
0.077271 0.102539 0.071503
0.113708 0.122131 0.090698
0.228363 0.128510 0.080139
0.480255 0.118927 0.051697
0.668488 0.099854 0.048065
0.770233 0.097229 0.059540
0.839844 0.105164 0.074524
0.898926 0.118896 0.088959
0.074738 0.204559 0.086182
0.114838 0.229004 0.102875
0.241150 0.237244 0.084930
0.469116 0.239380 0.055023
0.653290 0.234131 0.043182
0.771942 0.231934 0.043182
0.846680 0.246124 0.048157
0.907013 0.268433 0.060211
0.081757 0.337769 0.091705
0.102203 0.378876 0.111542
0.243652 0.382996 0.088104
0.466644 0.391418 0.056976
0.653961 0.393066 0.043182
0.776489 0.396759 0.043182
0.854828 0.414673 0.043182
0.924438 0.435089 0.043182
0.094482 0.471008 0.103882
0.114655 0.511139 0.125092
0.231140 0.523224 0.103760
0.477783 0.527344 0.066101
0.672302 0.531891 0.043182
0.792603 0.538361 0.043182
0.876190 0.553101 0.043182
0.941162 0.572845 0.043182
0.113312 0.581329 0.131470
0.132263 0.619019 0.149933
0.205994 0.640259 0.132324
0.494781 0.637482 0.079376
0.692566 0.642487 0.045715
0.812714 0.649536 0.043182
0.901825 0.661102 0.043182
0.964478 0.679840 0.043182
0.131958 0.675293 0.168762
0.148804 0.713715 0.179932
0.199768 0.740906 0.167450
0.514557 0.731323 0.097626
0.715118 0.733887 0.060089
0.837524 0.742493 0.045837
0.933777 0.750366 0.043182
0.991791 0.768524 0.046722
0.151276 0.757416 0.241821
0.165375 0.797455 0.240875
0.208771 0.827179 0.219666
0.528656 0.816498 0.119720
0.735352 0.818878 0.074432
0.856049 0.826263 0.059235
0.956787 0.832733 0.048584
1.000000 0.849548 0.094910
0.052704 0.049805 0.091431
0.143280 0.055298 0.089233
0.354340 0.043304 0.069397
0.525879 0.043182 0.059418
0.645599 0.043182 0.051819
0.747284 0.043182 0.047516
0.806213 0.053070 0.056366
0.845947 0.068970 0.072083
0.082397 0.108734 0.108673
0.119537 0.130707 0.129395
0.238892 0.137177 0.120697
0.490479 0.124481 0.089233
0.677429 0.104645 0.074097
0.784210 0.100861 0.078033
0.854370 0.109772 0.090057
0.916260 0.121399 0.103424
0.080505 0.212372 0.133514
0.109955 0.244019 0.157501
0.246399 0.247986 0.138855
0.478729 0.248657 0.097260
0.668121 0.242706 0.064758
0.794586 0.236023 0.052399
0.860626 0.254333 0.061615
0.921234 0.276794 0.072205
0.084564 0.350281 0.152466
0.105499 0.392059 0.178345
0.225403 0.404388 0.151825
0.469910 0.408600 0.094147
0.671082 0.409851 0.051392
0.796509 0.410553 0.043182
0.875275 0.425201 0.043182
0.937439 0.448700 0.050629
0.092896 0.487366 0.181030
0.113464 0.527527 0.205383
0.166748 0.557648 0.190918
0.466278 0.550568 0.100739
0.678802 0.554474 0.048706
0.803131 0.557617 0.043182
0.888123 0.568420 0.043182
0.953461 0.587433 0.043182
0.107178 0.597778 0.230865
0.126251 0.635529 0.253021
0.153564 0.672577 0.245819
0.464478 0.661987 0.128265
0.690491 0.666229 0.058472
0.817505 0.671112 0.043182
0.909973 0.678192 0.043182
0.973480 0.695496 0.043182
0.123260 0.690033 0.296387
0.139313 0.728119 0.314209
0.161438 0.765259 0.316162
0.465057 0.752838 0.194611
0.705475 0.756073 0.090088
0.836731 0.764740 0.053253
0.938354 0.769318 0.043182
0.995056 0.785919 0.049988
0.140503 0.771423 0.371399
0.153870 0.810059 0.385010
0.168976 0.848846 0.394104
0.461670 0.835541 0.281158
0.716217 0.836365 0.140472
0.849243 0.846832 0.090637
0.957489 0.854797 0.053711
1.000000 0.868591 0.109192
0.056763 0.050018 0.221191
0.191895 0.049835 0.217651
0.369629 0.043396 0.179077
0.531494 0.043182 0.159149
0.647675 0.043182 0.152069
0.745209 0.043182 0.151764
0.816864 0.049164 0.155609
0.859161 0.064850 0.172394
0.072205 0.115753 0.221252
0.111176 0.138702 0.250854
0.244751 0.140472 0.238312
0.499481 0.122711 0.204193
0.684814 0.101288 0.191010
0.792755 0.096802 0.196533
0.863312 0.104462 0.214935
0.925415 0.115540 0.235626
0.073578 0.223480 0.257568
0.096680 0.260956 0.296875
0.223755 0.263763 0.277832
0.469666 0.255066 0.229034
0.662506 0.242584 0.189545
0.794373 0.231415 0.166077
0.862457 0.249725 0.175964
0.923859 0.272339 0.189240
0.075714 0.366852 0.292511
0.096344 0.410065 0.327667
0.161530 0.438080 0.325897
0.440735 0.421997 0.248932
0.654175 0.413940 0.187012
0.795807 0.410675 0.147461
0.874023 0.425598 0.144043
0.935181 0.450714 0.151825
0.082153 0.505310 0.333344
0.102203 0.544617 0.365936
0.117126 0.591614 0.388824
0.410919 0.568787 0.284088
0.651245 0.563477 0.198364
0.794586 0.565430 0.150909
0.887024 0.574097 0.134735
0.947998 0.594330 0.138916
0.095123 0.614380 0.384979
0.112610 0.652252 0.414093
0.124359 0.694336 0.433380
0.385315 0.682281 0.337036
0.654053 0.677399 0.232117
0.796906 0.681671 0.176514
0.901764 0.686768 0.146606
0.963257 0.704163 0.152039
0.112030 0.705109 0.446838
0.126099 0.742920 0.470734
0.139099 0.781982 0.490723
0.367920 0.774872 0.409180
0.668121 0.768097 0.293457
0.808929 0.773590 0.235260
0.918915 0.778259 0.189636
0.979279 0.794586 0.196014
0.127747 0.787262 0.506348
0.140717 0.824585 0.526764
0.154175 0.862488 0.545776
0.356812 0.859344 0.479462
0.681183 0.849243 0.358063
0.820618 0.855591 0.304962
0.933350 0.860260 0.257324
0.994415 0.876038 0.263153
0.081116 0.049438 0.354889
0.227051 0.044159 0.368378
0.410889 0.043182 0.314514
0.543732 0.043182 0.292145
0.656830 0.043182 0.290497
0.747955 0.043182 0.306824
0.822449 0.047394 0.321320
0.866608 0.062225 0.342957
0.072693 0.116852 0.365631
0.119537 0.138123 0.399536
0.272614 0.135529 0.396667
0.520691 0.113892 0.376801
0.696777 0.094940 0.376648
0.800659 0.091064 0.388275
0.869781 0.098633 0.413727
0.931580 0.108643 0.439819
0.070526 0.230438 0.409119
0.093750 0.270569 0.453186
0.221863 0.271240 0.443756
0.474030 0.256226 0.408447
0.662811 0.241943 0.381042
0.793701 0.228333 0.364929
0.861603 0.246094 0.383484
0.922211 0.268036 0.404633
0.069977 0.380310 0.445587
0.090454 0.423645 0.483551
0.137482 0.463959 0.504028
0.428925 0.433685 0.435730
0.643097 0.421753 0.388519
0.786713 0.415436 0.358032
0.866211 0.428436 0.361053
0.927521 0.452728 0.378754
0.075531 0.520355 0.483215
0.094360 0.560547 0.517700
0.107208 0.606873 0.545929
0.376312 0.585419 0.470276
0.631165 0.575531 0.403412
0.779968 0.575317 0.365173
0.873779 0.581421 0.352081
0.935272 0.600677 0.367371
0.087341 0.630188 0.526031
0.102478 0.668823 0.555023
0.114471 0.708984 0.578644
0.316498 0.702667 0.517670
0.627899 0.691223 0.432556
0.777832 0.692413 0.392212
0.886047 0.695435 0.366638
0.948029 0.711975 0.380890
0.103699 0.720673 0.573639
0.116669 0.758026 0.597626
0.129669 0.795837 0.619812
0.278625 0.797882 0.578979
0.640778 0.781921 0.483704
0.787476 0.785187 0.441071
0.901947 0.788361 0.406555
0.964447 0.803528 0.417084
0.117279 0.803009 0.615723
0.131317 0.838654 0.638336
0.144684 0.875702 0.658691
0.259613 0.885529 0.631958
0.654846 0.863708 0.533905
0.800354 0.867737 0.493927
0.917328 0.870972 0.457397
0.981537 0.885590 0.465546
0.127197 0.046753 0.444824
0.266418 0.043640 0.461975
0.443878 0.043182 0.423218
0.570709 0.043182 0.407867
0.670349 0.043182 0.414825
0.756134 0.043182 0.444733
0.825439 0.048462 0.467499
0.872162 0.062042 0.490875
0.080688 0.117615 0.492645
0.156860 0.128082 0.521027
0.326996 0.122009 0.530914
0.558472 0.099091 0.530548
0.713379 0.086548 0.535034
0.810364 0.084351 0.549316
0.876312 0.092743 0.571991
0.937317 0.102905 0.596130
0.070618 0.234802 0.534851
0.094452 0.280640 0.582581
0.250519 0.269287 0.576721
0.497437 0.250305 0.559967
0.672577 0.236176 0.549377
0.796753 0.222961 0.542480
0.863739 0.240906 0.560181
0.923187 0.262848 0.578033
0.067322 0.390198 0.571747
0.086151 0.434601 0.607574
0.140045 0.474396 0.632721
0.438507 0.437592 0.586578
0.643036 0.424896 0.559967
0.783386 0.417542 0.541901
0.861969 0.430695 0.547577
0.923004 0.454865 0.563660
0.071014 0.532288 0.604675
0.086945 0.573853 0.636017
0.101135 0.621735 0.667969
0.373322 0.595642 0.615662
0.621643 0.584015 0.575226
0.772217 0.582520 0.551147
0.864532 0.588104 0.545044
0.926453 0.606934 0.558960
0.080719 0.643646 0.638306
0.093536 0.682312 0.665131
0.106140 0.721649 0.690948
0.292145 0.716736 0.652557
0.612152 0.701477 0.599182
0.765259 0.701385 0.573425
0.873413 0.703674 0.558197
0.936218 0.719727 0.572083
0.094604 0.734894 0.675354
0.107880 0.770813 0.700226
0.120880 0.807709 0.723877
0.256378 0.813660 0.699524
0.620514 0.793457 0.634796
0.771484 0.795410 0.608582
0.887238 0.797699 0.587158
0.950378 0.812500 0.598053
0.108246 0.816711 0.710175
0.122131 0.851440 0.733429
0.135284 0.887817 0.755432
0.233459 0.903503 0.744049
0.633575 0.875702 0.669006
0.783539 0.878265 0.644012
0.902893 0.880951 0.622528
0.967896 0.894958 0.630859
0.168823 0.044403 0.519165
0.310059 0.043182 0.533142
0.471466 0.043182 0.509949
0.602844 0.043182 0.502533
0.687775 0.043182 0.508667
0.769653 0.043182 0.539581
0.830475 0.051666 0.558899
0.879486 0.064178 0.580597
0.107758 0.112457 0.578827
0.220001 0.112976 0.599548
0.398499 0.104370 0.612885
0.601898 0.089142 0.617554
0.732117 0.081085 0.619171
0.820923 0.081879 0.633575
0.883636 0.091248 0.653961
0.941711 0.101959 0.674347
0.076935 0.244965 0.621002
0.114044 0.282166 0.659210
0.308472 0.262939 0.650452
0.534882 0.243683 0.639557
0.692108 0.231934 0.636627
0.805389 0.220917 0.636200
0.870911 0.239136 0.653625
0.928833 0.261475 0.671082
0.069183 0.400421 0.650574
0.087585 0.454102 0.690704
0.183990 0.465179 0.695953
0.475739 0.437012 0.667419
0.658173 0.427124 0.652771
0.789185 0.419647 0.642822
0.864746 0.434326 0.651337
0.924469 0.458435 0.666534
0.070984 0.545166 0.681152
0.084534 0.587769 0.712189
0.101959 0.641602 0.750031
0.409698 0.599487 0.694397
0.631439 0.589966 0.668610
0.775391 0.587921 0.653595
0.864105 0.594391 0.652832
0.925354 0.613129 0.666443
0.077026 0.658539 0.711304
0.090179 0.696075 0.739044
0.103333 0.735382 0.766266
0.341858 0.721985 0.726624
0.618073 0.708893 0.690247
0.768768 0.708466 0.672729
0.871185 0.710815 0.664764
0.933472 0.726654 0.677612
0.090424 0.749268 0.745087
0.104431 0.784180 0.771179
0.117767 0.820282 0.796082
0.306152 0.818573 0.766724
0.623138 0.801941 0.719818
0.772614 0.803314 0.700195
0.883636 0.805389 0.686310
0.946167 0.820099 0.696869
0.103882 0.830963 0.776611
0.118225 0.865082 0.801178
0.132324 0.900696 0.825409
0.263336 0.909210 0.808167
0.634705 0.885071 0.749817
0.783813 0.886963 0.729706
0.899323 0.889191 0.713562
0.963501 0.903107 0.722626
0.213776 0.043243 0.566528
0.353516 0.043182 0.578461
0.501648 0.043182 0.571777
0.620941 0.043182 0.570801
0.708679 0.043182 0.585754
0.781738 0.044098 0.616455
0.836853 0.054352 0.636414
0.886810 0.065979 0.657288
0.172302 0.096771 0.643127
0.291290 0.097717 0.667450
0.472626 0.090027 0.681671
0.634552 0.081573 0.687653
0.751190 0.075592 0.691010
0.829681 0.079956 0.705902
0.888275 0.090057 0.723907
0.945190 0.101654 0.743652
0.082733 0.258575 0.699585
0.180145 0.263672 0.712769
0.369263 0.252502 0.713348
0.573364 0.234619 0.709198
0.711548 0.224548 0.711090
0.815765 0.217194 0.715393
0.879395 0.235931 0.732758
0.935883 0.258972 0.749786
0.071350 0.418060 0.723785
0.091064 0.475891 0.766144
0.264984 0.454102 0.750946
0.517822 0.433441 0.733704
0.677704 0.426971 0.726593
0.797974 0.420685 0.721283
0.869812 0.437592 0.731689
0.927887 0.461823 0.746582
0.068176 0.559174 0.746857
0.084595 0.605438 0.781677
0.138672 0.639740 0.804047
0.458374 0.599731 0.757446
0.648712 0.593933 0.741730
0.783691 0.591705 0.731384
0.866669 0.600159 0.734406
0.927032 0.618988 0.747864
0.073334 0.672363 0.774261
0.087219 0.708954 0.802338
0.105927 0.756653 0.837097
0.406219 0.722595 0.785767
0.632935 0.714203 0.762054
0.776978 0.713684 0.749146
0.872192 0.717316 0.745850
0.933838 0.733276 0.758759
0.087036 0.762329 0.806305
0.101471 0.796539 0.832794
0.115906 0.834229 0.860199
0.382202 0.819153 0.820862
0.634918 0.808502 0.788849
0.780640 0.809845 0.773560
0.883484 0.812439 0.764801
0.945099 0.827393 0.775940
0.100281 0.844299 0.836090
0.115479 0.877655 0.861664
0.130188 0.913605 0.886963
0.366241 0.907318 0.855682
0.644958 0.892487 0.817108
0.790649 0.894379 0.800964
0.898804 0.896698 0.789520
0.961945 0.911011 0.799957
0.260193 0.043182 0.595612
0.399994 0.043182 0.609741
0.533997 0.043182 0.616180
0.643799 0.043182 0.618134
0.730316 0.043182 0.636444
0.791382 0.048584 0.659271
0.845215 0.058594 0.680389
0.895508 0.069824 0.702728
0.237244 0.088623 0.681763
0.367584 0.090912 0.705719
0.532837 0.085266 0.717865
0.661835 0.081787 0.727295
0.772156 0.076233 0.735077
0.841217 0.082764 0.752472
0.897766 0.093170 0.771729
0.951996 0.104126 0.790985
0.118988 0.255829 0.739990
0.257172 0.249695 0.745361
0.439850 0.242096 0.751251
0.609711 0.228729 0.754028
0.732483 0.218872 0.759766
0.827545 0.215393 0.769653
0.888611 0.234467 0.788849
0.944061 0.257965 0.807739
0.076782 0.445038 0.783569
0.126770 0.474457 0.807068
0.344940 0.444641 0.790039
0.560852 0.429352 0.781097
0.699432 0.426300 0.781036
0.809540 0.421417 0.780457
0.876709 0.440735 0.794403
0.932709 0.465118 0.810516
0.070251 0.581818 0.805542
0.088898 0.630341 0.844269
0.214966 0.620331 0.832397
0.511688 0.598694 0.807281
0.671356 0.596466 0.800110
0.795013 0.593750 0.793823
0.871063 0.604797 0.801697
0.929932 0.623627 0.816772
0.071045 0.686951 0.828308
0.088593 0.730255 0.863617
0.147705 0.756165 0.880402
0.468262 0.722198 0.836090
0.653381 0.717926 0.823181
0.786896 0.716949 0.814819
0.874603 0.722412 0.816772
0.935120 0.738586 0.830963
0.084503 0.775879 0.861359
0.099396 0.809570 0.888336
0.120239 0.857239 0.923645
0.454285 0.818237 0.869690
0.652039 0.813293 0.851410
0.790161 0.814453 0.840057
0.884674 0.817993 0.835205
0.945007 0.833313 0.847321
0.097626 0.857880 0.891693
0.112823 0.890564 0.917328
0.130981 0.933929 0.948944
0.452606 0.905273 0.902618
0.660156 0.898376 0.880005
0.801239 0.900269 0.866547
0.899902 0.902893 0.858826
0.961243 0.917603 0.870300
