assets/luts/Presetpro - Moody Stock.cube
#Created by: Adobe Photoshop Export Color Lookup Plugin
#Copyright: (C) Copyright 2023 Tim Martin and Presetpro.com
TITLE "Moody Stock.jpg"
#LUT size
LUT_3D_SIZE 5
#data domain
#LUT data points
DOMAIN_MIN 0.000000 0.000000 0.000000
DOMAIN_MAX 0.903226 0.903226 0.903226
0.109802 0.113739 0.121582
0.163422 0.120697 0.117645
0.390991 0.133331 0.113739
0.702240 0.154327 0.083618
0.928650 0.246307 0.077667
0.095001 0.175201 0.130310
0.175201 0.194794 0.114624
0.458160 0.233643 0.079315
0.742188 0.269318 0.049591
0.937378 0.334839 0.027466
0.078430 0.420593 0.190002
0.196960 0.413635 0.186951
0.430206 0.471191 0.084106
0.763580 0.526489 0.001770
0.971405 0.514343 0.004303
0.278687 0.698181 0.343964
0.340546 0.691711 0.347504
0.470306 0.702972 0.314392
0.682495 0.729553 0.162323
0.935608 0.739899 0.000000
0.610260 0.846680 0.633789
0.625549 0.849854 0.640106
0.672607 0.851624 0.648712
0.737122 0.861481 0.596832
0.857300 0.873383 0.490723
0.095001 0.114624 0.191772
0.193939 0.107635 0.193542
0.431488 0.090576 0.198730
0.700836 0.157745 0.221008
0.921204 0.255402 0.224396
0.091095 0.203522 0.214417
0.203522 0.219208 0.224915
0.457672 0.236664 0.224426
0.738800 0.269836 0.215668
0.930786 0.335602 0.218323
0.150391 0.465515 0.288147
0.257568 0.455505 0.293335
0.468536 0.492950 0.234039
0.782288 0.519531 0.165192
0.968750 0.513824 0.178619
0.359283 0.710815 0.438080
0.405060 0.710815 0.436829
0.508301 0.708679 0.419373
0.696899 0.732208 0.310822
0.933441 0.736877 0.207703
0.630737 0.857178 0.670471
0.646790 0.851471 0.670837
0.690460 0.850220 0.677307
0.744843 0.859314 0.639984
0.859314 0.873749 0.547638
0.019989 0.115479 0.441589
0.241486 0.111572 0.454620
0.513947 0.084503 0.471191
0.782684 0.057678 0.448425
0.951813 0.208466 0.420227
0.003937 0.247559 0.467651
0.217957 0.233643 0.478149
0.535706 0.245392 0.495117
0.786224 0.281189 0.467651
0.946991 0.339661 0.448944
0.032593 0.518646 0.502960
0.279419 0.523438 0.511688
0.550018 0.546082 0.530396
0.754333 0.548218 0.515991
0.921204 0.563568 0.506470
0.490326 0.740936 0.617584
0.540405 0.739166 0.623657
0.603149 0.732574 0.614532
0.722076 0.746490 0.565186
0.929932 0.737000 0.515228
0.688690 0.862000 0.746490
0.692963 0.857178 0.744843
0.727875 0.861603 0.749268
0.772156 0.859833 0.732178
0.871613 0.871613 0.666901
0.005310 0.147766 0.716522
0.279816 0.146484 0.729553
0.561768 0.160034 0.736115
0.802795 0.228973 0.750549
0.958252 0.367615 0.705658
0.000000 0.268066 0.725983
0.268036 0.274628 0.729553
0.561401 0.307770 0.745239
0.797974 0.381927 0.754852
0.944336 0.477295 0.716522
0.001251 0.527374 0.730438
0.259094 0.533447 0.733093
0.553925 0.558746 0.749664
0.778015 0.614166 0.764069
0.916382 0.651978 0.743073
0.461609 0.762177 0.762177
0.512604 0.760925 0.765717
0.634155 0.762177 0.767883
0.776611 0.771301 0.781799
0.896393 0.762177 0.757385
0.741302 0.869843 0.826691
0.747009 0.872498 0.829346
0.782684 0.866791 0.835938
0.818848 0.863251 0.829346
0.884644 0.876801 0.790131
0.319672 0.300446 0.905518
0.415558 0.319305 0.909546
0.597076 0.368500 0.905121
0.787994 0.478821 0.900818
0.933716 0.562805 0.901581
0.346375 0.403290 0.902100
0.432007 0.420380 0.901215
0.605408 0.466522 0.905609
0.785339 0.549774 0.903870
0.930817 0.618988 0.902985
0.420868 0.605957 0.902222
0.464752 0.602386 0.893372
0.615936 0.627686 0.898285
0.784058 0.675140 0.898163
0.917633 0.708649 0.899048
0.467072 0.757385 0.890320
0.507904 0.758759 0.890320
0.597229 0.751678 0.891205
0.777100 0.774963 0.896515
0.914215 0.801910 0.902985
0.705139 0.881592 0.901947
0.720062 0.881592 0.898041
0.763947 0.881989 0.903351
0.831512 0.882477 0.906006
0.913361 0.885895 0.913361
