assets/luts/Presetpro - Moody Film.cube
#Created by: Adobe Photoshop Export Color Lookup Plugin
#Copyright: (C) Copyright 2022 Tim Martin and Presetpro.com
TITLE "Presetpro - Moody Film.jpg"
#LUT size
LUT_3D_SIZE 5
#data domain
#LUT data points
DOMAIN_MIN 0.000000 0.000000 0.000000
DOMAIN_MAX 0.903226 0.903226 0.903226
0.109802 0.094116 0.082367
0.190002 0.105896 0.085388
0.381775 0.113739 0.082367
0.666931 0.132080 0.057434
0.939270 0.253387 0.007477
0.110687 0.165588 0.106781
0.191284 0.176086 0.097168
0.421112 0.196564 0.078033
0.705261 0.239716 0.045654
0.946228 0.340027 0.003540
0.002167 0.360016 0.164703
0.120697 0.368347 0.150391
0.420593 0.406677 0.117645
0.753571 0.482086 0.011780
0.969269 0.539642 0.002167
0.001251 0.668182 0.317780
0.000885 0.671753 0.285645
0.381897 0.679077 0.300079
0.719177 0.711334 0.244659
0.958618 0.759644 0.255920
0.336243 0.900452 0.616943
0.361816 0.898163 0.598999
0.552063 0.902222 0.615204
0.740540 0.906128 0.623901
0.913727 0.916504 0.600891
0.113739 0.102844 0.147736
0.204407 0.106781 0.158630
0.383545 0.121582 0.153839
0.668182 0.146881 0.162537
0.927887 0.252869 0.140411
0.127655 0.178253 0.171265
0.212646 0.184814 0.173035
0.409332 0.203522 0.175201
0.699554 0.241486 0.170898
0.945618 0.340027 0.149139
0.000885 0.380493 0.259308
0.177734 0.390106 0.250214
0.441101 0.418457 0.222260
0.758392 0.482971 0.198730
0.965729 0.542297 0.202759
0.003052 0.674255 0.413300
0.000000 0.678192 0.404541
0.413757 0.687805 0.395081
0.719177 0.715271 0.354462
0.954834 0.760925 0.369781
0.386597 0.899933 0.656799
0.445404 0.900818 0.654785
0.563324 0.898163 0.644653
0.745728 0.906891 0.652496
0.918793 0.919556 0.636047
0.039978 0.127258 0.343933
0.197845 0.127258 0.360901
0.453369 0.118042 0.371399
0.717896 0.132935 0.349121
0.907928 0.235931 0.348877
0.049103 0.212250 0.366211
0.190002 0.213135 0.383148
0.469421 0.222260 0.401886
0.720062 0.245392 0.373535
0.919678 0.332581 0.383667
0.001770 0.410980 0.445526
0.151672 0.419708 0.449432
0.475494 0.455902 0.471588
0.733612 0.481201 0.453735
0.942200 0.535736 0.453369
0.000000 0.700439 0.570129
0.067780 0.702240 0.570526
0.487762 0.706909 0.581909
0.731323 0.729675 0.564453
0.943451 0.771912 0.571533
0.266815 0.906891 0.706512
0.409485 0.906525 0.711700
0.613800 0.906525 0.727905
0.755341 0.907410 0.729279
0.920441 0.920441 0.712189
0.001251 0.171295 0.644653
0.118134 0.163055 0.658569
0.506500 0.134216 0.682098
0.793701 0.184448 0.673370
0.965332 0.398102 0.651123
0.000885 0.266785 0.652130
0.093842 0.252380 0.668335
0.507385 0.258057 0.692627
0.797974 0.310822 0.691711
0.956116 0.467316 0.666931
0.002167 0.472473 0.676910
0.011505 0.472992 0.672119
0.474609 0.488159 0.701202
0.774963 0.541809 0.711700
0.931671 0.597229 0.686035
0.007843 0.708679 0.730957
0.124603 0.710449 0.726013
0.490814 0.722198 0.735229
0.751801 0.751801 0.751801
0.920044 0.759644 0.724365
0.167999 0.921326 0.807587
0.326996 0.915619 0.808868
0.556610 0.916901 0.812775
0.778748 0.913849 0.817963
0.920807 0.922089 0.808472
0.000000 0.281586 0.884003
0.290710 0.285126 0.883484
0.591644 0.300049 0.890442
0.856567 0.364197 0.897400
0.999634 0.530670 0.884369
0.000366 0.369385 0.885651
0.281464 0.376709 0.882599
0.579376 0.394562 0.890839
0.843781 0.453125 0.900452
0.998352 0.581024 0.884247
0.000366 0.558502 0.876923
0.207977 0.561035 0.876526
0.544952 0.576324 0.883362
0.812927 0.620361 0.894379
0.973572 0.694763 0.890839
0.000885 0.756500 0.894745
0.166992 0.757629 0.888184
0.472992 0.755737 0.886902
0.751801 0.772308 0.891724
0.947876 0.819366 0.904358
0.287537 0.917267 0.916504
0.383820 0.918671 0.910431
0.565338 0.917267 0.920441
0.756989 0.922699 0.919159
0.929047 0.936127 0.924744
