assets/luts/Presetpro - Vibe.cube
#Created by: Adobe Photoshop Export Color Lookup Plugin
#Copyright: (C) Copyright 2022 Tim Martin and Presetpro.com
TITLE "Presetpro - Vibe.jpg"
#LUT size
LUT_3D_SIZE 5
#data domain
#LUT data points
DOMAIN_MIN 0.000000 0.000000 0.000000
DOMAIN_MAX 0.903226 0.903226 0.903226
0.039215 0.035309 0.019623
0.122467 0.046173 0.029602
0.369232 0.047455 0.010010
0.764984 0.000000 0.000000
1.000000 0.218475 0.000000
0.003937 0.132935 0.035309
0.106781 0.156464 0.012634
0.411987 0.196564 0.000000
0.788116 0.218842 0.001770
1.000000 0.333954 0.006439
0.001770 0.465515 0.002167
0.000000 0.479034 0.000000
0.433746 0.494720 0.003937
0.815948 0.516479 0.000000
0.997864 0.543945 0.004303
0.000000 0.756989 0.264282
0.000000 0.762817 0.266937
0.464752 0.761810 0.230408
0.798859 0.758392 0.000000
0.994293 0.760529 0.000000
0.495392 0.920441 0.586731
0.543823 0.919037 0.596710
0.645538 0.917267 0.604553
0.784058 0.922974 0.562805
0.951813 0.920807 0.427979
0.035309 0.047058 0.115479
0.132050 0.047943 0.111176
0.388458 0.036957 0.115479
0.776733 0.016693 0.132935
0.996948 0.246796 0.109528
0.000000 0.155579 0.130798
0.121582 0.176086 0.141663
0.427185 0.202637 0.131165
0.796356 0.231110 0.115479
0.996460 0.351807 0.077271
0.002167 0.468170 0.239319
0.000885 0.485992 0.217957
0.468658 0.504730 0.139526
0.816711 0.513824 0.006195
0.996216 0.553192 0.000000
0.000885 0.751312 0.427704
0.087799 0.756104 0.397614
0.506134 0.761932 0.396881
0.798859 0.760559 0.274261
0.992279 0.762695 0.131073
0.549408 0.913849 0.641235
0.581543 0.915619 0.640717
0.667297 0.919037 0.643768
0.788757 0.923340 0.618469
0.949158 0.921326 0.511963
0.000000 0.074127 0.416687
0.006958 0.069305 0.407196
0.453735 0.000000 0.422760
0.820740 0.030884 0.406677
0.993927 0.343597 0.467682
0.000885 0.200500 0.438049
0.003540 0.202271 0.444122
0.485107 0.198334 0.449829
0.815430 0.287262 0.443756
0.981018 0.457703 0.507782
0.002167 0.485107 0.479034
0.002167 0.493835 0.483856
0.524323 0.520416 0.504730
0.805450 0.536987 0.496490
0.976105 0.586700 0.498657
0.272888 0.744873 0.587097
0.413422 0.742584 0.598846
0.601501 0.757874 0.606323
0.796722 0.766602 0.561798
0.978241 0.760559 0.502441
0.623413 0.910828 0.730408
0.663879 0.909943 0.738251
0.712189 0.920441 0.730042
0.808472 0.922577 0.725739
0.942200 0.924347 0.662994
0.000000 0.129425 0.698303
0.000885 0.126892 0.697052
0.483459 0.046692 0.697418
0.832916 0.015961 0.700836
0.999634 0.395081 0.689575
0.001251 0.260712 0.706512
0.000000 0.265900 0.706024
0.504852 0.245422 0.706146
0.832764 0.277802 0.715515
0.994446 0.490814 0.702606
0.005188 0.514709 0.718292
0.004791 0.517761 0.713837
0.536987 0.528259 0.721710
0.816711 0.546997 0.727386
0.966095 0.648560 0.727020
0.267059 0.745239 0.736115
0.398987 0.740417 0.737885
0.611511 0.749146 0.744873
0.807983 0.764832 0.756989
0.942932 0.780518 0.747375
0.601898 0.908661 0.804047
0.635040 0.904236 0.800629
0.727753 0.909943 0.815063
0.832764 0.920807 0.829742
0.940796 0.927765 0.795837
0.187378 0.292969 0.897278
0.371796 0.295258 0.898682
0.626556 0.289703 0.894745
0.849091 0.308929 0.892975
0.999634 0.436554 0.892975
0.245789 0.401520 0.896912
0.399231 0.397583 0.901337
0.632111 0.398987 0.895630
0.839844 0.411255 0.892975
0.999634 0.505768 0.896515
0.207458 0.569641 0.893372
0.381653 0.574951 0.901337
0.627319 0.588470 0.892975
0.820251 0.594543 0.892609
0.982178 0.637695 0.891602
0.384338 0.764069 0.900055
0.453888 0.764954 0.899567
0.602386 0.760162 0.893860
0.793182 0.764832 0.898163
0.956116 0.784943 0.897797
0.571777 0.905121 0.912964
0.612396 0.908661 0.909546
0.696899 0.911194 0.914368
0.817200 0.913849 0.914368
0.944733 0.928650 0.923981
