assets/luts/Presetpro - Fuji Film.cube
#Created by: Adobe Photoshop Export Color Lookup Plugin
#Copyright: (C) Copyright 2018 https://www.presetpro.com and Tim Martin
TITLE "Presetpro - Fuji Film"
#LUT size
LUT_3D_SIZE 5
#data domain
#LUT data points
DOMAIN_MIN 0.000000 0.000000 0.000000
DOMAIN_MAX 0.903226 0.903226 0.903226
0.048431 0.044434 0.044434
0.251343 0.047852 0.043732
0.549866 0.043182 0.043182
0.736847 0.043182 0.043182
0.829742 0.063812 0.063812
0.076416 0.174713 0.082367
0.199463 0.203430 0.091370
0.575745 0.200287 0.046265
0.793365 0.194916 0.044922
0.903595 0.226471 0.066742
0.088409 0.405853 0.097168
0.180023 0.456909 0.106628
0.588013 0.462982 0.043427
0.807648 0.474731 0.043182
0.929443 0.511230 0.043182
0.118286 0.606384 0.139282
0.158417 0.670319 0.156250
0.611176 0.663574 0.064148
0.845337 0.674927 0.043182
0.972321 0.703064 0.043182
0.151276 0.757416 0.241821
0.176849 0.827667 0.238159
0.646729 0.817139 0.092407
0.882721 0.827118 0.055634
1.000000 0.849548 0.094910
0.053955 0.049957 0.188965
0.318268 0.044006 0.155487
0.592834 0.043182 0.120697
0.769409 0.043182 0.115265
0.856354 0.066345 0.132996
0.074799 0.190430 0.211273
0.190216 0.225342 0.232025
0.582764 0.209503 0.161011
0.809723 0.198273 0.132507
0.922485 0.230347 0.147827
0.081146 0.434967 0.270416
0.113739 0.515564 0.320526
0.570618 0.493835 0.164154
0.829163 0.494141 0.095398
0.945038 0.530792 0.094086
0.102051 0.634491 0.361786
0.128723 0.702728 0.400604
0.562775 0.698578 0.237091
0.837891 0.704529 0.124451
0.973511 0.727997 0.104218
0.130066 0.783173 0.477386
0.153320 0.849274 0.510620
0.576294 0.847443 0.365936
0.856873 0.853790 0.236237
0.998901 0.874207 0.199677
0.102783 0.048096 0.401978
0.390106 0.043182 0.377075
0.613342 0.043182 0.350128
0.770996 0.043182 0.391510
0.869141 0.061523 0.425354
0.070282 0.198456 0.473297
0.197571 0.232605 0.513153
0.592194 0.205048 0.474518
0.813019 0.188385 0.466827
0.923889 0.219116 0.503357
0.069275 0.460052 0.534454
0.098450 0.542175 0.592896
0.538452 0.513824 0.503784
0.809052 0.504089 0.448547
0.927002 0.536469 0.468719
0.087646 0.660583 0.599091
0.110504 0.727386 0.642548
0.507538 0.724945 0.563141
0.806702 0.722809 0.489594
0.944458 0.741425 0.486237
0.112000 0.809814 0.666962
0.136230 0.872162 0.705109
0.517120 0.875031 0.638947
0.824371 0.874237 0.568512
0.974854 0.890656 0.555908
0.179749 0.043915 0.534637
0.441620 0.043182 0.527924
0.654114 0.043182 0.519135
0.790192 0.044373 0.566956
0.881287 0.064636 0.600861
0.081116 0.212982 0.632874
0.291718 0.219818 0.656982
0.636932 0.192291 0.651367
0.828735 0.178375 0.662170
0.935211 0.210297 0.694672
0.068390 0.481506 0.682587
0.105530 0.569733 0.744690
0.566925 0.519531 0.684143
0.812103 0.511078 0.663696
0.924835 0.545685 0.685913
0.079346 0.685638 0.735596
0.102814 0.749481 0.782837
0.523804 0.737579 0.727539
0.802246 0.736145 0.693176
0.935242 0.754028 0.701447
0.102905 0.834351 0.791473
0.128418 0.894501 0.834930
0.536682 0.889679 0.781799
0.819031 0.889587 0.743744
0.963043 0.905182 0.742493
0.260193 0.043182 0.595612
0.502777 0.043182 0.613434
0.690216 0.043182 0.621094
0.804688 0.050995 0.664276
0.895508 0.069824 0.702728
0.156891 0.201538 0.719482
0.412445 0.198883 0.739624
0.685455 0.174805 0.751099
0.851013 0.167755 0.774963
0.952179 0.201691 0.810760
0.071198 0.522003 0.794617
0.207001 0.548767 0.815216
0.613617 0.522217 0.791626
0.825836 0.516632 0.786011
0.930634 0.553650 0.813019
0.074249 0.709991 0.836609
0.104645 0.786163 0.897125
0.571777 0.744141 0.833740
0.814850 0.743317 0.817627
0.936493 0.764282 0.833984
0.097626 0.857880 0.891693
0.125763 0.920227 0.939331
0.578827 0.898407 0.887115
0.830414 0.900238 0.863190
0.961243 0.917603 0.870300
