assets/luts/Presetpro - Polaroid Color.cube
#Created by: Adobe Photoshop Export Color Lookup Plugin
#Copyright: (C) Copyright 2022 Tim Martin and Presetpro.com
TITLE "Presetpro - Polaroid Color.jpg"
#LUT size
LUT_3D_SIZE 8
#data domain
#LUT data points
DOMAIN_MIN 0.000000 0.000000 0.000000
DOMAIN_MAX 0.903226 0.903226 0.903226
0.003937 0.070587 0.039215
0.033905 0.071106 0.035309
0.163818 0.069580 0.037201
0.300171 0.039215 0.029846
0.451233 0.003937 0.025421
0.604828 0.000000 0.010376
0.756378 0.000000 0.000000
0.892609 0.003540 0.007080
0.000000 0.122589 0.039734
0.029968 0.130920 0.032379
0.187836 0.127014 0.034790
0.333466 0.114227 0.034271
0.487549 0.072968 0.017700
0.629852 0.004059 0.000519
0.771423 0.000000 0.000519
0.912598 0.004028 0.000000
0.000000 0.213776 0.044037
0.001007 0.222626 0.034271
0.186462 0.239349 0.004944
0.360016 0.239349 0.000000
0.532715 0.237427 0.000000
0.681732 0.225677 0.001404
0.813049 0.233643 0.001892
0.922089 0.259430 0.000000
0.004822 0.329132 0.025940
0.001526 0.336853 0.014160
0.176086 0.352173 0.000000
0.353577 0.372284 0.000000
0.537415 0.386078 0.002411
0.704254 0.412628 0.000000
0.844421 0.456787 0.002411
0.949005 0.482697 0.006561
0.000000 0.462891 0.001892
0.006439 0.461121 0.001892
0.191254 0.474792 0.002899
0.350769 0.501709 0.003937
0.517914 0.533600 0.000000
0.682465 0.564972 0.002014
0.825806 0.606354 0.000000
0.942078 0.634674 0.002014
0.003937 0.612671 0.002533
0.093475 0.611267 0.000000
0.239594 0.618988 0.000000
0.379761 0.639099 0.001526
0.526398 0.664520 0.000000
0.671234 0.688568 0.005066
0.809631 0.705261 0.000000
0.941437 0.718781 0.000000
0.260864 0.739410 0.003052
0.303253 0.741943 0.001770
0.374084 0.745483 0.002014
0.472229 0.752686 0.000885
0.589661 0.761932 0.000000
0.715118 0.772797 0.000885
0.827850 0.773834 0.003937
0.936127 0.790009 0.000000
0.500458 0.833771 0.000000
0.508423 0.835052 0.003052
0.558136 0.834167 0.000366
0.620758 0.839600 0.002777
0.697174 0.842377 0.002411
0.782928 0.852386 0.001007
0.879944 0.865662 0.000000
0.967499 0.876923 0.000763
0.003937 0.074005 0.123596
0.009369 0.078949 0.121674
0.152557 0.083374 0.108398
0.296265 0.061737 0.108276
0.449219 0.003418 0.097534
0.600403 0.000000 0.082489
0.748383 0.000000 0.053375
0.889069 0.000000 0.001007
0.000000 0.126495 0.123596
0.013794 0.131439 0.139282
0.176575 0.134857 0.126495
0.328644 0.123077 0.110809
0.476288 0.088806 0.111694
0.624664 0.020996 0.088684
0.769897 0.002533 0.061218
0.900574 0.001404 0.006958
0.000000 0.228577 0.132446
0.004028 0.228088 0.126495
0.194672 0.241364 0.104980
0.362030 0.243256 0.112213
0.533600 0.248688 0.102966
0.672363 0.229095 0.076019
0.803680 0.227173 0.019104
0.928528 0.256653 0.000519
0.005432 0.343811 0.117767
0.007080 0.348633 0.118164
0.193298 0.359009 0.102478
0.366852 0.381012 0.048065
0.547394 0.395325 0.002533
0.707153 0.419342 0.004303
0.844910 0.459320 0.001007
0.943085 0.479309 0.009247
0.000000 0.473755 0.095490
0.042389 0.472870 0.090057
0.208466 0.482117 0.059814
0.355713 0.504639 0.000000
0.523743 0.535614 0.001892
0.686035 0.572052 0.000519
0.828339 0.607849 0.004059
0.942200 0.640991 0.001526
0.000519 0.620514 0.003906
0.118683 0.617981 0.004059
0.247437 0.621521 0.000000
0.383698 0.645569 0.001404
0.534119 0.666046 0.000000
0.674774 0.691986 0.000000
0.812653 0.710052 0.003418
0.942047 0.718658 0.000519
0.268311 0.746368 0.000000
0.304108 0.747131 0.000000
0.375458 0.746368 0.003418
0.473999 0.752197 0.001007
0.594208 0.759003 0.001892
0.713226 0.771912 0.002533
0.825806 0.778259 0.000000
0.940552 0.786591 0.000885
0.498810 0.837585 0.000000
0.511841 0.837708 0.000000
0.550171 0.837585 0.000000
0.616180 0.840607 0.001648
0.690948 0.845032 0.000885
0.782928 0.854156 0.000366
0.874908 0.865143 0.005951
0.970154 0.877289 0.006073
0.000000 0.087280 0.251099
0.002899 0.090698 0.254517
0.142303 0.094116 0.266785
0.287018 0.104492 0.221252
0.436584 0.065643 0.215820
0.565979 0.001526 0.193298
0.718781 0.000000 0.167877
0.871979 0.000000 0.147888
0.000519 0.139282 0.245789
0.000519 0.143707 0.252625
0.168732 0.154968 0.270721
0.310425 0.152039 0.245148
0.449341 0.115753 0.227051
0.594452 0.021118 0.194794
0.743073 0.000519 0.182159
0.886292 0.000000 0.149506
0.006836 0.224670 0.256042
0.001526 0.236938 0.259949
0.191376 0.256927 0.268799
0.353180 0.246155 0.252625
0.506287 0.231506 0.231628
0.647827 0.216827 0.222015
0.784698 0.209991 0.193146
0.903229 0.224670 0.151550
0.000000 0.370270 0.265900
0.037323 0.372284 0.273102
0.207581 0.372681 0.259338
0.381531 0.391388 0.242737
0.559662 0.406189 0.238312
0.706268 0.438965 0.235046
0.830231 0.442108 0.204681
0.934723 0.456268 0.158356
0.000000 0.502228 0.249084
0.083130 0.499298 0.244781
0.232361 0.494507 0.238312
0.370758 0.519409 0.212891
0.529816 0.548401 0.182526
0.689301 0.584595 0.148987
0.828583 0.616974 0.149872
0.943573 0.646301 0.161377
0.019745 0.642517 0.210358
0.140045 0.639099 0.209351
0.257690 0.641510 0.198090
0.392914 0.649841 0.172150
0.537506 0.672363 0.126343
0.684143 0.689575 0.033203
0.816071 0.708679 0.000519
0.940552 0.723724 0.004059
0.274261 0.751312 0.167847
0.301849 0.756744 0.157349
0.375092 0.750153 0.140259
0.475403 0.752686 0.111176
0.589661 0.759888 0.040314
0.715637 0.771301 0.002533
0.828857 0.776733 0.002014
0.949280 0.786102 0.001007
0.485138 0.839081 0.141785
0.499176 0.836945 0.134827
0.538269 0.839081 0.110168
0.606445 0.838470 0.057526
0.687439 0.844910 0.004059
0.774445 0.857300 0.000000
0.874390 0.866180 0.001892
0.962799 0.877289 0.003296
0.002411 0.108276 0.386444
0.002533 0.113220 0.398346
0.025177 0.115753 0.413513
0.323700 0.116760 0.444397
0.465027 0.118164 0.380127
0.584076 0.104340 0.350128
0.699951 0.003937 0.324585
0.824036 0.001526 0.292725
0.001526 0.153961 0.395172
0.002411 0.161804 0.405060
0.089813 0.171143 0.422760
0.338898 0.175079 0.440460
0.468445 0.174072 0.387970
0.590149 0.146606 0.355957
0.708527 0.036133 0.329498
0.844910 0.000885 0.283081
0.000000 0.242249 0.384552
0.000000 0.245667 0.397217
0.163818 0.261841 0.421753
0.356201 0.278564 0.438934
0.485016 0.273590 0.397705
0.614044 0.226562 0.364807
0.736511 0.140778 0.320801
0.883118 0.088562 0.287781
0.001526 0.371399 0.414520
0.007324 0.379608 0.410980
0.217316 0.391876 0.426178
0.390381 0.410614 0.444397
0.544861 0.403137 0.418304
0.678192 0.390503 0.391876
0.800385 0.386444 0.359009
0.912964 0.396942 0.320160
0.000000 0.537140 0.431213
0.065765 0.541931 0.429565
0.241364 0.544983 0.423767
0.385437 0.546356 0.406433
0.544861 0.569885 0.395294
0.704254 0.598877 0.390991
0.827698 0.628723 0.409943
0.931580 0.631775 0.380768
0.019257 0.677551 0.406677
0.141418 0.678680 0.404144
0.266907 0.672882 0.392395
0.398224 0.667938 0.370758
0.539551 0.688568 0.353668
0.686157 0.701721 0.340393
0.824921 0.718781 0.324585
0.938019 0.726257 0.336853
0.257446 0.765961 0.373169
0.299683 0.764465 0.365326
0.370026 0.765350 0.357605
0.461609 0.760529 0.332428
0.586975 0.762054 0.315338
0.711334 0.774200 0.291046
0.829987 0.781677 0.256134
0.942444 0.787354 0.219452
0.447571 0.846680 0.344818
0.464783 0.848938 0.344330
0.510559 0.847961 0.329407
0.580780 0.842377 0.305603
0.668457 0.844421 0.276001
0.764343 0.853760 0.241608
0.866150 0.866669 0.165558
0.959778 0.877289 0.004547
0.002014 0.131561 0.549408
0.002014 0.135376 0.551300
0.002899 0.140289 0.571930
0.270447 0.142212 0.601410
0.523865 0.131561 0.633789
0.636719 0.141174 0.565979
0.732849 0.161804 0.503357
0.841003 0.042053 0.476044
0.001526 0.175079 0.543091
0.000000 0.177979 0.554352
0.004059 0.189758 0.569031
0.292938 0.196594 0.604309
0.538025 0.198730 0.641144
0.640625 0.201141 0.559784
0.740173 0.203033 0.512756
0.850739 0.102509 0.478699
0.001892 0.260834 0.536652
0.000000 0.265778 0.545227
0.051025 0.272736 0.564941
0.328247 0.289307 0.598877
0.549286 0.309174 0.637726
0.644562 0.304108 0.571442
0.742584 0.281464 0.519958
0.851746 0.189880 0.481506
0.001526 0.362396 0.537018
0.006836 0.362030 0.538544
0.151520 0.381134 0.552826
0.354065 0.409973 0.588501
0.555603 0.458557 0.629364
0.651733 0.433136 0.570435
0.762695 0.367493 0.520569
0.864014 0.273651 0.456573
0.002014 0.531830 0.578766
0.003937 0.541565 0.582184
0.218842 0.553345 0.582672
0.386597 0.572449 0.599884
0.555237 0.608246 0.625702
0.682098 0.590027 0.593567
0.800385 0.569031 0.546509
0.907013 0.556000 0.493774
0.099976 0.707153 0.609772
0.176117 0.708557 0.603424
0.297028 0.708679 0.603943
0.422913 0.706146 0.598022
0.539551 0.701843 0.577881
0.687408 0.716888 0.562714
0.820648 0.723846 0.565735
0.934479 0.733734 0.597870
0.280090 0.781525 0.588501
0.314392 0.784943 0.589905
0.392548 0.779633 0.582825
0.466034 0.777100 0.555237
0.569031 0.768005 0.523743
0.693878 0.776733 0.508423
0.818970 0.783569 0.497162
0.939026 0.794434 0.485291
0.411896 0.856537 0.559814
0.425934 0.856171 0.551453
0.473969 0.852753 0.540436
0.548004 0.852112 0.513000
0.636688 0.849091 0.477692
0.742188 0.854279 0.461121
0.844269 0.866547 0.423309
0.955353 0.880463 0.392303
0.001404 0.159393 0.706787
0.000000 0.163330 0.709564
0.005951 0.166595 0.723480
0.234619 0.172668 0.750427
0.489960 0.177612 0.777374
0.695007 0.206207 0.807343
0.792542 0.211151 0.756378
0.869446 0.245789 0.692993
0.000000 0.202545 0.704376
0.004547 0.204926 0.710205
0.000519 0.211395 0.722961
0.256012 0.216827 0.740936
0.502869 0.227570 0.780792
0.701355 0.262115 0.806854
0.795959 0.262634 0.755219
0.873871 0.281738 0.693756
0.000000 0.275787 0.701477
0.003296 0.279572 0.707794
0.001526 0.287903 0.720306
0.289917 0.302094 0.741058
0.515015 0.327637 0.777252
0.697784 0.373444 0.806213
0.787750 0.363068 0.751434
0.864532 0.366486 0.682861
0.001526 0.377106 0.682220
0.002014 0.384064 0.692871
0.025757 0.396332 0.707642
0.315460 0.419342 0.734741
0.516266 0.459198 0.768372
0.690308 0.519531 0.803314
0.778259 0.492096 0.744751
0.862488 0.461090 0.685150
0.002014 0.519440 0.696533
0.001892 0.518036 0.691986
0.082855 0.530182 0.698181
0.312439 0.539032 0.701813
0.505646 0.596466 0.749908
0.686920 0.653290 0.793793
0.759003 0.621918 0.734253
0.861481 0.533234 0.663635
0.000000 0.692474 0.733093
0.043304 0.691833 0.732849
0.247437 0.693481 0.732452
0.407196 0.705627 0.748413
0.558289 0.717896 0.771545
0.695007 0.734467 0.789124
0.797729 0.716888 0.756744
0.896912 0.694244 0.709320
0.385345 0.791412 0.777222
0.400269 0.794037 0.783173
0.454407 0.792786 0.779144
0.524841 0.794678 0.776245
0.603302 0.793793 0.765594
0.691467 0.784576 0.739166
0.811768 0.790894 0.729309
0.926636 0.798737 0.737396
0.463501 0.868317 0.774841
0.480957 0.868073 0.771667
0.514099 0.862488 0.769531
0.563416 0.866547 0.751678
0.620361 0.862122 0.723724
0.710205 0.856293 0.681244
0.816071 0.868195 0.664520
0.925751 0.882233 0.651764
0.000000 0.206970 0.848328
0.000000 0.206970 0.855286
0.000000 0.209869 0.862122
0.251099 0.217834 0.874023
0.485535 0.231628 0.889709
0.672882 0.273376 0.911346
0.816956 0.347626 0.915009
0.907654 0.355621 0.893127
0.001770 0.240112 0.854797
0.000885 0.245789 0.860596
0.001007 0.249084 0.861481
0.265747 0.255157 0.868439
0.497192 0.271851 0.885773
0.670349 0.315765 0.901855
0.814423 0.393188 0.918030
0.903351 0.395721 0.893127
0.002014 0.308014 0.842651
0.000000 0.311951 0.850861
0.005951 0.318787 0.858185
0.292084 0.333588 0.869965
0.499329 0.356354 0.883759
0.674408 0.408356 0.899811
0.807098 0.490845 0.912964
0.891327 0.479065 0.884521
0.003052 0.413910 0.839600
0.000885 0.414551 0.838074
0.003418 0.417450 0.854004
0.304718 0.435028 0.861603
0.503876 0.471985 0.876923
0.665039 0.538147 0.894257
0.799744 0.607330 0.906281
0.883759 0.579376 0.881226
0.000885 0.516144 0.813171
0.004059 0.518036 0.816071
0.003052 0.530823 0.823914
0.279541 0.554352 0.844910
0.479584 0.592285 0.857941
0.655182 0.651764 0.884003
0.800262 0.686523 0.906128
0.864777 0.662872 0.869446
0.000519 0.672882 0.832642
0.000885 0.673767 0.833527
0.010101 0.678680 0.831238
0.285645 0.678436 0.836182
0.459991 0.681213 0.835693
0.654144 0.724243 0.875793
0.809875 0.756226 0.898926
0.864014 0.725250 0.860107
0.281372 0.774689 0.853149
0.309418 0.785065 0.859222
0.383942 0.777863 0.857330
0.485779 0.787109 0.867065
0.596466 0.787354 0.874756
0.709045 0.796844 0.879700
0.825684 0.810883 0.902344
0.898163 0.789520 0.863892
0.543579 0.876923 0.888947
0.562683 0.873260 0.891968
0.589111 0.874146 0.899170
0.630341 0.876923 0.887421
0.678711 0.877686 0.889435
0.740936 0.876801 0.883636
0.794678 0.868958 0.849976
0.913849 0.884766 0.844421
0.003540 0.292236 0.963562
0.003937 0.292603 0.956848
0.170258 0.293365 0.959259
0.372406 0.306274 0.963562
0.537292 0.327637 0.967255
0.679321 0.374573 0.968262
0.797729 0.454651 0.968628
0.897675 0.546753 0.964691
0.000000 0.321442 0.956116
0.000366 0.327148 0.953064
0.185699 0.329285 0.958618
0.388092 0.336761 0.963074
0.538788 0.362793 0.962555
0.677948 0.409363 0.966614
0.801392 0.487915 0.971680
0.904236 0.571655 0.968750
0.001007 0.383423 0.953583
0.000519 0.381409 0.958374
0.217957 0.396576 0.961182
0.388336 0.406952 0.953064
0.538544 0.440338 0.958527
0.676422 0.486389 0.965485
0.795593 0.560913 0.964966
0.894897 0.625427 0.969269
0.001526 0.483368 0.945862
0.004059 0.476135 0.954590
0.200378 0.484253 0.943817
0.382538 0.506378 0.953308
0.542206 0.535370 0.954956
0.669708 0.582916 0.957611
0.790527 0.640717 0.963837
0.888916 0.680695 0.961151
0.000000 0.585327 0.939667
0.001526 0.587219 0.936371
0.116394 0.590149 0.940918
0.361908 0.604431 0.955200
0.519043 0.628845 0.950287
0.666290 0.669067 0.956604
0.790527 0.700714 0.956116
0.904755 0.732697 0.958008
0.002899 0.691711 0.930817
0.000519 0.691986 0.926117
0.002777 0.686310 0.932343
0.279297 0.689697 0.928253
0.483765 0.703369 0.935974
0.656189 0.725616 0.942200
0.799011 0.753204 0.953064
0.920441 0.777222 0.960663
0.254303 0.778992 0.929535
0.283630 0.780914 0.936646
0.339783 0.783173 0.930939
0.432251 0.777740 0.934479
0.522705 0.775330 0.937012
0.631256 0.773682 0.931183
0.796844 0.797852 0.941315
0.930939 0.841492 0.959534
0.488678 0.861603 0.940796
0.508545 0.864655 0.938904
0.541687 0.862000 0.941956
0.593658 0.867950 0.940796
0.656311 0.869446 0.931427
0.742706 0.874908 0.944733
0.828339 0.880829 0.944855
0.925476 0.912598 0.941162
