assets/luts/TDH.cube
TITLE "Generated by Resolve"
LUT_3D_SIZE 9
0 0 0
0.0408179 0 0
0.0676738 0 0
0.176181 0 0
0.483543 0 0
1 0 0
1 0 0
1 0 0
1 0 0
0 0.041413 0
0.00134279 0.0154421 0
0.0252842 0.0112459 0
0.130587 0 0
0.434424 0 0
0.993576 0 0
1 0 0
1 0 0
1 0 0
0 0.0585031 0
0 0.031632 0
0.0183719 0.0272984 0
0.123323 0.00979629 0
0.426749 0 0
0.985016 0 0
1 0 0
1 0 0
1 0 0
0 0.13257 0
0 0.104005 0
0 0.0993668 0
0.0919966 0.0808881 0
0.394385 0.0301671 0
0.951827 0 0
1 0 0
1 0 0
1 0 0
0 0.355993 0
0 0.325414 0
0 0.32015 0
0.00276188 0.301137 0
0.299016 0.247623 0
0.85391 0.152773 0
1 0.0131228 0
1 0 0
1 0 0
0 0.786572 0
0 0.754253 0
0 0.748577 0
0 0.728237 0
0.123766 0.673747 0
0.670924 0.575204 0
1 0.42826 0
1 0.229801 0
1 0 0
0 1 0
0 1 0
0 1 0
0 1 0
0 1 0
0.390372 1 0
1 1 0
1 0.897795 0
1 0.63505 0
0 1 0
0 1 0
0 1 0
0 1 0
0 1 0
0.00488289 1 0
0.827619 1 0
1 1 0
1 1 0
0 1 0
0 1 0
0 1 0
0 1 0
0 1 0
0 1 0
0.305135 1 0
1 1 0
1 1 0
0 0 0.0682078
0.0330663 0 0.0417182
0.0596017 0 0.0371099
0.167636 0 0.0193637
0.474342 0 0
1 0 0
1 0 0
1 0 0
1 0 0
0 0.0336919 0.0269474
0 0.00781262 0.0011902
0.0171664 0.00375372 0
0.12163 0 0
0.42501 0 0
0.983719 0 0
1 0 0
1 0 0
1 0 0
0 0.0505531 0.0200809
0 0.023621 0
0.0103914 0.0193332 0
0.114504 0.00202945 0
0.417182 0 0
0.975113 0 0
1 0 0
1 0 0
1 0 0
0 0.124086 0
0 0.0954147 0
0 0.0907301 0
0.0832837 0.072343 0
0.384985 0.0217288 0
0.941863 0 0
1 0 0
1 0 0
1 0 0
0 0.346822 0
0 0.316182 0
0 0.310903 0
0 0.291875 0
0.289662 0.238407 0
0.844022 0.143587 0
1 0.0040589 0
1 0 0
1 0 0
0 0.776837 0
0 0.744457 0
0 0.738781 0
0 0.718364 0
0.114504 0.663935 0
0.661051 0.565393 0
1 0.418463 0
1 0.22005 0
1 0 0
0 1 0
0 1 0
0 1 0
0 1 0
0 1 0
0.380529 1 0
1 1 0
1 0.887495 0
1 0.624765 0
0 1 0
0 1 0
0 1 0
0 1 0
0 1 0
0 1 0
0.817319 1 0
1 1 0
1 1 0
0 1 0
0 1 0
0 1 0
0 1 0
0 1 0
0 1 0
0.294911 1 0
1 1 0
1 1 0
0 0 0.0885023
0.0319066 0 0.0614481
0.0583963 0 0.0567178
0.166384 0 0.038407
0.473106 0 0
1 0 0
1 0 0
1 0 0
1 0 0
0 0.0325475 0.0462043
0 0.00677501 0.0189822
0.0160678 0.00274662 0.0146029
0.120439 0 0
0.423682 0 0
0.982284 0 0
1 0 0
1 0 0
1 0 0
0 0.0493935 0.0390631
0 0.0225528 0.0121462
0.00933852 0.0182803 0.00788891
0.113329 0.0010071 0
0.415824 0 0
0.973678 0 0
1 0 0
1 0 0
1 0 0
0 0.122942 0.00972
0 0.094255 0
0 0.0895705 0
0.082063 0.0711376 0
0.383627 0.0205234 0
0.940414 0 0
1 0 0
1 0 0
1 0 0
0 0.34551 0
0 0.314855 0
0 0.30956 0
0 0.290532 0
0.288304 0.237049 0
0.842573 0.142229 0
1 0.00273136 0
1 0 0
1 0 0
0 0.775402 0
0 0.743023 0
0 0.737331 0
0 0.716915 0
0.11313 0.662486 0
0.659586 0.563943 0
1 0.417014 0
1 0.218585 0
1 0 0
0 1 0
0 1 0
0 1 0
0 1 0
0 1 0
0.379065 1 0
1 1 0
1 0.885954 0
1 0.62324 0
0 1 0
0 1 0
0 1 0
0 1 0
0 1 0
0 1 0
0.815778 1 0
1 1 0
1 1 0
0 1 0
0 1 0
0 1 0
0 1 0
0 1 0
0 1 0
0.293385 1 0
1 1 0
1 1 0
0 0 0.183261
0.0265965 0 0.154925
0.0528725 0 0.149966
0.160571 0 0.130663
0.46714 0 0.0785382
1 0 0
1 0 0
1 0 0
1 0 0
0 0.0273136 0.13875
0 0.00181582 0.109651
0.0107118 0 0.104891
0.114656 0 0.085481
0.417807 0 0.0334478
0.976242 0 0
1 0 0
1 0 0
1 0 0
0 0.044007 0.131212
0 0.0173037 0.102312
0.00415045 0.013077 0.0976272
0.107622 0 0.0785687
0.409918 0 0.0263066
0.967605 0 0
1 0 0
1 0 0
1 0 0
0 0.117342 0.099733
0 0.0887617 0.0711223
0 0.084062 0.0664073
0.0766155 0.0658122 0.048127
0.377859 0.0153964 0
0.934295 0 0
1 0 0
1 0 0
1 0 0
0 0.339864 0.0106813
0 0.309224 0
0 0.303914 0
0 0.284871 0
0.282582 0.231418 0
0.836347 0.136461 0
1 0 0
1 0 0
1 0 0
0 0.769329 0
0 0.736858 0
0 0.731151 0
0 0.710658 0
0.107225 0.656229 0
0.653239 0.557641 0
1 0.410681 0
1 0.212253 0
1 0 0
0 1 0
0 1 0
0 1 0
0 1 0
0 1 0
0.372671 1 0
1 1 0
1 0.879225 0
1 0.616495 0
0 1 0
0 1 0
0 1 0
0 1 0
0 1 0
0 1 0
0.809033 1 0
1 1 0
1 1 0
0 1 0
0 1 0
0 1 0
0 1 0
0 1 0
0 1 0
0.286671 1 0
1 1 0
1 1 0
0 0 0.475944
0.0110018 0 0.446052
0.0363775 0 0.440925
0.143114 0 0.420676
0.448905 0 0.365698
1 0 0.269062
1 0 0.126711
1 0 0
1 0 0
0 0.0117189 0.42887
0 0 0.397772
0 0 0.392706
0.0971389 0 0.372473
0.399542 0 0.317205
0.95761 0 0.22031
1 0 0.0780194
1 0 0
1 0 0
0 0.0278782 0.421012
0 0.00157168 0.390249
0 0 0.385199
0.0901045 0 0.365026
0.391546 0 0.309346
0.948974 0 0.212253
1 0 0.0699016
1 0 0
1 0 0
0 0.100374 0.387869
0 0.0718853 0.357336
0 0.0671092 0.352178
0.0596323 0.0491646 0.332738
0.359808 0 0.278202
0.915724 0 0.181338
1 0 0.0382086
1 0 0
1 0 0
0 0.322194 0.292714
0 0.2916 0.262272
0 0.286305 0.256992
0 0.267338 0.238117
0.265171 0.214267 0.185275
0.818433 0.11989 0.0911574
1 0 0
1 0 0
1 0 0
0 0.751507 0.118685
0 0.719127 0.0885176
0 0.713436 0.0832227
0 0.692836 0.0641489
0.0907759 0.638727 0.0142367
0.635813 0.540352 0
1 0.393469 0
1 0.195087 0
1 0 0
0 1 0
0 1 0
0 1 0
0 1 0
0 1 0
0.355367 1 0
1 1 0
1 0.860563 0
1 0.59765 0
0 1 0
0 1 0
0 1 0
0 1 0
0 1 0
0 1 0
0.790188 1 0
1 1 0
1 1 0
0 1 0
0 1 0
0 1 0
0 1 0
0 1 0
0 1 0
0.26775 1 0
1 1 0
1 1 0
0 0 1
0 0 1
0.00576791 0 1
0.110201 0 0.988708
0.414328 0 0.931746
0.974075 0 0.831266
1 0 0.682322
1 0 0.481407
1 0 0.226383
0 0 0.996338
0 0 0.964034
0 0 0.958633
0.06421 0 0.938033
0.364828 0 0.880827
0.921859 0 0.77995
1 0 0.630655
1 0 0.429541
1 0 0.174563
0 0 0.988556
0 0 0.956176
0 0 0.950698
0.0569467 0 0.929915
0.356725 0 0.872465
0.913176 0 0.77142
1 0 0.621988
1 0 0.420798
1 0 0.16582
0 0.0683146 0.954467
0 0.0399786 0.922454
0 0.035172 0.91696
0.0274662 0.0176547 0.896788
0.325216 0 0.839918
0.879835 0 0.738674
1 0 0.587915
1 0 0.386099
1 0 0.130953
0 0.288472 0.855619
0 0.257893 0.823651
0 0.252583 0.818082
0 0.233585 0.798138
0.231495 0.181079 0.742931
0.783291 0.0873579 0.643839
1 0 0.495903
1 0 0.294942
1 0 0.0401923
0 0.716716 0.673381
0 0.684352 0.641367
0 0.67866 0.635737
0 0.657923 0.615244
0.05832 0.604242 0.562127
0.601556 0.506355 0.465202
1 0.360159 0.320256
1 0.162661 0.124086
1 0 0
0 1 0.394766
0 1 0.362814
0 1 0.357168
0 1 0.336324
0 1 0.284245
0.322377 1 0.190829
1 1 0.0497597
1 0.827298 0
1 0.564752 0
0 1 0.0120851
0 1 0
0 1 0
0 1 0
0 1 0
0 1 0
0.757183 1 0
1 1 0
1 1 0
0 1 0
0 1 0
0 1 0
0 1 0
0 1 0
0 1 0
0.235294 1 0
1 1 0
1 1 0
0 0 1
0 0 1
0 0 1
0.0591135 0 1
0.360327 0 1
0.918196 0 1
1 0 1
1 0 1
1 0 1
0 0 1
0 0 1
0 0 1
0.0134432 0 1
0.310658 0 1
0.865827 0 1
1 0 1
1 0 1
1 0 1
0 0 1
0 0 1
0 0 1
0.00607309 0 1
0.302449 0 1
0.857084 0 1
1 0 1
1 0 1
1 0 1
0 0.0186465 1
0 0 1
0 0 1
0 0 1
0.270909 0 1
0.823331 0 1
1 0 1
1 0 1
1 0 1
0 0.235691 1
0 0.205142 1
0 0.199817 1
0 0.180804 1
0.178607 0.129015 1
0.727901 0.0362707 1
1 0 1
1 0 1
1 0 0.916686
0 0.661967 1
0 0.629602 1
0 0.623896 1
0 0.603037 1
0.00726329 0.549752 1
0.547219 0.452461 1
1 0.306966 1
1 0.110491 1
1 0 0.741909
0 1 1
0 1 1
0 1 1
0 1 1
0 1 1
0.269413 1 1
1 0.977539 0.926497
1 0.773053 0.724743
1 0.511589 0.466392
0 1 0.887846
0 1 0.854475
0 1 0.848539
0 1 0.826535
0 1 0.771359
0 1 0.676982
0.703655 1 0.532403
1 1 0.334585
1 1 0.0813916
0 1 0.368795
0 1 0.335592
0 1 0.329686
0 1 0.307729
0 1 0.251545
0 1 0.159472
0.183749 1 0.0206455
1 1 0
1 1 0
0 0 1
0 0 1
0 0 1
0 0 1
0.284367 0 1
0.839399 0 1
1 0 1
1 0 1
1 0 1
0 0 1
0 0 1
0 0 1
0 0 1
0.234592 0 1
0.786831 0 1
1 0 1
1 0 1
1 0 1
0 0 1
0 0 1
0 0 1
0 0 1
0.226322 0 1
0.778027 0 1
1 0 1
1 0 1
1 0 1
0 0 1
0 0 1
0 0 1
0 0 1
0.194598 0 1
0.743435 0 1
1 0 1
1 0 1
1 0 1
0 0.161456 1
0 0.130999 1
0 0.125658 1
0 0.106523 1
0.104128 0.0558175 1
0.64947 0 1
1 0 1
1 0 1
1 0 1
0 0.584634 1
0 0.55227 1
0 0.546548 1
0 0.525567 1
0 0.472633 1
0.470253 0.37615 1
1 0.231601 1
1 0.0364843 1
1 0 1
0 1 1
0 1 1
0 1 1
0 1 1
0 1 1
0.194217 1 1
1 0.899275 1
1 0.695552 1
1 0.435065 1
0 1 1
0 1 1
0 1 1
0 1 1
0 1 1
0 1 1
0.626734 1 1
1 1 1
1 1 1
0 1 1
0 1 1
0 1 1
0 1 1
0 1 1
0 1 1
0.109056 1 1
1 1 1
1 1 0.815305
0 0 1
0 0 1
0 0 1
0 0 1
0.184512 0 1
0.735363 0 1
1 0 1
1 0 1
1 0 1
0 0 1
0 0 1
0 0 1
0 0 1
0.134783 0 1
0.682612 0 1
1 0 1
1 0 1
1 0 1
0 0 1
0 0 1
0 0 1
0 0 1
0.126482 0 1
0.673762 0 1
1 0 1
1 0 1
1 0 1
0 0 1
0 0 1
0 0 1
0 0 1
0.0939498 0 1
0.638697 0 1
1 0 1
1 0 1
1 0 1
0 0.0639963 1
0 0.0337835 1
0 0.0284733 1
0 0.00915541 1
0.00622568 0 1
0.545342 0 1
1 0 1
1 0 1
1 0 1
0 0.48246 1
0 0.450095 1
0 0.444373 1
0 0.423285 1
0 0.370459 1
0.368414 0.275273 1
1 0.131975 1
1 0 1
1 0 1
0 1 1
0 1 1
0 1 1
0 1 1
0 1 1
0.0947738 0.944183 1
0.921508 0.795407 1
1 0.592615 1
1 0.333333 1
0 1 1
0 1 1
0 1 1
0 1 1
0 1 1
0 1 1
0.524422 1 1
1 1 1
1 1 1
0 1 1
0 1 1
0 1 1
0 1 1
0 1 1
0 1 1
0.00950637 1 1
1 1 1
1 1 1
