assets/luts/TDH.cube
TITLE "Generated by Resolve"
LUT_3D_SIZE 33
0 0 0
0 0 0
0 0 0
0.0202182 0 0
0.0408179 0 0
0.0545357 0 0
0.0615244 0 0
0.0629129 0 0
0.0676738 0 0
0.0800031 0 0
0.101366 0 0
0.133028 0 0
0.176181 0 0
0.231891 0 0
0.301106 0 0
0.384726 0 0
0.483543 0 0
0.598337 0 0
0.729824 0 0
0.878676 0 0
1 0 0
1 0 0
1 0 0
1 0 0
1 0 0
1 0 0
1 0 0
1 0 0
1 0 0
1 0 0
1 0 0
1 0 0
1 0 0
0 0 0
0 0 0
0 0 0
0.00550851 0 0
0.0251926 0 0
0.0384833 0 0
0.0453346 0 0
0.0466926 0 0
0.0513771 0 0
0.0635233 0 0
0.0846418 0 0
0.11603 0 0
0.158907 0 0
0.214328 0 0
0.283284 0 0
0.366629 0 0
0.465217 0 0
0.579767 0 0
0.711025 0 0
0.859648 0 0
1 0 0
1 0 0
1 0 0
1 0 0
1 0 0
1 0 0
1 0 0
1 0 0
1 0 0
1 0 0
1 0 0
1 0 0
1 0 0
0 0.0104524 0
0 0.00169375 0
0 0 0
0 0 0
0.013611 0 0
0.0264286 0 0
0.0331273 0 0
0.0344701 0 0
0.0390631 0 0
0.0510414 0 0
0.0719158 0 0
0.103075 0 0
0.145693 0 0
0.200885 0 0
0.269596 0 0
0.352728 0 0
0.451087 0 0
0.565454 0 0
0.696498 0 0
0.844938 0 0
1 0 0
1 0 0
1 0 0
1 0 0
1 0 0
1 0 0
1 0 0
1 0 0
1 0 0
1 0 0
1 0 0
1 0 0
1 0 0
0 0.0285496 0
0 0.0194553 0
0 0.0125582 0
0 0.00753796 0
0.0059205 0.00418097 0
0.0180819 0.0021973 0
0.0246281 0.00120546 0
0.0259403 0.0010071 0
0.030457 0.00030518 0
0.0422675 0 0
0.0629435 0 0
0.0938735 0 0
0.136278 0 0
0.191257 0 0
0.25977 0 0
0.342702 0 0
0.440879 0 0
0.555062 0 0
0.685954 0 0
0.834226 0 0
1 0 0
1 0 0
1 0 0
1 0 0
1 0 0
1 0 0
1 0 0
1 0 0
1 0 0
1 0 0
1 0 0
1 0 0
1 0 0
0 0.041413 0
0 0.0319371 0
0 0.0245365 0
0 0.0190738 0
0.00134279 0.0154421 0
0.0130465 0.0133211 0
0.019501 0.0122225 0
0.020798 0.0120089 0
0.0252842 0.0112459 0
0.0370031 0.009308 0
0.0575723 0.0059968 0
0.0883803 0.0011902 0
0.130587 0 0
0.185306 0 0
0.25362 0 0
0.3364 0 0
0.434424 0 0
0.54847 0 0
0.67924 0 0
0.82739 0 0
0.993576 0 0
1 0 0
1 0 0
1 0 0
1 0 0
1 0 0
1 0 0
1 0 0
1 0 0
1 0 0
1 0 0
1 0 0
1 0 0
0 0.0498665 0
0 0.0402533 0
0 0.0327153 0
0 0.0271458 0
0 0.0233768 0
0.00972 0.0212406 0
0.0161135 0.0201114 0
0.0174105 0.0198825 0
0.0218509 0.0191196 0
0.0335241 0.0171206 0
0.0540322 0.0137026 0
0.0847944 0.00868238 0
0.127031 0.00199893 0
0.181781 0 0
0.250019 0 0
0.332601 0 0
0.430472 0 0
0.544411 0 0
0.67509 0 0
0.823163 0 0
0.989273 0 0
1 0 0
1 0 0
1 0 0
1 0 0
1 0 0
1 0 0
1 0 0
1 0 0
1 0 0
1 0 0
1 0 0
1 0 0
0 0.0544594 0
0 0.04477 0
0 0.0371862 0
0 0.0315557 0
0 0.0277562 0
0.00794995 0.0255894 0
0.0142977 0.0244602 0
0.0155795 0.0242313 0
0.0200046 0.0234531 0
0.0316472 0.0214389 0
0.0521248 0.0179751 0
0.0828565 0.0129091 0
0.125063 0.00610361 0
0.179828 0 0
0.248051 0 0
0.330678 0 0
0.428443 0 0
0.54229 0 0
0.672908 0 0
0.820935 0 0
0.986999 0 0
1 0 0
1 0 0
1 0 0
1 0 0
1 0 0
1 0 0
1 0 0
1 0 0
1 0 0
1 0 0
1 0 0
1 0 0
0 0.055375 0
0 0.0456703 0
0 0.0380865 0
0 0.0324407 0
0 0.0286259 0
0.00759899 0.0264591 0
0.0139315 0.0253147 0
0.0152132 0.0251011 0
0.0196384 0.0243229 0
0.0312657 0.0223087 0
0.0517433 0.0188296 0
0.0824598 0.0137484 0
0.124666 0.00694286 0
0.179431 0 0
0.247654 0 0
0.330282 0 0
0.428046 0 0
0.541878 0 0
0.67248 0 0
0.820493 0 0
0.986542 0 0
1 0 0
1 0 0
1 0 0
1 0 0
1 0 0
1 0 0
1 0 0
1 0 0
1 0 0
1 0 0
1 0 0
1 0 0
0 0.0585031 0
0 0.0487678 0
0 0.0411383 0
0 0.035462 0
0 0.031632 0
0.00639353 0.0294499 0
0.0126955 0.0283055 0
0.0139773 0.0280766 0
0.0183719 0.0272984 0
0.029984 0.0252689 0
0.0504311 0.0217899 0
0.0811322 0.0166629 0
0.123323 0.00979629 0
0.178073 0.00112917 0
0.246326 0 0
0.328939 0 0
0.426749 0 0
0.540475 0 0
0.671016 0 0
0.818998 0 0
0.985016 0 0
1 0 0
1 0 0
1 0 0
1 0 0
1 0 0
1 0 0
1 0 0
1 0 0
1 0 0
1 0 0
1 0 0
1 0 0
0 0.0666667 0
0 0.0568551 0
0 0.049134 0
0 0.0434119 0
0 0.0395056 0
0.00328069 0.0372931 0
0.00949111 0.0361486 0
0.0107576 0.0359197 0
0.0151217 0.0351263 0
0.0266575 0.0330816 0
0.0470283 0.0295567 0
0.0776837 0.0243687 0
0.119829 0.0173953 0
0.174548 0.00854505 0
0.242786 0 0
0.325383 0 0
0.423209 0 0
0.536995 0 0
0.667323 0 0
0.815167 0 0
0.981109 0 0
1 0 0
1 0 0
1 0 0
1 0 0
1 0 0
1 0 0
1 0 0
1 0 0
1 0 0
1 0 0
1 0 0
1 0 0
0 0.0809949 0
0 0.071046 0
0 0.0632334 0
0 0.0574044 0
0 0.0534218 0
0 0.0511635 0
0.00396735 0.0500038 0
0.00520333 0.0497749 0
0.00949111 0.0489815 0
0.0208896 0.0469215 0
0.0411231 0.0433509 0
0.0716564 0.0380713 0
0.113695 0.0309758 0
0.168353 0.0219272 0
0.236545 0.0108797 0
0.319173 0 0
0.416968 0 0
0.530709 0 0
0.661158 0 0
0.808896 0 0
0.974502 0 0
1 0 0
1 0 0
1 0 0
1 0 0
1 0 0
1 0 0
1 0 0
1 0 0
1 0 0
1 0 0
1 0 0
1 0 0
0 0.102602 0
0 0.0925154 0
0 0.0845655 0
0 0.0786297 0
0 0.0745403 0
0 0.0721904 0
0 0.071046 0
0 0.0708324 0
0.00120546 0.0700389 0
0.0123293 0.0679484 0
0.0323339 0.064332 0
0.0626535 0.0589761 0
0.10454 0.0517433 0
0.15906 0.0425269 0
0.227161 0.0312047 0
0.309728 0.0177462 0
0.407507 0.00213626 0
0.521263 0 0
0.651621 0 0
0.799374 0 0
0.965133 0 0
1 0 0
1 0 0
1 0 0
1 0 0
1 0 0
1 0 0
1 0 0
1 0 0
1 0 0
1 0 0
1 0 0
1 0 0
0 0.13257 0
0 0.122332 0
0 0.114244 0
0 0.108186 0
0 0.104005 0
0 0.101549 0
0 0.100389 0
0 0.10016 0
0 0.0993668 0
0.00077821 0.0972915 0
0.0203403 0.0936446 0
0.0503548 0.0882277 0
0.0919966 0.0808881 0
0.146319 0.0715038 0
0.214252 0.059968 0
0.296681 0.0462043 0
0.394385 0.0301671 0
0.508095 0.0118105 0
0.638498 0 0
0.786206 0 0
0.951827 0 0
1 0 0
1 0 0
1 0 0
1 0 0
1 0 0
1 0 0
1 0 0
1 0 0
1 0 0
1 0 0
1 0 0
1 0 0
0 0.171954 0
0 0.161547 0
0 0.153323 0
0 0.147158 0
0 0.14287 0
0 0.140322 0
0 0.139086 0
0 0.138857 0
0 0.138079 0
0 0.135988 0
0.0049897 0.132357 0
0.0344854 0.126879 0
0.0757458 0.119448 0
0.129778 0.109926 0
0.197482 0.0982071 0
0.279713 0.0841993 0
0.377249 0.0678264 0
0.490852 0.0490272 0
0.621164 0.0278019 0
0.768872 0.00411994 0
0.934554 0 0
1 0 0
1 0 0
1 0 0
1 0 0
1 0 0
1 0 0
1 0 0
1 0 0
1 0 0
1 0 0
1 0 0
1 0 0
0 0.221714 0
0 0.211154 0
0 0.202792 0
0 0.19649 0
0 0.192111 0
0 0.189502 0
0 0.18822 0
0 0.187961 0
0 0.187121 0
0 0.185046 0
0 0.181399 0
0.014847 0.175906 0
0.0555581 0.168414 0
0.109178 0.15877 0
0.176562 0.146899 0
0.258518 0.132677 0
0.355825 0.11603 0
0.46923 0.09691 0
0.599405 0.075227 0
0.74699 0.0509804 0
0.912596 0.0241398 0
1 0 0
1 0 0
1 0 0
1 0 0
1 0 0
1 0 0
1 0 0
1 0 0
1 0 0
1 0 0
1 0 0
1 0 0
0 0.282765 0
0 0.272053 0
0 0.263554 0
0 0.257145 0
0 0.252674 0
0 0.249989 0
0 0.248676 0
0 0.248417 0
0 0.247532 0
0 0.245335 0
0 0.241688 0
0 0.236225 0
0.0312505 0.228687 0
0.0842908 0.218967 0
0.151217 0.206958 0
0.232822 0.192554 0
0.329839 0.175692 0
0.442969 0.156268 0
0.572931 0.134249 0
0.720333 0.10956 0
0.885801 0.0821698 0
1 0.0520485 0
1 0.0192264 0
1 0 0
1 0 0
1 0 0
1 0 0
1 0 0
1 0 0
1 0 0
1 0 0
1 0 0
1 0 0
0 0.355993 0
0 0.345129 0
0 0.336492 0
0 0.329976 0
0 0.325414 0
0 0.322683 0
0 0.321324 0
0 0.32105 0
0 0.32015 0
0 0.317876 0
0 0.314153 0
0 0.308644 0
0.00276188 0.301137 0
0.0549477 0.291341 0
0.121279 0.279225 0
0.202396 0.264683 0
0.299016 0.247623 0
0.411826 0.22797 0
0.541497 0.205646 0
0.688655 0.180591 0
0.85391 0.152773 0
1 0.122118 0
1 0.0886397 0
1 0.0522927 0
1 0.0131228 0
1 0 0
1 0 0
1 0 0
1 0 0
1 0 0
1 0 0
1 0 0
1 0 0
0 0.442206 0
0 0.431189 0
0 0.422446 0
0 0.415824 0
0 0.411185 0
0 0.408377 0
0 0.406989 0
0 0.406729 0
0 0.405798 0
0 0.403449 0
0 0.399542 0
0 0.394064 0
0 0.386526 0
0.0210575 0.37673 0
0.0865492 0.364538 0
0.167056 0.349874 0
0.263172 0.332647 0
0.375555 0.312779 0
0.50486 0.290196 0
0.651713 0.264851 0
0.816693 0.236652 0
1 0.205585 0
1 0.171572 0
1 0.134615 0
1 0.094667 0
1 0.0517586 0
1 0.0059205 0
1 0 0
1 0 0
1 0 0
1 0 0
1 0 0
1 0 0
0 0.542214 0
0 0.53106 0
0 0.522179 0
0 0.515465 0
0 0.510735 0
0 0.507881 0
0 0.506477 0
0 0.506203 0
0 0.505257 0
0 0.502846 0
0 0.498817 0
0 0.493248 0
0 0.485634 0
0 0.475883 0
0.046952 0.463645 0
0.126635 0.448875 0
0.22211 0.43151 0
0.333974 0.411475 0
0.462821 0.388678 0
0.609277 0.363058 0
0.773922 0.334554 0
0.957321 0.303105 0
1 0.268666 0
1 0.231205 0
1 0.190661 0
1 0.147036 0
1 0.100328 0
1 0.0505226 0
1 0 0
1 0 0
1 0 0
1 0 0
1 0 0
0 0.656764 0
0 0.645472 0
0 0.636469 0
0 0.629648 0
0 0.624857 0
0 0.621958 0
0 0.620508 0
0 0.620233 0
0 0.619272 0
0 0.616815 0
0 0.612696 0
0 0.606851 0
0 0.599329 0
0 0.589471 0
0.00247196 0.577295 0
0.0810101 0.562463 0
0.175677 0.544976 0
0.286885 0.524788 0
0.415198 0.501808 0
0.561166 0.475944 0
0.725399 0.447166 0
0.908431 0.415412 0
1 0.380591 0
1 0.342687 0
1 0.301656 0
1 0.25745 0
1 0.210056 0
1 0.159457 0
1 0.105653 0
1 0.048661 0
1 0 0
1 0 0
1 0 0
0 0.786572 0
0 0.775143 0
0 0.766033 0
0 0.759121 0
0 0.754253 0
0 0.751308 0
0 0.749844 0
0 0.749554 0
0 0.748577 0
0 0.746075 0
0 0.741878 0
0 0.735866 0
0 0.728237 0
0 0.718334 0
0 0.706157 0
0.0301823 0.69131 0
0.123766 0.673747 0
0.234165 0.653422 0
0.361791 0.630274 0
0.507195 0.604212 0
0.670924 0.575204 0
0.853529 0.543145 0
1 0.508003 0
1 0.469734 0
1 0.42826 0
1 0.383566 0
1 0.335607 0
1 0.284352 0
1 0.229801 0
1 0.171923 0
1 0.110735 0
1 0.0462501 0
1 0 0
0 0.932357 0
0 0.92079 0
0 0.911574 0
0 0.90457 0
0 0.899626 0
0 0.896635 0
0 0.895155 0
0 0.894865 0
0 0.893874 0
0 0.89134 0
0 0.887053 0
0 0.880919 0
0 0.872953 0
0 0.863188 0
0 0.850843 0
0 0.836088 0
0.0663157 0.818494 0
0.175662 0.798062 0
0.30248 0.774777 0
0.447196 0.748547 0
0.61033 0.71931 0
0.792416 0.687007 0
0.993942 0.651576 0
1 0.612955 0
1 0.571115 0
1 0.525979 0
1 0.477531 0
1 0.425727 0
1 0.37055 0
1 0.311955 0
1 0.249928 0
1 0.184497 0
1 0.115633 0
0 1 0
0 1 0
0 1 0
0 1 0
0 1 0
0 1 0
0 1 0
0 1 0
0 1 0
0 1 0
0 1 0
0 1 0
0 1 0
0 1 0
0 1 0
0 0.997436 0
0.0033875 0.979858 0
0.111345 0.959365 0
0.23714 0.935958 0
0.381033 0.909575 0
0.543465 0.880156 0
0.724926 0.847623 0
0.925917 0.811933 0
1 0.773022 0
1 0.730831 0
1 0.685313 0
1 0.636439 0
1 0.584146 0
1 0.52842 0
1 0.4692 0
1 0.4065 0
1 0.340276 0
1 0.270512 0
0 1 0
0 1 0
0 1 0
0 1 0
0 1 0
0 1 0
0 1 0
0 1 0
0 1 0
0 1 0
0 1 0
0 1 0
0 1 0
0 1 0
0 1 0
0 1 0
0 1 0
0.0412146 1 0
0.165698 1 0
0.308583 1 0
0.470192 1 0
0.650919 1 0
0.851286 0.989715 0
1 0.95053 0
1 0.908049 0
1 0.862181 0
1 0.812909 0
1 0.760189 0
1 0.703975 0
1 0.644221 0
1 0.580911 0
1 0.514015 0
1 0.443503 0
0 1 0
0 1 0
0 1 0
0 1 0
0 1 0
0 1 0
0 1 0
0 1 0
0 1 0
0 1 0
0 1 0
0 1 0
0 1 0
0 1 0
0 1 0
0 1 0
0 1 0
0 1 0
0.0881514 1 0
0.229786 1 0
0.390372 1 0
0.570275 1 0
0.769894 1 0
0.989685 1 0
1 1 0
1 1 0
1 1 0
1 0.954437 0
1 0.897795 0
1 0.837552 0
1 0.773709 0
1 0.706218 0
1 0.63505 0
0 1 0
0 1 0
0 1 0
0 1 0
0 1 0
0 1 0
0 1 0
0 1 0
0 1 0
0 1 0
0 1 0
0 1 0
0 1 0
0 1 0
0 1 0
0 1 0
0 1 0
0 1 0
0.00454719 1 0
0.144579 1 0
0.30396 1 0
0.482856 1 0
0.68162 1 0
0.900664 1 0
1 1 0
1 1 0
1 1 0
1 1 0
1 1 0
1 1 0
1 0.985428 0
1 0.917403 0
1 0.845655 0
0 1 0
0 1 0
0 1 0
0 1 0
0 1 0
0 1 0
0 1 0
0 1 0
0 1 0
0 1 0
0 1 0
0 1 0
0 1 0
0 1 0
0 1 0
0 1 0
0 1 0
0 1 0
0 1 0
0.0530098 1 0
0.21088 1 0
0.388586 1 0
0.586343 1 0
0.804517 1 0
1 1 0
1 1 0
1 1 0
1 1 0
1 1 0
1 1 0
1 1 0
1 1 0
1 1 0
0 1 0
0 1 0
0 1 0
0 1 0
0 1 0
0 1 0
0 1 0
0 1 0
0 1 0
