assets/luts/TDH.cube
TITLE "Generated by Resolve"
LUT_3D_SIZE 5
0 0 0
0.0676738 0 0
0.483543 0 0
1 0 0
1 0 0
0 0.0585031 0
0.0183719 0.0272984 0
0.426749 0 0
1 0 0
1 0 0
0 0.355993 0
0 0.32015 0
0.299016 0.247623 0
1 0.0131228 0
1 0 0
0 1 0
0 1 0
0 1 0
1 1 0
1 0.63505 0
0 1 0
0 1 0
0 1 0
0.305135 1 0
1 1 0
0 0 0.0885023
0.0583963 0 0.0567178
0.473106 0 0
1 0 0
1 0 0
0 0.0493935 0.0390631
0.00933852 0.0182803 0.00788891
0.415824 0 0
1 0 0
1 0 0
0 0.34551 0
0 0.30956 0
0.288304 0.237049 0
1 0.00273136 0
1 0 0
0 1 0
0 1 0
0 1 0
1 1 0
1 0.62324 0
0 1 0
0 1 0
0 1 0
0.293385 1 0
1 1 0
0 0 0.475944
0.0363775 0 0.440925
0.448905 0 0.365698
1 0 0.126711
1 0 0
0 0.0278782 0.421012
0 0 0.385199
0.391546 0 0.309346
1 0 0.0699016
1 0 0
0 0.322194 0.292714
0 0.286305 0.256992
0.265171 0.214267 0.185275
1 0 0
1 0 0
0 1 0
0 1 0
0 1 0
1 1 0
1 0.59765 0
0 1 0
0 1 0
0 1 0
0.26775 1 0
1 1 0
0 0 1
0 0 1
0.360327 0 1
1 0 1
1 0 1
0 0 1
0 0 1
0.302449 0 1
1 0 1
1 0 1
0 0.235691 1
0 0.199817 1
0.178607 0.129015 1
1 0 1
1 0 0.916686
0 1 1
0 1 1
0 1 1
1 0.977539 0.926497
1 0.511589 0.466392
0 1 0.368795
0 1 0.329686
0 1 0.251545
0.183749 1 0.0206455
1 1 0
0 0 1
0 0 1
0.184512 0 1
1 0 1
1 0 1
0 0 1
0 0 1
0.126482 0 1
1 0 1
1 0 1
0 0.0639963 1
0 0.0284733 1
0.00622568 0 1
1 0 1
1 0 1
0 1 1
0 1 1
0 1 1
0.921508 0.795407 1
1 0.333333 1
0 1 1
0 1 1
0 1 1
0.00950637 1 1
1 1 1
