assets/Presetpro - Hollywood.cube
#Created by: Adobe Photoshop Export Color Lookup Plugin
#Copyright: (C) Copyright 2018 https://www.presetpro.com and Tim Martin
TITLE "Presetpro - Hollywood"
#LUT size
LUT_3D_SIZE 5
#data domain
#LUT data points
DOMAIN_MIN 0.000000 0.000000 0.000000
DOMAIN_MAX 0.903226 0.903226 0.903226
0.000000 0.000000 0.000000
0.166779 0.000000 0.000000
0.423767 0.008362 0.000000
0.710754 0.030792 0.000000
0.931274 0.017242 0.000214
0.001892 0.210632 0.000000
0.130341 0.214966 0.000000
0.425812 0.214966 0.001892
0.702087 0.213989 0.000763
0.927246 0.200989 0.000000
0.001343 0.470551 0.000000
0.024841 0.460938 0.011902
0.403046 0.468597 0.013245
0.694580 0.455627 0.022186
0.927734 0.438324 0.010803
0.001648 0.697327 0.014587
0.001648 0.694397 0.024292
0.371185 0.690063 0.035370
0.683441 0.690063 0.025940
0.927185 0.679077 0.001251
0.002197 0.934235 0.000000
0.000549 0.927826 0.000000
0.351349 0.932709 0.001099
0.680328 0.937592 0.001648
0.933472 0.930328 0.002197
0.000549 0.000000 0.249268
0.128296 0.004059 0.236053
0.424805 0.017792 0.244232
0.704163 0.000000 0.212860
0.927246 0.000549 0.198883
0.000000 0.209656 0.254669
0.090393 0.210632 0.248322
0.415222 0.206329 0.226959
0.703125 0.200989 0.222473
0.927185 0.180786 0.207794
0.000000 0.473877 0.206512
0.001343 0.470032 0.224213
0.401001 0.464264 0.224213
0.691498 0.454651 0.229218
0.927246 0.436829 0.216553
0.002441 0.700653 0.196106
0.000763 0.697723 0.201477
0.363129 0.692017 0.210999
0.685516 0.688690 0.202393
0.929138 0.675140 0.190948
0.000214 0.936462 0.126770
0.000214 0.935638 0.128998
0.333282 0.934235 0.143677
0.681396 0.936615 0.130890
0.935883 0.937195 0.095764
0.000000 0.000000 0.472015
0.072632 0.000000 0.477448
0.400574 0.055634 0.462006
0.671234 0.087677 0.463837
0.928345 0.002441 0.450806
0.001343 0.154449 0.477448
0.006195 0.166412 0.475189
0.402008 0.213989 0.466095
0.682861 0.221649 0.459778
0.932373 0.156799 0.441956
0.002197 0.459961 0.476105
0.002441 0.459961 0.474304
0.393921 0.462311 0.468323
0.690063 0.448395 0.444336
0.929077 0.423004 0.432983
0.002441 0.705963 0.427429
0.002197 0.703613 0.427948
0.333282 0.697723 0.422394
0.684906 0.692017 0.432037
0.931580 0.679077 0.424805
0.001343 0.943420 0.362762
0.001343 0.943176 0.364990
0.264404 0.940521 0.376495
0.677856 0.935211 0.382416
0.936127 0.934662 0.365387
0.000000 0.001648 0.655762
0.055634 0.000000 0.660767
0.403076 0.002106 0.658813
0.678741 0.102020 0.640717
0.915894 0.127136 0.643494
0.001892 0.143860 0.659851
0.000549 0.151093 0.654419
0.391296 0.172699 0.663025
0.682861 0.233215 0.642059
0.917450 0.262085 0.645752
0.002197 0.390228 0.658417
0.001312 0.383545 0.664337
0.329163 0.401398 0.651154
0.684296 0.455231 0.642059
0.919434 0.465271 0.641266
0.000000 0.687286 0.653015
0.000000 0.687714 0.651154
0.037689 0.686157 0.644775
0.689453 0.684326 0.637939
0.937225 0.668030 0.628052
0.000763 0.949463 0.614868
0.002197 0.948273 0.606140
0.003754 0.948029 0.593628
0.648499 0.939941 0.593872
0.940521 0.936615 0.593872
0.000000 0.002197 0.872192
0.040497 0.000000 0.878113
0.396881 0.001099 0.872192
0.695465 0.000000 0.869934
0.926147 0.187653 0.855438
0.000214 0.131836 0.874420
0.002197 0.131287 0.876404
0.380310 0.136047 0.867981
0.688416 0.148163 0.873260
0.930237 0.289001 0.859924
0.000000 0.349518 0.881866
0.001648 0.344635 0.876160
0.302429 0.364868 0.875916
0.679504 0.394562 0.872711
0.935883 0.462311 0.863617
0.002441 0.622833 0.886475
0.000549 0.617554 0.881439
0.004089 0.594421 0.886841
0.630707 0.619507 0.883545
0.938324 0.675690 0.867188
0.002441 0.926422 0.884460
0.001648 0.926971 0.879456
0.002197 0.928375 0.886292
0.506500 0.931274 0.885132
0.943420 0.926422 0.868500
