assets/Presetpro - Hollywood.cube
#Created by: Adobe Photoshop Export Color Lookup Plugin
#Copyright: (C) Copyright 2018 https://www.presetpro.com and Tim Martin
TITLE "Presetpro - Hollywood"
#LUT size
LUT_3D_SIZE 32
#data domain
DOMAIN_MIN 0.0 0.0 0.0
DOMAIN_MAX 1.0 1.0 1.0
#LUT data points
0.000000 0.000000 0.000000
0.000000 0.000061 0.000000
0.000946 0.000153 0.000000
0.035431 0.000000 0.000214
0.062012 0.002441 0.002106
0.101868 0.000000 0.000000
0.139740 0.000000 0.003357
0.166779 0.000000 0.000000
0.209503 0.000000 0.002441
0.245361 0.002441 0.002441
0.283844 0.000000 0.000000
0.311859 0.000000 0.000885
0.349030 0.001495 0.000000
0.386932 0.002045 0.000000
0.423767 0.008362 0.000000
0.471771 0.016937 0.003601
0.506775 0.023132 0.000000
0.550995 0.024292 0.002441
0.582977 0.024292 0.000000
0.629120 0.024292 0.001495
0.666382 0.029144 0.000000
0.710754 0.030792 0.000000
0.740112 0.030884 0.001709
0.772552 0.027374 0.000000
0.816620 0.026733 0.001892
0.855713 0.026733 0.000000
0.893951 0.024292 0.000397
0.911285 0.021881 0.000336
0.931274 0.017242 0.000214
0.950775 0.017029 0.000000
0.970612 0.009857 0.002441
0.990295 0.004852 0.000000
0.000000 0.000153 0.000000
0.000153 0.000336 0.000000
0.015350 0.000397 0.000000
0.042023 0.002594 0.002197
0.068665 0.000549 0.000000
0.098053 0.000397 0.000000
0.138000 0.000946 0.000397
0.174866 0.002502 0.000061
0.206268 0.004150 0.000061
0.245056 0.008362 0.001709
0.284119 0.012604 0.001648
0.311859 0.015839 0.001648
0.341827 0.022339 0.000000
0.384430 0.028137 0.000000
0.425964 0.031647 0.000061
0.463135 0.036743 0.000061
0.506775 0.042725 0.002350
0.548187 0.043976 0.000000
0.587708 0.044983 0.000061
0.624542 0.045380 0.000000
0.663483 0.047333 0.000153
0.705902 0.045532 0.000000
0.736877 0.047028 0.000000
0.774048 0.043976 0.000061
0.817535 0.043884 0.000000
0.852173 0.043976 0.000458
0.891052 0.043823 0.002350
0.909149 0.041534 0.002106
0.928741 0.036896 0.000000
0.950714 0.034241 0.000000
0.972748 0.029541 0.000000
0.987946 0.026978 0.000000
0.000153 0.027802 0.000000
0.002258 0.032532 0.002258
0.012299 0.032532 0.000153
0.037292 0.032593 0.000610
0.057434 0.035278 0.000153
0.096741 0.032532 0.000000
0.129486 0.030731 0.000336
0.166168 0.035187 0.000000
0.197327 0.034973 0.000153
0.248566 0.037933 0.001709
0.275909 0.043121 0.000153
0.317749 0.040375 0.000702
0.345642 0.044128 0.000000
0.381622 0.047974 0.000153
0.424042 0.053680 0.000000
0.462952 0.056335 0.000000
0.506775 0.057617 0.001251
0.552734 0.057678 0.000000
0.589905 0.061218 0.000000
0.631592 0.060120 0.001343
0.658905 0.060822 0.000000
0.705902 0.060272 0.000000
0.742767 0.061768 0.002960
0.776245 0.058777 0.001801
0.815155 0.058777 0.001709
0.855713 0.056335 0.000000
0.887848 0.056519 0.000397
0.908691 0.054077 0.000000
0.930878 0.051666 0.000214
0.948669 0.049225 0.000153
0.968262 0.049072 0.002350
0.988159 0.044373 0.000153
0.000000 0.059723 0.000000
0.000000 0.064331 0.002197
0.002808 0.062164 0.000000
0.029846 0.064331 0.002655
0.054413 0.060272 0.002350
0.084839 0.066376 0.000000
0.125214 0.062164 0.000458
0.165314 0.064056 0.000336
0.195404 0.060364 0.002045
0.241669 0.063873 0.000946
0.272675 0.064606 0.000000
0.312592 0.067413 0.000000
0.344025 0.067719 0.000214
0.379272 0.071411 0.000000
0.421722 0.071167 0.000000
0.456787 0.081635 0.000946
0.508972 0.078186 0.002045
0.546417 0.077759 0.001099
0.591675 0.077759 0.001007
0.628662 0.077759 0.000000
0.665680 0.081635 0.000000
0.705322 0.080261 0.002197
0.740570 0.081635 0.001709
0.773773 0.078461 0.000000
0.818268 0.073853 0.000549
0.856140 0.076508 0.001709
0.891357 0.073853 0.001801
0.911285 0.069519 0.000000
0.931030 0.068970 0.002441
0.948120 0.066681 0.000214
0.967865 0.066528 0.000000
0.987854 0.061920 0.000000
0.002106 0.096710 0.000000
0.000000 0.100494 0.000336
0.000336 0.099915 0.000000
0.015198 0.100342 0.000000
0.049530 0.100494 0.000336
0.075256 0.099762 0.000000
0.119202 0.099640 0.000000
0.163239 0.096588 0.000336
0.205994 0.103668 0.000610
0.235657 0.096710 0.000000
0.274872 0.100494 0.000336
0.307312 0.098938 0.000336
0.345520 0.103668 0.000000
0.381622 0.104797 0.000702
0.421875 0.104248 0.000000
0.461090 0.110107 0.000000
0.506195 0.110809 0.000946
0.545990 0.108032 0.003204
0.587372 0.114136 0.002350
0.628662 0.114990 0.000946
0.664917 0.112885 0.001160
0.702515 0.110931 0.001343
0.736145 0.115570 0.000702
0.770966 0.110107 0.000610
0.816071 0.105225 0.000000
0.854218 0.107697 0.000000
0.887573 0.103668 0.000000
0.912781 0.099915 0.000000
0.928284 0.093658 0.002441
0.948334 0.099365 0.002441
0.968414 0.091278 0.000000
0.990295 0.087494 0.000000
0.004456 0.139374 0.004456
0.000000 0.135773 0.002441
0.000153 0.139374 0.000214
0.006989 0.139374 0.000000
0.035034 0.139954 0.003143
0.069611 0.140076 0.006897
0.105377 0.143005 0.001953
0.150604 0.140076 0.000397
0.202332 0.139252 0.002441
0.227722 0.136322 0.002045
0.271790 0.135773 0.000763
0.302460 0.143707 0.000000
0.342987 0.138397 0.003906
0.384705 0.137543 0.000000
0.424377 0.142029 0.000702
0.461914 0.143555 0.000763
0.510590 0.145264 0.000397
0.549774 0.147339 0.000000
0.586823 0.148010 0.001007
0.625885 0.142029 0.000397
0.666107 0.141632 0.001160
0.701477 0.139374 0.000000
0.739410 0.143707 0.000702
0.776398 0.142303 0.000000
0.809570 0.140076 0.002045
0.855713 0.140076 0.000885
0.892792 0.138000 0.002441
0.908844 0.135773 0.000000
0.930634 0.130707 0.001801
0.951324 0.127655 0.002045
0.972870 0.122925 0.002350
0.988647 0.115509 0.000397
0.000000 0.171875 0.001953
0.000000 0.175354 0.001953
0.000000 0.179413 0.000000
0.000000 0.182343 0.000000
0.022034 0.175049 0.004242
0.061371 0.175354 0.004456
0.097900 0.178833 0.000946
0.144897 0.178833 0.001892
0.187622 0.175629 0.000458
0.230804 0.182343 0.000946
0.265015 0.178040 0.004089
0.291443 0.178040 0.001404
0.336212 0.180634 0.001953
0.376038 0.178833 0.000000
0.421265 0.179688 0.001343
0.464172 0.176605 0.000000
0.508392 0.183167 0.000000
0.548767 0.179688 0.000000
0.584747 0.180634 0.000458
0.627350 0.180634 0.000000
0.660675 0.180359 0.000000
0.703125 0.175354 0.000946
0.743774 0.178040 0.001648
0.776245 0.174530 0.000610
0.813263 0.174530 0.000458
0.855713 0.171875 0.001404
0.890656 0.172852 0.000885
0.910492 0.168793 0.000946
0.930328 0.169800 0.000000
0.948822 0.165039 0.001801
0.969971 0.161713 0.002350
0.987854 0.153717 0.004395
0.001892 0.210632 0.000000
0.002350 0.217346 0.000000
0.001892 0.217896 0.000000
0.000214 0.215363 0.000000
0.001862 0.213013 0.000000
0.046692 0.218018 0.000000
0.078400 0.217468 0.000610
0.130341 0.214966 0.000000
0.175598 0.222229 0.000000
0.214233 0.216217 0.000153
0.257080 0.214966 0.000000
0.290131 0.211456 0.001404
0.330811 0.210358 0.000000
0.371613 0.217346 0.000000
0.425812 0.214966 0.001892
0.463135 0.217194 0.000000
0.503540 0.218292 0.000000
0.545990 0.213013 0.000000
0.584900 0.218292 0.001007
0.622803 0.215668 0.000000
0.659668 0.212433 0.000000
0.702087 0.213989 0.000763
0.739838 0.211761 0.002960
0.777130 0.213013 0.003754
0.807068 0.208710 0.001099
0.852173 0.208710 0.000000
0.888153 0.204346 0.000946
0.907257 0.204346 0.002441
0.927246 0.200989 0.000000
0.948883 0.195709 0.000000
0.968658 0.196686 0.000549
0.990814 0.190002 0.004852
0.001251 0.252350 0.002441
0.001160 0.249146 0.000610
0.000000 0.249146 0.000000
0.000458 0.251617 0.000000
0.000000 0.255524 0.001801
0.022247 0.253448 0.000000
0.065521 0.252594 0.004700
0.114471 0.249146 0.004303
0.157196 0.259857 0.000000
0.206573 0.250244 0.000061
0.246826 0.249146 0.001648
0.285858 0.251923 0.000458
0.330811 0.250641 0.000946
0.375153 0.253448 0.002045
0.420105 0.252350 0.000000
0.460327 0.253448 0.000000
0.505615 0.251373 0.000000
0.547302 0.249146 0.000000
0.584473 0.250519 0.001251
0.621613 0.249146 0.000000
0.662567 0.249146 0.001251
0.697693 0.245911 0.000000
0.737640 0.246735 0.000000
0.777130 0.245911 0.000610
0.810760 0.243683 0.000000
0.850128 0.240479 0.000000
0.891113 0.238678 0.000000
0.912140 0.235046 0.001251
0.931732 0.229065 0.000610
0.950165 0.231842 0.002258
0.971649 0.228485 0.001709
0.988495 0.219971 0.000000
0.001709 0.283020 0.000000
0.003448 0.286072 0.001709
0.000000 0.283020 0.003448
0.000000 0.284698 0.003693
0.001709 0.287323 0.001709
0.004456 0.283722 0.000000
0.053131 0.290833 0.000214
0.098175 0.285950 0.000549
0.143280 0.285370 0.000000
0.195251 0.287323 0.000000
0.233582 0.295685 0.002350
0.282196 0.283569 0.000000
0.329041 0.286926 0.002197
0.373993 0.289276 0.002106
0.419189 0.291656 0.000000
0.460480 0.290833 0.000702
0.500885 0.292908 0.000000
0.541412 0.285492 0.000000
0.582977 0.287323 0.001404
0.616943 0.286926 0.002991
0.656982 0.284271 0.000000
0.697235 0.283020 0.000000
0.732361 0.281189 0.000702
0.772003 0.281189 0.000702
0.813843 0.278015 0.000000
0.853333 0.274628 0.000000
0.888153 0.270599 0.000702
0.910187 0.273254 0.000000
0.928131 0.266968 0.000000
0.950073 0.262665 0.000000
0.967316 0.262817 0.000000
0.989594 0.262665 0.000000
0.001648 0.322327 0.000000
0.002594 0.322205 0.000000
0.000763 0.319397 0.000000
0.001648 0.319824 0.001648
0.003754 0.319397 0.001648
0.000397 0.319397 0.000000
0.033478 0.321503 0.000336
0.080444 0.317993 0.000549
0.132233 0.322327 0.000610
0.190857 0.319275 0.000763
0.232117 0.323730 0.001648
0.282806 0.319672 0.000061
0.321991 0.323730 0.000336
0.367523 0.323730 0.001404
0.412750 0.325653 0.001099
0.460480 0.324432 0.000000
0.496796 0.324554 0.000763
0.540405 0.322754 0.003204
0.579895 0.322327 0.007446
0.621307 0.322052 0.007294
0.658478 0.320801 0.003998
0.693848 0.316498 0.005554
0.732483 0.317993 0.006500
0.774048 0.316498 0.003754
0.814148 0.310211 0.002747
0.850403 0.306427 0.002106
0.888153 0.309357 0.002899
0.910492 0.306427 0.001648
0.927185 0.304626 0.002197
0.949127 0.300690 0.000763
0.969666 0.297913 0.000000
0.991058 0.293488 0.000763
0.000000 0.358887 0.000000
0.001709 0.351746 0.000000
0.003845 0.352325 0.000702
0.000000 0.357605 0.000000
0.000549 0.355103 0.000885
0.000000 0.356079 0.000885
0.015137 0.361664 0.005646
0.067230 0.353302 0.002258
0.122559 0.359283 0.005890
0.178070 0.356354 0.005005
0.229340 0.354797 0.003296
0.273560 0.360382 0.006287
0.322876 0.358887 0.002350
0.364716 0.363190 0.002258
0.416718 0.360382 0.004639
0.453278 0.362640 0.002441
0.493103 0.358154 0.006989
0.538483 0.358887 0.007782
0.580322 0.355377 0.010590
0.618805 0.356079 0.011200
0.655701 0.354523 0.010590
0.694000 0.350220 0.013092
0.732635 0.348938 0.013885
0.771240 0.348663 0.015350
0.811218 0.344391 0.007446
0.853210 0.345032 0.008148
0.890259 0.343658 0.004852
0.906433 0.341583 0.001709
0.927246 0.336853 0.000885
0.949219 0.332947 0.000885
0.971954 0.332947 0.001495
0.991150 0.330139 0.002441
0.000000 0.395691 0.000000
0.003052 0.394135 0.001495
0.002258 0.395935 0.001495
0.002197 0.395264 0.001495
0.001495 0.394012 0.005798
0.000000 0.394684 0.004700
0.005798 0.391327 0.005798
0.054230 0.388000 0.007843
0.113159 0.397766 0.005798
0.168243 0.396240 0.008362
0.230225 0.393036 0.007294
0.275146 0.392609 0.008148
0.318909 0.394012 0.004852
0.366058 0.398193 0.005890
0.410400 0.396393 0.007294
0.450043 0.396088 0.004852
0.493561 0.394012 0.003693
0.534851 0.395233 0.006744
0.575806 0.393158 0.012146
0.613708 0.394012 0.012299
0.656982 0.383698 0.017883
0.694000 0.388275 0.018494
0.731476 0.385345 0.017090
0.770813 0.382141 0.017639
0.810608 0.381042 0.013489
0.848511 0.375854 0.009705
0.889465 0.376038 0.009338
0.906982 0.374054 0.006104
0.929840 0.368500 0.002197
0.947784 0.369019 0.000000
0.969971 0.368042 0.000946
0.989746 0.365387 0.001862
0.000000 0.437805 0.000000
0.000061 0.435120 0.000000
0.001007 0.431671 0.001007
0.000000 0.430969 0.002655
0.000610 0.430969 0.007996
0.001251 0.430969 0.012299
0.001404 0.432648 0.013550
0.038391 0.427612 0.012543
0.101410 0.433441 0.009583
0.166016 0.430389 0.011444
0.218018 0.435272 0.009705
0.272217 0.433197 0.011292
0.316254 0.435974 0.010651
0.365326 0.430969 0.008301
0.407166 0.427063 0.008484
0.448273 0.429138 0.006897
0.492676 0.431244 0.009979
0.536713 0.425385 0.012146
0.573883 0.427338 0.013947
0.615448 0.423035 0.014099
0.652130 0.420776 0.021545
0.694000 0.420502 0.022888
0.731018 0.419220 0.020142
0.775208 0.416168 0.022644
0.809570 0.415192 0.021332
0.848480 0.414368 0.017487
0.885498 0.412567 0.014587
0.907806 0.410034 0.009399
0.927399 0.403198 0.004700
0.949219 0.400940 0.001160
0.969360 0.401276 0.000000
0.990295 0.400696 0.001007
0.001343 0.470551 0.000000
0.000000 0.471008 0.002655
0.000000 0.471008 0.004852
0.001343 0.468597 0.007538
0.000000 0.468201 0.008942
0.001709 0.466217 0.012238
0.000000 0.471802 0.012787
0.024841 0.460938 0.011902
0.093201 0.462891 0.017944
0.164307 0.468475 0.015289
0.209778 0.464844 0.011993
0.260162 0.470551 0.007751
0.310547 0.468353 0.012146
0.358704 0.464417 0.014435
0.403046 0.468597 0.013245
0.442261 0.464264 0.009644
0.491089 0.458313 0.011047
0.534851 0.461914 0.012146
0.573883 0.458588 0.014893
0.617218 0.457306 0.016083
0.652466 0.457581 0.021637
0.694580 0.455627 0.022186
0.734955 0.452576 0.022949
0.770081 0.449371 0.019073
0.806030 0.445038 0.023499
0.844543 0.442688 0.019653
0.882568 0.445343 0.018646
0.907806 0.440277 0.013306
0.927734 0.438324 0.010803
0.948425 0.434021 0.002594
0.970520 0.433716 0.000000
0.991638 0.431641 0.000000
0.000000 0.503601 0.004852
0.000000 0.501648 0.007294
0.001160 0.501495 0.007202
0.000946 0.498840 0.005707
0.000000 0.500000 0.007538
0.000000 0.503723 0.014496
0.000458 0.502930 0.017029
0.014343 0.496216 0.013885
0.072021 0.503906 0.017792
0.149323 0.498596 0.015045
0.203674 0.501495 0.017334
0.251678 0.502625 0.015198
0.306427 0.498840 0.014496
0.351959 0.499695 0.015747
0.395996 0.497467 0.015839
0.442261 0.497345 0.013336
0.484314 0.499268 0.013397
0.532471 0.495392 0.014496
0.571686 0.492981 0.015991
0.611511 0.492859 0.015747
0.654785 0.490784 0.018677
0.694916 0.489929 0.018951
0.732910 0.486420 0.019440
0.774811 0.484344 0.021240
0.808411 0.482117 0.021881
0.851135 0.479919 0.023499
0.883026 0.479340 0.019440
0.907684 0.478943 0.021545
0.928589 0.473480 0.013489
0.949463 0.471405 0.005096
0.966919 0.469147 0.001160
0.989105 0.469025 0.001160
0.000000 0.538910 0.007202
0.001251 0.534424 0.007355
0.001251 0.532349 0.009705
0.001007 0.532776 0.009705
0.001251 0.530273 0.008545
0.000000 0.534607 0.015747
0.000000 0.531097 0.019653
0.002350 0.533447 0.014038
0.054779 0.534424 0.021240
0.128693 0.531250 0.021881
0.191864 0.532501 0.019501
0.245483 0.530273 0.020294
0.298340 0.530273 0.019501
0.347382 0.531921 0.020691
0.397919 0.530121 0.019501
0.442261 0.530273 0.018341
0.483856 0.528046 0.015930
0.528076 0.526245 0.016144
0.570099 0.524414 0.018829
0.613708 0.526489 0.018280
0.653473 0.522186 0.016144
0.687866 0.522339 0.014984
0.731873 0.520660 0.016296
0.777130 0.520508 0.017731
0.806030 0.513947 0.020050
0.846741 0.512970 0.020691
0.885803 0.512970 0.019897
0.908844 0.508514 0.019226
0.927094 0.509216 0.016296
0.946930 0.505890 0.010040
0.970520 0.506561 0.003845
0.991455 0.504456 0.000000
0.001343 0.563019 0.009705
0.001343 0.565430 0.008362
0.002258 0.561371 0.009705
0.001099 0.569336 0.011902
0.001099 0.567230 0.009186
0.001099 0.569733 0.014038
0.000000 0.570435 0.014801
0.000000 0.564026 0.018890
0.040588 0.563019 0.023834
0.117584 0.563599 0.024139
0.179718 0.566376 0.024780
0.236816 0.565826 0.024078
0.290863 0.564728 0.023193
0.345337 0.565430 0.023285
0.390991 0.563019 0.024292
0.435516 0.559296 0.021088
0.481506 0.558868 0.019684
0.527802 0.558746 0.020538
0.569336 0.559265 0.019836
0.617218 0.561096 0.021698
0.654938 0.558746 0.018341
0.689026 0.552002 0.016449
0.731018 0.553680 0.014984
0.773438 0.551331 0.017029
0.812103 0.549103 0.019745
0.846619 0.543518 0.018097
0.884888 0.543091 0.019745
0.910187 0.543793 0.022339
0.929077 0.542694 0.014587
0.950623 0.538788 0.008545
0.970459 0.537659 0.002502
0.990540 0.535156 0.002441
0.003845 0.598022 0.009705
0.001343 0.593842 0.007294
0.000000 0.602356 0.012543
0.000214 0.601532 0.014343
0.000000 0.598175 0.013245
0.002411 0.599152 0.015198
0.002899 0.598846 0.018890
0.001099 0.598602 0.022949
0.022919 0.598022 0.023346
0.096405 0.599304 0.027374
0.177765 0.596252 0.029938
0.232117 0.596252 0.030029
0.285278 0.595398 0.024292
0.334167 0.594421 0.023682
0.382202 0.594421 0.027039
0.426392 0.594421 0.025726
0.472839 0.593719 0.023041
0.521027 0.596100 0.021881
0.567444 0.593719 0.023682
0.610901 0.593719 0.022797
0.652466 0.591888 0.018951
0.690338 0.586884 0.018402
0.732361 0.587585 0.017731
0.776398 0.586884 0.017792
0.806915 0.583252 0.015045
0.848663 0.579742 0.013855
0.890045 0.578949 0.017242
0.910248 0.575165 0.020142
0.928589 0.576416 0.011993
0.949219 0.574615 0.008484
0.971008 0.574615 0.001099
0.992706 0.574615 0.000000
0.001495 0.629700 0.006348
0.000946 0.631348 0.008240
0.000000 0.634735 0.008545
0.001251 0.635254 0.012451
0.000946 0.631348 0.011200
0.002441 0.628693 0.014587
0.000000 0.628693 0.019440
0.002441 0.629700 0.025787
0.009613 0.629120 0.026428
0.088165 0.630096 0.033691
0.162659 0.630951 0.033325
0.234070 0.630249 0.035736
0.279999 0.630371 0.029694
0.334320 0.631348 0.032074
0.381317 0.627747 0.029144
0.428162 0.627045 0.027985
0.474335 0.627045 0.025482
0.522644 0.626068 0.024292
0.564789 0.625366 0.026825
0.607361 0.627045 0.025787
0.648926 0.622711 0.024933
0.686646 0.622711 0.022644
0.726898 0.620483 0.019440
0.772552 0.620056 0.021240
0.808838 0.614777 0.019989
0.853058 0.615753 0.019073
0.886383 0.611420 0.014984
0.908844 0.612427 0.012787
0.930084 0.609772 0.009949
0.950928 0.603058 0.004608
0.973663 0.605408 0.000885
0.992706 0.608093 0.000946
0.001709 0.662170 0.010406
0.002502 0.664825 0.011993
0.002594 0.659698 0.012299
0.003296 0.666504 0.014587
0.001556 0.668030 0.014587
0.003296 0.663727 0.020203
0.002441 0.662170 0.022186
0.002106 0.661194 0.024139
0.008301 0.662170 0.027985
0.068329 0.659119 0.030884
0.156189 0.660919 0.030792
0.222443 0.659393 0.033325
0.277771 0.660522 0.033081
0.326996 0.661194 0.032593
0.376892 0.659393 0.030487
0.426239 0.662872 0.029541
0.470917 0.659393 0.031586
0.517792 0.660919 0.031097
0.562592 0.659698 0.029144
0.603241 0.662048 0.027588
0.644958 0.655060 0.025879
0.685211 0.657867 0.025879
0.728058 0.655060 0.022583
0.763733 0.653107 0.021240
0.812103 0.649231 0.020996
0.846619 0.647675 0.017395
0.889008 0.644196 0.015442
0.909393 0.645447 0.011444
0.928345 0.645325 0.008362
0.950623 0.643372 0.003448
0.975311 0.642090 0.001648
0.997559 0.639313 0.000000
0.001648 0.697327 0.014587
0.001556 0.697449 0.012939
0.000000 0.698883 0.012146
0.001648 0.698700 0.011353
0.002106 0.694397 0.020233
0.000397 0.699554 0.014893
0.001648 0.694397 0.021942
0.001648 0.694397 0.024292
0.001862 0.692993 0.030579
0.056580 0.690063 0.028900
0.143860 0.695892 0.036469
0.223877 0.690063 0.038086
0.270294 0.694397 0.034027
0.320953 0.696228 0.034027
0.371185 0.690063 0.035370
0.419495 0.693817 0.035675
0.463440 0.690063 0.032776
0.508972 0.689514 0.031281
0.555237 0.690491 0.030182
0.598724 0.687408 0.026031
0.640289 0.690063 0.027527
0.683441 0.690063 0.025940
0.728088 0.688690 0.027527
0.764954 0.688690 0.026093
0.805481 0.684326 0.017029
0.851135 0.684326 0.016235
0.885803 0.681427 0.010498
0.908691 0.677094 0.007294
0.927185 0.679077 0.001251
0.951263 0.679749 0.000610
0.975311 0.678619 0.000000
0.997559 0.675690 0.000000
0.001709 0.732452 0.015289
0.000000 0.729370 0.012146
0.000702 0.728149 0.012146
0.000000 0.728149 0.014038
0.000702 0.725067 0.017029
0.003754 0.727051 0.018097
0.001160 0.722443 0.017883
0.001404 0.726074 0.025543
0.004639 0.724945 0.029633
0.045288 0.723267 0.031586
0.130341 0.725220 0.034180
0.206848 0.721008 0.035919
0.263855 0.723663 0.036621
0.323029 0.725067 0.034027
0.370728 0.723816 0.034729
0.418182 0.722839 0.035339
0.461243 0.721588 0.034027
0.502502 0.723816 0.032684
0.553772 0.721313 0.030182
0.596802 0.718079 0.027649
0.634521 0.721008 0.024841
0.680481 0.720734 0.024384
0.725159 0.719482 0.023285
0.761536 0.716431 0.020935
0.806366 0.715149 0.019440
0.846161 0.712097 0.015045
0.886108 0.715149 0.009399
0.910553 0.715729 0.003448
0.929291 0.712097 0.002197
0.951477 0.707794 0.000000
0.973663 0.712097 0.000000
0.998291 0.710846 0.000000
0.004242 0.755768 0.010345
0.000610 0.758972 0.010345
0.000610 0.758972 0.013947
0.000610 0.762146 0.015747
0.000000 0.762726 0.015442
0.001862 0.758972 0.015839
0.000458 0.759796 0.015686
0.000000 0.763275 0.019897
0.000610 0.758972 0.023743
0.029846 0.758820 0.033386
0.122101 0.756714 0.030487
0.195557 0.757263 0.031738
0.262970 0.754608 0.034882
0.319794 0.751434 0.034821
0.361908 0.753510 0.034180
0.412750 0.757843 0.034027
0.457886 0.756866 0.031586
0.506653 0.752258 0.029144
0.547729 0.754608 0.027740
0.592102 0.755188 0.026428
0.633789 0.754211 0.018402
0.680054 0.757843 0.019897
0.719543 0.757843 0.015289
0.758911 0.751434 0.011597
0.804871 0.749329 0.004395
0.848785 0.750305 0.007751
0.884064 0.751007 0.002808
0.907043 0.750305 0.000000
0.930634 0.746674 0.001801
0.953186 0.747925 0.000000
0.975372 0.746948 0.000000
0.993958 0.747101 0.002441
0.000549 0.789764 0.002960
0.000000 0.791718 0.003510
0.000000 0.790741 0.002960
0.000000 0.791565 0.003204
0.000885 0.795929 0.005951
0.000549 0.789764 0.004852
0.001892 0.795074 0.010742
0.001892 0.794098 0.013245
0.002350 0.788910 0.019989
0.017456 0.796204 0.017059
0.114166 0.787811 0.025177
0.187042 0.789764 0.026184
0.257965 0.790741 0.029297
0.312592 0.788208 0.026825
0.359589 0.788788 0.022949
0.407898 0.786713 0.022339
0.454193 0.787689 0.017944
0.506500 0.788788 0.019989
0.546570 0.788788 0.016144
0.591949 0.788086 0.014740
0.639252 0.786987 0.007904
0.676819 0.786438 0.005402
0.721893 0.782379 0.005798
0.764496 0.782227 0.005249
0.804016 0.782104 0.000549
0.848053 0.785461 0.000458
0.883606 0.782104 0.000000
0.908478 0.785461 0.002106
0.932983 0.784882 0.000000
0.951324 0.785461 0.000000
0.975372 0.781128 0.000000
0.998108 0.785461 0.002441
0.001953 0.828400 0.000458
0.000061 0.825043 0.000458
0.002441 0.827545 0.000458
0.004395 0.824921 0.000000
0.005737 0.817657 0.000458
0.000000 0.821411 0.001953
0.000946 0.821411 0.001953
0.002899 0.828400 0.000946
0.001953 0.826172 0.001404
0.011902 0.824921 0.002350
0.097870 0.819336 0.008850
0.181732 0.823364 0.008698
0.247986 0.823242 0.011597
0.303345 0.824921 0.011597
0.362091 0.818359 0.010956
0.412140 0.821411 0.010406
0.457581 0.819336 0.003601
0.503845 0.820312 0.001862
0.547455 0.821564 0.001862
0.595490 0.819733 0.003357
0.635132 0.820587 0.000000
0.679504 0.821411 0.000458
0.723816 0.820587 0.000000
0.763458 0.823822 0.000458
0.801361 0.821411 0.000000
0.846619 0.819733 0.001953
0.883606 0.819885 0.002045
0.911102 0.819733 0.002106
0.930542 0.821014 0.003906
0.953827 0.817657 0.000458
0.975861 0.820587 0.000000
0.995605 0.824921 0.002441
0.000000 0.859344 0.000000
0.004456 0.863678 0.000000
0.004150 0.863403 0.000153
0.002258 0.856140 0.002258
0.001099 0.863251 0.003754
0.003693 0.856415 0.001648
0.000885 0.862122 0.000763
0.002991 0.862976 0.001099
0.002655 0.861145 0.000397
0.002106 0.866730 0.000000
0.076874 0.856415 0.000397
0.177765 0.859192 0.000000
0.240509 0.861328 0.000946
0.302338 0.858215 0.000000
0.358551 0.856720 0.000000
0.411865 0.856415 0.000000
0.453613 0.854309 0.000000
0.503693 0.858093 0.000000
0.551147 0.858948 0.000397
0.596191 0.853088 0.000000
0.641876 0.860046 0.003601
0.684174 0.856415 0.000763
0.727081 0.856415 0.000000
0.766846 0.859619 0.001801
0.805756 0.860046 0.000000
0.849365 0.859192 0.000000
0.883606 0.856415 0.000397
0.911285 0.856293 0.004547
0.935516 0.855743 0.000000
0.955872 0.855591 0.000214
0.979858 0.855591 0.000397
1.000000 0.856415 0.002808
0.000000 0.898407 0.000000
0.000397 0.898956 0.002197
0.002258 0.898651 0.004089
0.000000 0.899506 0.002106
0.002441 0.895203 0.002747
0.000000 0.895325 0.001709
0.000000 0.900085 0.000000
0.000885 0.897980 0.000549
0.000610 0.897858 0.000610
0.000702 0.897675 0.002106
0.058990 0.890869 0.000000
0.161743 0.898956 0.000000
0.232513 0.897278 0.000000
0.299530 0.895203 0.001007
0.355042 0.895203 0.001007
