assets/Presetpro  - Kodacrome 64.cube
#Created by: Adobe Photoshop Export Color Lookup Plugin
#Copyright: (C) Copyright 2022 Tim Martin and Presetpro.com
TITLE "Presetpro - Kodachrome 64.jpg"
#LUT size
LUT_3D_SIZE 5
#data domain
#LUT data points
DOMAIN_MIN 0.000000 0.000000 0.000000
DOMAIN_MAX 0.903226 0.903226 0.903226
0.003937 0.000000 0.000000
0.093445 0.002136 0.001801
0.236542 0.011780 0.000671
0.445679 0.000000 0.000000
0.711395 0.003937 0.000000
0.000000 0.099426 0.034027
0.093414 0.098541 0.015106
0.260101 0.096283 0.002014
0.469635 0.093323 0.000000
0.741730 0.077698 0.001617
0.000854 0.253540 0.096680
0.004547 0.248901 0.091980
0.248108 0.262390 0.066406
0.522156 0.279480 0.000000
0.796051 0.303986 0.000000
0.000000 0.516968 0.168488
0.003937 0.515503 0.148163
0.049652 0.510345 0.141144
0.481934 0.522736 0.059784
0.802155 0.557526 0.005554
0.000122 0.768280 0.317657
0.000580 0.765442 0.301788
0.000519 0.758881 0.296448
0.431183 0.758575 0.280609
0.747070 0.762238 0.199402
0.019135 0.000000 0.091766
0.096863 0.004761 0.081970
0.243439 0.015930 0.076019
0.456757 0.003937 0.058777
0.729309 0.000000 0.003021
0.004761 0.097321 0.111481
0.110321 0.099060 0.118469
0.256378 0.100647 0.103912
0.478088 0.092163 0.073547
0.750275 0.088135 0.000671
0.001404 0.255035 0.174072
0.035614 0.253143 0.155396
0.260864 0.264374 0.145264
0.527405 0.274292 0.099854
0.788971 0.304901 0.002594
0.000427 0.526398 0.245331
0.000732 0.521088 0.216980
0.081818 0.515350 0.202728
0.486664 0.528320 0.149872
0.810730 0.554840 0.014404
0.003510 0.763947 0.387695
0.002594 0.768341 0.363708
0.007629 0.767365 0.339386
0.444702 0.759583 0.333832
0.741425 0.765076 0.259033
0.050995 0.000000 0.211395
0.120697 0.000000 0.214294
0.256470 0.011780 0.216003
0.481903 0.000336 0.213593
0.734985 0.000000 0.170227
0.036652 0.089508 0.234802
0.135315 0.095581 0.248322
0.284332 0.106445 0.246826
0.499329 0.060944 0.225128
0.765594 0.053528 0.193085
0.001312 0.249420 0.281067
0.078766 0.269836 0.293304
0.325409 0.294250 0.302704
0.566956 0.296722 0.277710
0.823669 0.320221 0.226318
0.002411 0.525757 0.355225
0.000122 0.552551 0.375488
0.219147 0.554962 0.350433
0.555481 0.563629 0.331818
0.852081 0.583069 0.301971
0.000000 0.770142 0.481049
0.001434 0.790009 0.511871
0.251068 0.790741 0.477325
0.515198 0.782776 0.470490
0.782806 0.785217 0.425201
0.092468 0.000000 0.429718
0.174835 0.000000 0.437744
0.315491 0.000000 0.424286
0.517853 0.002502 0.427948
0.801117 0.000000 0.437164
0.080627 0.084534 0.448456
0.170258 0.077850 0.466858
0.332275 0.071564 0.451141
0.544250 0.060699 0.449310
0.813690 0.020233 0.455322
0.000885 0.228790 0.489960
0.066742 0.247681 0.518646
0.366486 0.277466 0.529480
0.618317 0.331940 0.526306
0.852081 0.353943 0.502411
0.003937 0.527191 0.542694
0.002197 0.550842 0.573273
0.359680 0.590668 0.600098
0.669708 0.632233 0.628906
0.883514 0.620972 0.600647
0.000000 0.770935 0.618896
0.002441 0.793488 0.646698
0.378113 0.817963 0.673553
0.636169 0.822479 0.683380
0.840149 0.826508 0.664612
0.235779 0.002197 0.720337
0.301239 0.000000 0.726105
0.440674 0.002991 0.729584
0.627228 0.003052 0.713135
0.851166 0.000275 0.721100
0.239716 0.000275 0.734314
0.311981 0.000000 0.747650
0.453003 0.000000 0.746399
0.647400 0.000793 0.736298
0.862000 0.016418 0.735626
0.204468 0.234528 0.756104
0.298523 0.248749 0.784729
0.474457 0.258728 0.796509
0.677368 0.304962 0.785309
0.894989 0.392853 0.784790
0.000000 0.485840 0.771698
0.051666 0.509338 0.800201
0.405457 0.543213 0.826019
0.696198 0.601685 0.840027
0.906982 0.660828 0.839905
0.052246 0.753754 0.805206
0.242889 0.772797 0.821198
0.451447 0.801880 0.845581
0.687988 0.837463 0.879669
0.928192 0.896118 0.912109
