assets/Presetpro - Agfa Ultra 100.cube
#Created by: Adobe Photoshop Export Color Lookup Plugin
#Copyright: (C) Copyright 2022 Tim Martin and Presetpro.com
TITLE "Presetpro - Agfa Ultra"
#LUT size
LUT_3D_SIZE 8
#data domain
#LUT data points
DOMAIN_MIN 0.000000 0.000000 0.000000
DOMAIN_MAX 0.903226 0.903226 0.903226
0.000000 0.000000 0.000000
0.049072 0.000000 0.000000
0.161926 0.028473 0.000000
0.305603 0.056427 0.008728
0.470978 0.078552 0.000000
0.633667 0.109802 0.000000
0.773834 0.152069 0.000000
0.904755 0.211395 0.000000
0.003418 0.052490 0.004944
0.060333 0.072113 0.003418
0.177094 0.096130 0.000519
0.317871 0.114349 0.000000
0.479340 0.138763 0.003418
0.640625 0.164825 0.004425
0.774841 0.199249 0.000519
0.900452 0.254761 0.004059
0.002899 0.176575 0.002899
0.001007 0.183929 0.000519
0.175568 0.205048 0.001007
0.341522 0.239349 0.000519
0.495514 0.247162 0.000000
0.640106 0.266785 0.004059
0.774841 0.294373 0.002014
0.906769 0.329163 0.002014
0.000000 0.336975 0.000000
0.001526 0.340912 0.004822
0.093994 0.357605 0.002533
0.331268 0.392792 0.000000
0.533234 0.422760 0.003418
0.662628 0.413025 0.000000
0.778381 0.409088 0.002411
0.904755 0.434662 0.000366
0.001892 0.510193 0.005951
0.000000 0.516541 0.003784
0.001892 0.525879 0.001007
0.250031 0.541565 0.000519
0.482483 0.563080 0.002014
0.689453 0.595856 0.002777
0.800385 0.574860 0.001892
0.909180 0.576355 0.002014
0.000000 0.667572 0.000000
0.006439 0.666412 0.000000
0.002533 0.671478 0.001404
0.064636 0.683258 0.006073
0.403168 0.693878 0.000000
0.619598 0.708160 0.001404
0.819122 0.742065 0.000000
0.936493 0.730316 0.000000
0.000000 0.810394 0.030365
0.003937 0.805206 0.044922
0.002014 0.804443 0.085144
0.004822 0.812775 0.086670
0.337524 0.822906 0.006836
0.557007 0.832275 0.000000
0.746368 0.835693 0.000885
0.941925 0.868835 0.001007
0.003540 0.928284 0.216949
0.003052 0.931946 0.210632
0.000000 0.931824 0.235413
0.002411 0.933319 0.260345
0.321198 0.940033 0.227081
0.528168 0.946106 0.127258
0.704010 0.948273 0.003052
0.869446 0.951416 0.000000
0.000000 0.000000 0.072601
0.060333 0.000000 0.076019
0.176575 0.000000 0.075531
0.312958 0.022003 0.081970
0.485168 0.046173 0.082977
0.640625 0.084900 0.073608
0.776855 0.141937 0.067810
0.906128 0.207092 0.061859
0.000000 0.060852 0.073120
0.064270 0.068176 0.083862
0.179108 0.079437 0.086273
0.317383 0.104492 0.073608
0.493500 0.124603 0.076385
0.641510 0.146606 0.057922
0.779144 0.195709 0.051483
0.900452 0.255157 0.050079
0.000519 0.181519 0.089813
0.005432 0.187347 0.085876
0.177094 0.204041 0.070190
0.349243 0.219330 0.039825
0.503754 0.237061 0.037842
0.643158 0.260834 0.023651
0.775726 0.286407 0.013275
0.906250 0.327271 0.006958
0.001526 0.339508 0.082458
0.000519 0.344330 0.088165
0.093628 0.359619 0.074524
0.338379 0.387573 0.001526
0.539032 0.415924 0.000519
0.662262 0.398224 0.002014
0.779755 0.406708 0.003937
0.905884 0.433777 0.002014
0.000000 0.512604 0.060333
0.001892 0.517029 0.068298
0.005829 0.524750 0.082977
0.254608 0.543457 0.006439
0.486542 0.561066 0.002014
0.690582 0.591400 0.000000
0.801270 0.571289 0.002533
0.914093 0.568146 0.001892
0.000000 0.665527 0.081726
0.000000 0.666046 0.093231
0.006958 0.669464 0.111572
0.100220 0.686676 0.078308
0.416473 0.691986 0.000000
0.624420 0.709564 0.005951
0.824036 0.744110 0.001892
0.934357 0.728912 0.000519
0.000885 0.804688 0.160034
0.000519 0.804321 0.166229
0.002014 0.805695 0.188751
0.004059 0.811371 0.202911
0.356262 0.821503 0.138885
0.561035 0.831757 0.002533
0.751160 0.838715 0.000000
0.945343 0.867950 0.001007
0.004303 0.931702 0.267181
0.003052 0.931824 0.273621
0.002899 0.934235 0.290955
0.006195 0.934357 0.317017
0.340698 0.936493 0.290558
0.537659 0.941925 0.223022
0.702850 0.948395 0.048431
0.870209 0.951813 0.006439
0.000000 0.000000 0.207977
0.027466 0.000000 0.208466
0.179504 0.000000 0.218719
0.338501 0.000000 0.224670
0.508179 0.001007 0.214935
0.651733 0.025574 0.226562
0.786865 0.131714 0.229706
0.904358 0.208099 0.230225
0.000519 0.076019 0.210999
0.002014 0.064270 0.217316
0.182922 0.064758 0.219849
0.341034 0.065155 0.215424
0.504395 0.073120 0.218842
0.653259 0.134613 0.227692
0.783173 0.185455 0.228577
0.907898 0.247803 0.231110
0.000000 0.184418 0.216827
0.000000 0.191772 0.221741
0.191376 0.200104 0.230591
0.355072 0.210876 0.229095
0.511078 0.227570 0.221741
0.655273 0.250854 0.217316
0.783813 0.286530 0.216949
0.907288 0.327759 0.219727
0.001007 0.344818 0.237946
0.005310 0.349762 0.249084
0.128906 0.360626 0.244141
0.351166 0.381653 0.215820
0.531708 0.396301 0.203033
0.655792 0.386566 0.194153
0.781158 0.404297 0.192383
0.907776 0.434662 0.197845
0.002045 0.517914 0.236542
0.001007 0.519073 0.238312
0.002899 0.526764 0.244385
0.271423 0.542847 0.242004
0.495392 0.561066 0.191650
0.689575 0.577240 0.155579
0.801392 0.561188 0.153290
0.909302 0.558777 0.151886
0.001404 0.666046 0.258423
0.001007 0.673401 0.259705
0.005188 0.675415 0.277649
0.180206 0.677826 0.288300
0.427704 0.692474 0.248322
0.626343 0.711090 0.183655
0.820496 0.734619 0.042175
0.930664 0.722321 0.041168
0.000000 0.802277 0.300323
0.003418 0.805695 0.306244
0.001007 0.804321 0.313232
0.092773 0.812531 0.343079
0.379761 0.821899 0.311188
0.574341 0.831757 0.269806
0.754333 0.840485 0.174805
0.948395 0.867950 0.003937
0.001404 0.929291 0.361908
0.000885 0.928772 0.366486
0.000000 0.930817 0.386200
0.098511 0.933716 0.399475
0.372437 0.936768 0.401398
0.551300 0.943970 0.358734
0.711090 0.947510 0.288666
0.872375 0.952423 0.135071
0.000000 0.002411 0.372284
0.001526 0.001526 0.373810
0.142700 0.000000 0.391876
0.333069 0.002411 0.402130
0.524384 0.001526 0.393402
0.682220 0.000000 0.380005
0.801025 0.045685 0.374176
0.907776 0.249207 0.409607
0.000000 0.064758 0.376709
0.000519 0.061859 0.386078
0.131042 0.056793 0.386078
0.345856 0.018097 0.407562
0.528290 0.000519 0.401611
0.676422 0.027710 0.375946
0.800903 0.163208 0.382660
0.908295 0.289551 0.415405
0.001526 0.201630 0.381653
0.000519 0.201141 0.379852
0.129303 0.190369 0.399353
0.353699 0.195679 0.414398
0.543854 0.206085 0.396942
0.671997 0.247803 0.389984
0.783325 0.312592 0.408722
0.904358 0.355713 0.401886
0.000000 0.346344 0.392517
0.000000 0.354187 0.398224
0.099792 0.361023 0.399353
0.365967 0.381653 0.416931
0.527161 0.387604 0.411499
0.658569 0.400757 0.402252
0.783173 0.418457 0.397339
0.906250 0.445282 0.391510
0.002014 0.514008 0.396851
0.001526 0.513489 0.400360
0.121948 0.525238 0.421875
0.331146 0.535614 0.435028
0.508545 0.559143 0.415894
0.670868 0.559662 0.389618
0.783569 0.545868 0.372284
0.904877 0.564087 0.375183
0.001007 0.662628 0.436951
0.003296 0.664642 0.450714
0.011993 0.673004 0.433014
0.286987 0.679321 0.447418
0.457184 0.691101 0.442108
0.640106 0.704742 0.417816
0.810516 0.721985 0.372284
0.921814 0.712585 0.353790
0.000000 0.801025 0.440460
0.003937 0.801910 0.445923
0.003418 0.801270 0.454132
0.241089 0.808228 0.468811
0.425812 0.815430 0.477905
0.592041 0.827850 0.447052
0.758148 0.838715 0.407562
0.947266 0.865021 0.331299
0.003540 0.926758 0.476776
0.003418 0.928894 0.481323
0.003052 0.926117 0.486511
0.225037 0.928650 0.504852
0.417480 0.932343 0.528656
0.573456 0.941071 0.500305
0.723846 0.943451 0.452728
0.873627 0.951172 0.393921
0.001892 0.000000 0.543335
0.003540 0.000000 0.545502
0.000000 0.003784 0.545227
0.291809 0.001526 0.560028
0.498322 0.001892 0.568909
0.672882 0.001892 0.556641
0.819855 0.003052 0.530823
0.927887 0.179871 0.532074
0.001892 0.060852 0.543854
0.001892 0.060333 0.543335
0.000000 0.047333 0.556488
0.292816 0.007843 0.565979
0.509064 0.001892 0.576874
0.678314 0.000519 0.564087
0.821136 0.075745 0.540955
0.925232 0.244659 0.537781
0.001892 0.211884 0.546539
0.002045 0.200104 0.553223
0.006073 0.182404 0.560028
0.294220 0.188873 0.564484
0.511230 0.188477 0.575989
0.682617 0.216797 0.566498
0.814941 0.274994 0.548401
0.915619 0.354828 0.547150
0.001892 0.348755 0.542969
0.004944 0.348755 0.544983
0.018677 0.364319 0.549408
0.314972 0.364807 0.566101
0.524872 0.381134 0.580292
0.677673 0.402252 0.562958
0.791656 0.436035 0.559784
0.895508 0.486511 0.574310
0.004059 0.508179 0.553070
0.003052 0.510956 0.555237
0.002899 0.518036 0.559174
0.330139 0.529297 0.569153
0.523865 0.549286 0.592560
0.659088 0.555237 0.577362
0.779907 0.561188 0.555359
0.902191 0.573944 0.553345
0.000000 0.653778 0.546875
0.000000 0.654266 0.546387
0.008972 0.666534 0.557251
0.349396 0.668945 0.578247
0.497437 0.688690 0.593567
0.648193 0.701965 0.576508
0.797974 0.703369 0.558136
0.907135 0.694366 0.524872
0.000885 0.793549 0.576721
0.000885 0.794067 0.578125
0.162872 0.793427 0.585724
0.325500 0.808746 0.591400
0.474030 0.812164 0.607361
0.618103 0.821381 0.600769
0.767883 0.837708 0.573700
0.932709 0.853394 0.536011
0.003540 0.918030 0.616455
0.004181 0.920563 0.613556
0.049408 0.923584 0.603943
0.286530 0.929291 0.608124
0.458832 0.933319 0.625824
0.596985 0.935242 0.636566
0.734589 0.941040 0.606720
0.880066 0.947876 0.568665
0.000000 0.000000 0.686035
0.000000 0.001404 0.686035
0.006073 0.001404 0.691467
0.210083 0.001404 0.699310
0.442383 0.001404 0.705627
0.649353 0.000000 0.717163
0.802673 0.000000 0.706512
0.946747 0.088928 0.693634
0.001404 0.060333 0.686035
0.003052 0.056427 0.691101
0.000000 0.046173 0.687531
0.216156 0.006439 0.699432
0.455048 0.000519 0.709564
0.653778 0.003418 0.723358
0.810120 0.007568 0.707275
0.946350 0.191284 0.688202
0.003937 0.184937 0.687042
0.001526 0.180511 0.691467
0.000000 0.183044 0.688690
0.223114 0.185303 0.697784
0.455292 0.187988 0.711090
0.660095 0.201752 0.718414
0.808594 0.253235 0.704895
0.941956 0.320923 0.694000
0.002899 0.355072 0.679199
0.000000 0.358124 0.686523
0.003052 0.366333 0.694885
0.251709 0.352295 0.706299
0.470337 0.368347 0.708557
0.661102 0.388977 0.717529
0.802917 0.416565 0.708160
0.931183 0.460571 0.699310
0.000000 0.502228 0.683258
0.002014 0.504242 0.685272
0.002014 0.511475 0.687561
0.299774 0.523865 0.689453
0.485657 0.526764 0.706787
0.662506 0.551300 0.724365
0.803284 0.569519 0.704376
0.909302 0.592041 0.706024
0.000000 0.647949 0.689941
0.004547 0.647461 0.691986
0.005951 0.650879 0.703003
0.281555 0.662506 0.700317
0.488190 0.677429 0.708160
0.662506 0.697784 0.725250
0.784180 0.696411 0.710449
0.901825 0.697784 0.692108
0.003418 0.784180 0.672882
0.001007 0.782684 0.668823
0.002899 0.787750 0.672882
0.268524 0.793182 0.696899
0.496643 0.802917 0.714996
0.644043 0.819489 0.727783
0.782532 0.830872 0.720947
0.918915 0.835175 0.689056
0.003937 0.916504 0.699829
0.000366 0.917511 0.700195
0.000000 0.921295 0.704346
0.338867 0.919678 0.720703
0.500854 0.925354 0.727783
0.636200 0.929657 0.743713
0.752960 0.939148 0.733734
0.889435 0.946869 0.716766
0.000000 0.000885 0.820892
0.001770 0.002533 0.813049
0.000000 0.002014 0.814178
0.086578 0.000000 0.823029
0.399384 0.002014 0.825958
0.604065 0.003937 0.838226
0.783813 0.003052 0.843536
0.932190 0.012146 0.827850
0.002533 0.060852 0.820496
0.002533 0.060852 0.824554
0.002899 0.044128 0.823425
0.085175 0.010742 0.829468
0.409912 0.001007 0.837189
0.609100 0.000000 0.840118
0.789520 0.002014 0.842651
0.936890 0.148010 0.841248
0.002014 0.182526 0.820007
0.000885 0.182526 0.815186
0.003052 0.187195 0.818848
0.109375 0.185303 0.823395
0.413177 0.185455 0.830750
0.615570 0.201141 0.833282
0.789764 0.237549 0.841644
0.933472 0.304871 0.839233
0.001526 0.367462 0.816071
0.003937 0.362030 0.820007
0.001526 0.335968 0.820496
0.165314 0.340912 0.819366
0.428741 0.357117 0.825684
0.620758 0.377228 0.834808
0.788635 0.402527 0.846558
0.930420 0.446777 0.834290
0.001007 0.511230 0.806213
0.000000 0.512238 0.804169
0.004791 0.515015 0.813904
0.255005 0.520966 0.818481
0.437469 0.509949 0.825806
0.624054 0.527771 0.834167
0.787872 0.553223 0.837708
0.931183 0.574341 0.837585
0.003418 0.644043 0.805695
0.001770 0.644928 0.806580
0.006836 0.644531 0.805450
0.225769 0.652771 0.813538
0.452271 0.667053 0.817596
0.623413 0.673767 0.831268
0.787476 0.695648 0.839966
0.920166 0.713348 0.830750
0.003052 0.777740 0.809113
0.000885 0.779907 0.812164
0.004669 0.787750 0.812897
0.166168 0.787109 0.816071
0.431519 0.794434 0.821136
0.628723 0.808228 0.827850
0.800385 0.830872 0.845306
0.913605 0.821014 0.828461
0.000519 0.914856 0.799011
0.000519 0.914856 0.800018
0.005951 0.911194 0.799744
0.003418 0.915497 0.800659
0.417358 0.919037 0.809113
0.637573 0.923981 0.835175
0.785065 0.931183 0.852264
0.904755 0.943451 0.840607
0.000000 0.000000 0.940430
0.003540 0.000000 0.943970
0.002014 0.000000 0.940033
0.000000 0.002014 0.950043
0.375732 0.001892 0.945862
0.585846 0.000366 0.951416
0.768250 0.003418 0.952179
0.923584 0.054291 0.954590
0.000000 0.073120 0.939667
0.000763 0.072601 0.946503
0.002533 0.059204 0.946991
0.008087 0.034912 0.936890
0.386749 0.002899 0.946381
0.594208 0.001526 0.954468
0.765106 0.048828 0.957001
0.927765 0.168365 0.959259
0.000000 0.192902 0.947510
0.001007 0.194794 0.939423
0.002014 0.195435 0.947510
0.026276 0.195435 0.942444
0.391418 0.201263 0.946503
0.592529 0.220856 0.951050
0.769012 0.251495 0.955994
0.920807 0.305237 0.949280
0.000366 0.355713 0.938538
0.001892 0.343811 0.940430
0.000000 0.346466 0.939514
0.057831 0.351288 0.945465
0.405457 0.359375 0.943970
0.598999 0.380768 0.944855
0.770172 0.400879 0.952179
0.920563 0.437561 0.949524
0.000366 0.529297 0.933472
0.001526 0.528778 0.933716
0.000763 0.527771 0.934570
0.145508 0.507050 0.936890
0.402283 0.505768 0.945862
0.599121 0.521454 0.942963
0.763580 0.538910 0.947113
0.918030 0.568146 0.949524
0.003937 0.660736 0.930298
0.003540 0.662109 0.922455
0.000366 0.662994 0.927643
0.183655 0.665039 0.928253
0.427856 0.665161 0.932343
0.585968 0.653656 0.940033
0.758118 0.677063 0.939911
0.916138 0.698547 0.948883
0.000000 0.784698 0.927521
0.003052 0.781158 0.927765
0.009125 0.782166 0.928528
0.045593 0.788605 0.927246
0.401794 0.788635 0.924622
0.594696 0.792419 0.925751
0.760040 0.799896 0.938782
0.916016 0.823425 0.943329
0.000000 0.908661 0.924744
0.000000 0.912201 0.928284
0.001007 0.910187 0.929810
0.003021 0.908661 0.926239
0.354980 0.911438 0.929932
0.579285 0.918671 0.930420
0.767120 0.923096 0.935608
0.927887 0.932953 0.948273
