assets/Presetpro - Agfa Ultra 100.cube
#Created by: Adobe Photoshop Export Color Lookup Plugin
#Copyright: (C) Copyright 2022 Tim Martin and Presetpro.com
TITLE "Presetpro - Agfa Ultra"
#LUT size
LUT_3D_SIZE 32
#data domain
DOMAIN_MIN 0.0 0.0 0.0
DOMAIN_MAX 1.0 1.0 1.0
#LUT data points
0.000000 0.000000 0.000000
0.004059 0.003937 0.000000
0.019867 0.003662 0.000000
0.035675 0.003540 0.000000
0.049072 0.000000 0.000000
0.083618 0.007843 0.000000
0.104980 0.010101 0.000763
0.139008 0.023529 0.006958
0.161926 0.028473 0.000000
0.197845 0.036438 0.001129
0.229828 0.041748 0.001251
0.267151 0.053772 0.000000
0.305603 0.056427 0.008728
0.339264 0.066040 0.000000
0.393158 0.064514 0.007843
0.430847 0.072479 0.000000
0.470978 0.078552 0.000000
0.516663 0.088043 0.001770
0.558136 0.086273 0.000000
0.598755 0.095001 0.002411
0.633667 0.109802 0.000000
0.669464 0.116394 0.000000
0.708038 0.131073 0.001129
0.738159 0.137268 0.000000
0.773834 0.152069 0.000000
0.807220 0.167114 0.000000
0.837311 0.179138 0.000000
0.868073 0.198486 0.000000
0.904755 0.211395 0.000000
0.936249 0.230865 0.000000
0.967987 0.250610 0.000000
1.000000 0.270599 0.000000
0.000122 0.007965 0.000000
0.004181 0.011780 0.000122
0.016449 0.011902 0.000000
0.032623 0.012024 0.000000
0.056030 0.012909 0.000366
0.077148 0.023651 0.000000
0.105743 0.025055 0.000000
0.142944 0.035553 0.006836
0.161926 0.040466 0.000000
0.199738 0.049194 0.002777
0.229980 0.057678 0.000000
0.264618 0.062744 0.006439
0.300934 0.068573 0.001404
0.347229 0.077789 0.006195
0.390991 0.082611 0.000000
0.434906 0.086151 0.004181
0.474792 0.090576 0.000122
0.518921 0.098175 0.000122
0.560669 0.096771 0.000000
0.597870 0.109192 0.002411
0.633667 0.120178 0.000122
0.671997 0.128265 0.000000
0.704132 0.136230 0.002655
0.743835 0.148132 0.000244
0.771912 0.160156 0.000000
0.808105 0.175079 0.000763
0.839966 0.190277 0.003296
0.872101 0.202545 0.000000
0.904877 0.222382 0.000000
0.932312 0.238464 0.003662
0.971924 0.254761 0.000000
1.000000 0.266785 0.000000
0.000000 0.020111 0.003662
0.007477 0.016052 0.000000
0.015930 0.019867 0.000000
0.036316 0.024292 0.004059
0.049835 0.032135 0.000000
0.084106 0.032501 0.000000
0.108154 0.040741 0.000000
0.138123 0.048462 0.001251
0.167999 0.052002 0.000000
0.198730 0.063507 0.003662
0.225677 0.069183 0.001007
0.274261 0.072723 0.003662
0.305237 0.080200 0.000000
0.347992 0.088409 0.002777
0.394165 0.092712 0.005829
0.433258 0.098145 0.000519
0.475037 0.100830 0.000244
0.518677 0.113983 0.001770
0.558136 0.114227 0.000000
0.598999 0.122711 0.000000
0.637573 0.133850 0.006195
0.666687 0.142822 0.000000
0.707794 0.149780 0.003662
0.742065 0.158752 0.003662
0.779144 0.168243 0.000000
0.805573 0.183319 0.000000
0.836700 0.198120 0.006714
0.865662 0.208344 0.000000
0.899445 0.226959 0.000000
0.936493 0.242645 0.000244
0.968384 0.262604 0.000244
0.999756 0.278687 0.003937
0.000000 0.028961 0.000366
0.003662 0.032501 0.000000
0.016205 0.039978 0.000000
0.035675 0.044281 0.000000
0.064270 0.048706 0.003540
0.084747 0.052734 0.000000
0.113586 0.059967 0.000000
0.139648 0.064392 0.000000
0.169128 0.069061 0.000000
0.197083 0.081604 0.000000
0.234528 0.088287 0.000000
0.270844 0.090942 0.000366
0.307495 0.098419 0.000000
0.349762 0.100830 0.000366
0.390381 0.109161 0.004303
0.435272 0.114868 0.000763
0.477325 0.116882 0.000000
0.517029 0.126617 0.000366
0.563965 0.130920 0.000000
0.600281 0.136505 0.002411
0.636810 0.148773 0.001404
0.671356 0.155609 0.002655
0.706543 0.164337 0.003540
0.741058 0.169769 0.000763
0.769379 0.185974 0.000000
0.807587 0.196472 0.003174
0.839233 0.204437 0.003540
0.873749 0.223267 0.003052
0.900452 0.236053 0.000000
0.940430 0.254639 0.000000
0.971924 0.267303 0.000000
0.992920 0.289825 0.000000
0.003418 0.052490 0.004944
0.003540 0.053131 0.004059
0.012268 0.056671 0.000000
0.027710 0.061218 0.000122
0.060333 0.072113 0.003418
0.093231 0.080200 0.003937
0.114594 0.087799 0.000000
0.148773 0.088287 0.000000
0.177094 0.096130 0.000519
0.201263 0.097260 0.000641
0.231598 0.101562 0.000763
0.273621 0.107391 0.003418
0.317871 0.114349 0.000000
0.349884 0.123077 0.001007
0.397980 0.126617 0.000000
0.434509 0.135742 0.002014
0.479340 0.138763 0.003418
0.519806 0.146118 0.000000
0.560272 0.150177 0.000000
0.598236 0.162170 0.000000
0.640625 0.164825 0.004425
0.677307 0.172302 0.003021
0.708679 0.181915 0.000000
0.740540 0.187225 0.005829
0.774841 0.199249 0.000519
0.805054 0.208588 0.003937
0.839966 0.223267 0.000519
0.869568 0.235291 0.004425
0.900452 0.254761 0.004059
0.936493 0.270081 0.000000
0.968506 0.283630 0.003784
0.998993 0.299561 0.006836
0.003296 0.080963 0.003296
0.003296 0.080963 0.003296
0.007080 0.077667 0.000000
0.027191 0.089172 0.003540
0.056152 0.089294 0.000519
0.084869 0.099945 0.003937
0.124603 0.107910 0.000000
0.158386 0.116516 0.000000
0.180756 0.121063 0.000641
0.216309 0.118530 0.004425
0.238953 0.131317 0.005951
0.281830 0.123718 0.000000
0.319794 0.136749 0.003021
0.352295 0.141815 0.002899
0.398224 0.151672 0.002899
0.441620 0.154846 0.002014
0.485138 0.162811 0.001892
0.521210 0.164825 0.000000
0.567017 0.174438 0.001648
0.600250 0.182922 0.000641
0.637573 0.187347 0.003296
0.671997 0.192780 0.001251
0.706390 0.203552 0.005432
0.741425 0.208344 0.003296
0.772064 0.220001 0.000641
0.809479 0.231873 0.003296
0.842010 0.242493 0.000000
0.869202 0.257935 0.000000
0.903748 0.267181 0.003662
0.935852 0.279449 0.000000
0.970642 0.302216 0.000000
0.992798 0.319550 0.003296
0.000763 0.112823 0.000763
0.000122 0.115356 0.003296
0.004181 0.109406 0.000000
0.016052 0.116364 0.000000
0.050995 0.116516 0.000763
0.080963 0.124603 0.004059
0.112091 0.135620 0.000763
0.155731 0.141296 0.000885
0.188599 0.154449 0.006592
0.228088 0.151154 0.000763
0.254517 0.156982 0.000000
0.286011 0.159760 0.000000
0.323700 0.164703 0.003174
0.362030 0.169373 0.002411
0.402008 0.173676 0.001007
0.444641 0.179504 0.000000
0.488556 0.182281 0.003937
0.525238 0.189484 0.000000
0.566742 0.194305 0.000000
0.602539 0.204681 0.003937
0.638336 0.210114 0.001404
0.673370 0.217346 0.007080
0.708038 0.227448 0.001129
0.740295 0.234802 0.000000
0.774200 0.243774 0.000000
0.808746 0.252502 0.001526
0.842377 0.263123 0.002533
0.873260 0.272858 0.000763
0.903992 0.283875 0.000000
0.936493 0.299042 0.003174
0.966461 0.315735 0.000763
1.000000 0.327759 0.000000
0.000885 0.140778 0.003052
0.000763 0.140930 0.003052
0.000244 0.144470 0.000000
0.004791 0.141663 0.000000
0.028198 0.148132 0.002136
0.071991 0.152313 0.000885
0.100311 0.159515 0.000122
0.143829 0.166077 0.000000
0.184814 0.179260 0.003174
0.232758 0.186829 0.002777
0.264252 0.193024 0.000000
0.301300 0.194794 0.003052
0.336090 0.197205 0.004791
0.368225 0.200500 0.000000
0.409729 0.202271 0.000000
0.449554 0.206451 0.000000
0.488312 0.209473 0.003174
0.526764 0.220490 0.003540
0.565979 0.222900 0.002533
0.600281 0.231628 0.003296
0.637573 0.235168 0.001648
0.676025 0.246307 0.002136
0.708282 0.250488 0.004944
0.737122 0.259460 0.000000
0.775574 0.264526 0.003052
0.811005 0.276520 0.001526
0.839111 0.281342 0.000000
0.870331 0.292328 0.000000
0.904755 0.306885 0.006592
0.935852 0.320923 0.000244
0.968109 0.332825 0.000000
1.000000 0.347748 0.000885
0.002899 0.176575 0.002899
0.000000 0.176575 0.002899
0.000000 0.173676 0.000000
0.003296 0.176971 0.000000
0.001007 0.183929 0.000519
0.049713 0.184418 0.002899
0.099304 0.189117 0.002899
0.135864 0.194183 0.000000
0.175568 0.205048 0.001007
0.217957 0.213287 0.001129
0.272736 0.229584 0.002655
0.304993 0.230347 0.000000
0.341522 0.239349 0.000519
0.384033 0.241364 0.002014
0.423645 0.238190 0.000000
0.458557 0.242371 0.004791
0.495514 0.247162 0.000000
0.531342 0.249329 0.000000
0.574463 0.255035 0.002655
0.605713 0.257416 0.000000
0.640106 0.266785 0.004059
0.671478 0.267792 0.002899
0.703491 0.276398 0.000000
0.740051 0.285370 0.003021
0.774841 0.294373 0.002014
0.806976 0.298157 0.000000
0.838959 0.309296 0.000000
0.871979 0.320679 0.002411
0.906769 0.329163 0.002014
0.936249 0.339020 0.000000
0.965332 0.352936 0.000000
0.997101 0.371643 0.005829
0.000000 0.206818 0.000000
0.002777 0.213531 0.005585
0.000000 0.209595 0.002777
0.000000 0.213531 0.000000
0.000000 0.216187 0.004547
0.017578 0.221497 0.000000
0.071350 0.226440 0.000366
0.126740 0.229828 0.000244
0.164581 0.239075 0.001007
0.204041 0.247681 0.001129
0.256409 0.254242 0.000000
0.319794 0.276520 0.000000
0.357361 0.281342 0.002411
0.397583 0.284119 0.000000
0.434387 0.283081 0.003418
0.465363 0.287140 0.000763
0.503754 0.286133 0.002258
0.541962 0.288025 0.001007
0.573822 0.284119 0.004425
0.604553 0.290436 0.005341
0.642639 0.290833 0.000000
0.674774 0.298676 0.000000
0.708557 0.304230 0.001648
0.743958 0.310547 0.001129
0.776855 0.320160 0.003052
0.807465 0.326111 0.000763
0.840607 0.335480 0.002167
0.872498 0.345215 0.002777
0.905884 0.355957 0.000000
0.942688 0.362793 0.005066
0.969391 0.375824 0.003784
0.992157 0.394440 0.001129
0.000000 0.244141 0.000000
0.003937 0.249451 0.006592
0.000000 0.245514 0.002655
0.001251 0.249817 0.000885
0.002655 0.251221 0.008728
0.000000 0.256531 0.000000
0.028473 0.265137 0.000000
0.100433 0.266388 0.001251
0.150909 0.273224 0.000000
0.199493 0.282959 0.002655
0.249451 0.289917 0.002655
0.300293 0.299561 0.002777
0.369385 0.327240 0.009094
0.409088 0.326477 0.000000
0.447662 0.330780 0.000000
0.474731 0.327759 0.000641
0.515381 0.329132 0.000000
0.548767 0.327881 0.000000
0.584564 0.327881 0.001007
0.612396 0.330658 0.001526
0.646698 0.322693 0.000000
0.678711 0.329285 0.000000
0.709167 0.333313 0.001129
0.744965 0.342957 0.000000
0.773834 0.348877 0.003052
0.808105 0.354065 0.002655
0.838593 0.363312 0.000000
0.871216 0.366333 0.001251
0.904755 0.378479 0.000000
0.934082 0.391785 0.000000
0.969147 0.403534 0.003784
1.000000 0.415558 0.005188
0.001404 0.290680 0.000000
0.003784 0.293213 0.000000
0.000000 0.290680 0.000000
0.000000 0.293213 0.000000
0.000000 0.297394 0.000000
0.003296 0.301697 0.000000
0.001526 0.302460 0.000000
0.056671 0.309784 0.002655
0.134460 0.317749 0.001007
0.185303 0.323212 0.000244
0.238831 0.334961 0.000000
0.287903 0.339142 0.000000
0.344177 0.352051 0.002411
0.412384 0.372406 0.006195
0.461060 0.380890 0.005310
0.495117 0.378357 0.001007
0.529175 0.371002 0.000000
0.561951 0.372650 0.003296
0.593170 0.372162 0.002533
0.618744 0.371765 0.000000
0.652130 0.366333 0.003937
0.682617 0.366333 0.000000
0.709167 0.366333 0.000000
0.743469 0.373566 0.002777
0.778259 0.375336 0.002777
0.804047 0.382660 0.000000
0.842499 0.389252 0.000000
0.874512 0.399750 0.002777
0.903229 0.407715 0.000000
0.932312 0.419342 0.000000
0.970276 0.427582 0.002411
0.997467 0.439453 0.003937
0.000000 0.336975 0.000000
0.001404 0.338379 0.000000
0.000244 0.333313 0.004181
0.003937 0.339386 0.003021
0.001526 0.340912 0.004822
0.002411 0.343048 0.000885
0.002411 0.347107 0.004669
0.009613 0.347870 0.002411
0.093994 0.357605 0.002533
0.161407 0.365967 0.000366
0.224915 0.373535 0.000000
0.281708 0.376190 0.001526
0.331268 0.392792 0.000000
0.389008 0.392242 0.002411
0.455505 0.420471 0.006073
0.502686 0.427185 0.000366
0.533234 0.422760 0.003418
0.568512 0.419342 0.001526
0.602783 0.414642 0.006958
0.633789 0.411499 0.002411
0.662628 0.413025 0.000000
0.694885 0.410339 0.000000
0.723602 0.408966 0.004822
0.752808 0.404663 0.001526
0.778381 0.409088 0.002411
0.809631 0.412384 0.000000
0.843292 0.422638 0.000000
0.876404 0.430084 0.000000
0.904755 0.434662 0.000366
0.938660 0.444122 0.000000
0.966736 0.453003 0.000000
1.000000 0.466400 0.001526
0.004547 0.384674 0.000000
0.002411 0.382385 0.000122
0.001404 0.382660 0.001648
0.000000 0.384033 0.001648
0.004547 0.386322 0.000000
0.002289 0.386322 0.000000
0.000885 0.390991 0.001648
0.002289 0.395050 0.003052
0.022766 0.399719 0.001251
0.136230 0.407074 0.002289
0.202515 0.411499 0.003540
0.258301 0.425018 0.000000
0.320282 0.431610 0.000000
0.371918 0.432739 0.000000
0.426422 0.441345 0.004913
0.488037 0.459930 0.000000
0.548889 0.474884 0.001892
0.582306 0.468658 0.000000
0.609131 0.463104 0.001648
0.642639 0.455261 0.004913
0.666687 0.458679 0.000000
0.694489 0.454010 0.000000
0.726501 0.451355 0.001129
0.755463 0.451355 0.001007
0.780792 0.449707 0.002533
0.814178 0.451233 0.000000
0.840607 0.453613 0.005554
0.872345 0.457031 0.003296
0.902832 0.470581 0.001648
0.932587 0.477295 0.000000
0.968506 0.483093 0.002167
1.000000 0.494476 0.001648
0.002167 0.424530 0.002167
0.002167 0.426300 0.002167
0.000000 0.426544 0.000000
0.000000 0.430206 0.002167
0.000000 0.434143 0.000000
0.001129 0.430847 0.000000
0.003174 0.436646 0.002777
0.000000 0.438049 0.000000
0.002167 0.440979 0.002899
0.067291 0.449829 0.001129
0.166077 0.457916 0.000000
0.238953 0.458801 0.000000
0.295746 0.472351 0.000000
0.356720 0.473480 0.000122
0.406677 0.483337 0.000000
0.466644 0.491180 0.002014
0.529327 0.501984 0.000275
0.584686 0.518646 0.001770
0.619873 0.511932 0.000000
0.649597 0.506226 0.000000
0.674652 0.500793 0.001770
0.705139 0.496887 0.000000
0.733459 0.491180 0.001770
0.761292 0.491821 0.002899
0.786865 0.489044 0.003052
0.815948 0.490051 0.001526
0.843628 0.490936 0.001770
0.877686 0.493347 0.004944
0.904358 0.496521 0.001770
0.939911 0.503082 0.003662
0.970154 0.511200 0.000000
1.000000 0.520416 0.000000
0.000000 0.472229 0.000000
0.002014 0.472229 0.002014
0.000000 0.470428 0.002136
0.005432 0.471832 0.005432
0.000000 0.474121 0.002777
0.002014 0.474121 0.002014
0.000763 0.476898 0.002777
0.000000 0.479034 0.000000
0.004669 0.485138 0.006073
0.005432 0.489044 0.000000
0.125488 0.493073 0.007843
0.208221 0.500549 0.000000
0.276123 0.506744 0.001526
0.333588 0.507385 0.000000
0.392914 0.513458 0.000122
0.447052 0.523193 0.000000
0.498718 0.527374 0.000000
0.561951 0.543854 0.000000
0.622131 0.558868 0.003784
0.661987 0.553925 0.004059
0.682098 0.551392 0.002777
0.711334 0.543945 0.001892
0.740692 0.537994 0.002777
0.766602 0.531036 0.003784
0.797211 0.531921 0.001129
0.824432 0.531036 0.002777
0.853912 0.532928 0.000000
0.884247 0.530151 0.003418
0.907410 0.532928 0.008209
0.938507 0.534973 0.001892
0.971924 0.538879 0.000000
0.997986 0.552795 0.000000
0.001892 0.510193 0.005951
0.000000 0.512085 0.001892
0.000244 0.512360 0.000244
0.002014 0.514130 0.002014
0.000000 0.516541 0.003784
0.003784 0.516144 0.000000
0.000000 0.518036 0.002014
0.000000 0.519928 0.002014
0.001892 0.525879 0.001007
0.000000 0.529449 0.000885
0.049286 0.530304 0.000000
0.175018 0.537018 0.002014
0.250031 0.541565 0.000519
0.311432 0.546997 0.001892
0.373291 0.551178 0.001892
0.428802 0.557129 0.000000
0.482483 0.563080 0.002014
0.538422 0.567261 0.000000
0.593811 0.581543 0.000244
0.657440 0.602661 0.000000
0.689453 0.595856 0.002777
0.719940 0.591156 0.000000
0.747253 0.583832 0.000763
0.779388 0.579895 0.002014
0.800385 0.574860 0.001892
0.832031 0.570923 0.000000
0.856445 0.570923 0.004700
0.889832 0.574341 0.005951
0.909180 0.576355 0.002014
0.944214 0.572815 0.000000
0.974213 0.578491 0.002014
0.998108 0.584595 0.000000
0.000000 0.551941 0.000000
0.000000 0.551941 0.000000
0.000000 0.551941 0.000000
0.000000 0.552338 0.000000
0.000000 0.551941 0.000000
0.000641 0.554352 0.000000
0.002167 0.557648 0.000000
0.004791 0.556763 0.000885
0.005554 0.559784 0.001007
0.002045 0.563721 0.000000
0.005035 0.569763 0.001770
0.120880 0.571167 0.001770
0.210205 0.573700 0.004333
0.288513 0.581665 0.000000
0.354553 0.585083 0.003540
0.410583 0.589020 0.001892
0.460724 0.594971 0.000244
0.522339 0.602936 0.002167
0.572296 0.609253 0.001648
0.625183 0.619110 0.000244
0.690338 0.633911 0.006439
0.724854 0.635956 0.002258
0.750549 0.624817 0.000000
0.786346 0.625702 0.005066
0.805206 0.620758 0.000000
0.838348 0.612915 0.000000
0.866302 0.609009 0.000000
0.893097 0.610779 0.000000
0.921570 0.611145 0.000763
0.951935 0.614685 0.000244
0.982666 0.616852 0.002289
1.000000 0.618622 0.000000
0.000000 0.587860 0.000000
0.002289 0.591797 0.002289
0.002289 0.591797 0.002289
0.002289 0.591797 0.000000
0.002777 0.592285 0.000519
0.002289 0.591797 0.000000
0.001648 0.597992 0.003937
0.001770 0.597351 0.002533
0.001282 0.599762 0.002014
0.001648 0.597992 0.002289
0.000000 0.607727 0.002045
0.048645 0.610504 0.005554
0.183136 0.609894 0.000000
0.259552 0.618591 0.003296
0.332672 0.617462 0.002167
0.390839 0.623047 0.000000
0.446808 0.628723 0.002014
0.502991 0.632538 0.004425
0.556488 0.637207 0.004547
0.603668 0.644531 0.001526
0.653778 0.647705 0.000000
0.715363 0.672241 0.000763
0.758026 0.671875 0.000519
0.787476 0.666290 0.000000
0.811523 0.663269 0.000000
0.844025 0.657562 0.000885
0.868683 0.651245 0.000641
0.898285 0.649475 0.000000
0.922333 0.651001 0.000000
0.958374 0.649475 0.000000
0.983948 0.652893 0.001526
0.997711 0.656830 0.001648
0.000000 0.633148 0.001526
0.001526 0.629242 0.001526
0.001526 0.629242 0.001526
0.002014 0.632782 0.001526
0.003540 0.628235 0.001892
0.001770 0.633789 0.000000
0.003937 0.631653 0.000000
0.002411 0.633148 0.000000
0.003021 0.636963 0.001404
0.001129 0.642273 0.000000
0.006073 0.643646 0.000000
0.005798 0.647461 0.000000
0.135284 0.647339 0.000885
0.231842 0.651367 0.000000
0.306000 0.656036 0.000000
0.369110 0.656677 0.002411
0.426575 0.659088 0.000000
0.482361 0.665802 0.000000
0.535248 0.672241 0.003937
0.583679 0.671478 0.002411
0.639099 0.676422 0.000000
0.686157 0.684631 0.004822
0.743195 0.704498 0.000763
0.790649 0.713501 0.002014
0.819611 0.703735 0.000885
0.843262 0.699066 0.000000
0.878326 0.696777 0.008118
0.907288 0.685638 0.003418
0.929535 0.693237 0.000000
0.964600 0.690704 0.002411
0.984070 0.690460 0.003784
0.997589 0.695892 0.000000
0.000000 0.667572 0.000000
0.000000 0.667572 0.000000
0.000000 0.667572 0.000000
0.005066 0.665039 0.000000
0.006439 0.666412 0.000000
0.000000 0.670349 0.000000
0.000000 0.670349 0.000000
0.000000 0.669342 0.000000
0.002533 0.671478 0.001404
0.000000 0.670349 0.000000
0.002533 0.675415 0.001282
0.001129 0.679321 0.001404
0.064636 0.683258 0.006073
0.206543 0.683746 0.003174
0.279663 0.690338 0.001770
0.343689 0.691101 0.003418
0.403168 0.693878 0.000000
0.467438 0.698181 0.000000
0.519073 0.700317 0.002289
0.573944 0.709320 0.001404
0.619598 0.708160 0.001404
0.671112 0.713470 0.002533
0.715240 0.720184 0.000519
0.769501 0.736389 0.000000
0.819122 0.742065 0.000000
0.855927 0.746002 0.002533
0.877289 0.736267 0.000000
0.910309 0.731689 0.000000
0.936493 0.730316 0.000000
0.967621 0.730316 0.000000
0.991516 0.730194 0.000000
1.000000 0.730316 0.000000
0.003937 0.702087 0.002655
0.003937 0.702087 0.002655
0.002655 0.700836 0.002655
0.003937 0.702087 0.003937
0.002258 0.704742 0.001770
0.005951 0.704132 0.003296
0.000000 0.704254 0.000000
0.000000 0.711334 0.000000
0.000000 0.709686 0.002899
0.005066 0.706268 0.000000
0.005310 0.707275 0.002655
0.002533 0.712738 0.004059
0.016174 0.711700 0.002655
0.164276 0.717133 0.001007
0.251465 0.721344 0.000000
0.326721 0.727020 0.001892
0.387238 0.727020 0.000000
0.448456 0.728790 0.000519
0.499573 0.734497 0.002289
0.554230 0.738281 0.000000
0.601898 0.739807 0.000122
0.649719 0.743958 0.000000
0.696014 0.753326 0.000000
0.743591 0.752563 0.000000
0.802399 0.762421 0.000000
0.855042 0.779755 0.000000
0.890320 0.778015 0.005310
0.915375 0.771179 0.000000
0.937012 0.767487 0.000885
0.971802 0.762573 0.000000
0.990631 0.766113 0.002777
0.997345 0.764832 0.000000
0.000000 0.739410 0.001129
0.000000 0.740540 0.000000
0.000000 0.738281 0.000000
0.000000 0.741821 0.001129
0.004425 0.737122 0.001129
0.000000 0.739410 0.001129
0.001526 0.739410 0.001129
0.000000 0.743347 0.000000
0.003296 0.743103 0.002258
0.002258 0.748383 0.006195
0.000000 0.742950 0.003052
0.000000 0.747253 0.002258
0.000000 0.747498 0.000000
0.118073 0.749542 0.001648
0.222839 0.754486 0.000000
0.308899 0.757141 0.000000
0.372955 0.760162 0.003784
0.431274 0.761292 0.001129
0.485413 0.764069 0.000000
0.532318 0.768768 0.003937
0.588623 0.771667 0.007599
0.642761 0.775726 0.000122
0.687286 0.774719 0.000000
0.733337 0.782562 0.000244
0.777618 0.781158 0.004791
0.829865 0.794556 0.000000
0.884247 0.814423 0.000000
0.919037 0.812164 0.002777
0.947113 0.807587 0.003174
0.975464 0.795959 0.000000
0.998596 0.796600 0.003784
1.000000 0.794312 0.000000
0.000000 0.768494 0.002899
0.001129 0.772552 0.001007
0.003937 0.775330 0.001007
0.003937 0.775330 0.001007
0.001007 0.773315 0.002533
0.002899 0.770905 0.004181
0.002899 0.772186 0.013153
0.003052 0.773438 0.024414
0.004944 0.773438 0.037964
0.003540 0.776337 0.052124
0.005585 0.770782 0.060089
0.003052 0.776733 0.050873
0.000000 0.779266 0.018982
0.060608 0.785583 0.001648
0.209045 0.785339 0.000000
0.293427 0.788116 0.001892
0.355499 0.792023 0.000000
0.418365 0.795959 0.000000
0.468689 0.795959 0.000000
0.518433 0.802795 0.000000
0.574066 0.801392 0.001770
0.627472 0.807739 0.001007
0.673645 0.808594 0.000000
0.718536 0.808746 0.002899
0.771027 0.808746 0.006073
0.809235 0.816071 0.003174
0.855164 0.825165 0.000641
0.912720 0.846954 0.000000
0.947510 0.843384 0.000000
0.976715 0.835693 0.000000
0.999481 0.834167 0.005829
1.000000 0.831268 0.000000
0.000000 0.810394 0.030365
0.000000 0.807343 0.029114
0.000000 0.807098 0.036713
0.003052 0.804321 0.043030
0.003937 0.805206 0.044922
0.001526 0.807343 0.054535
0.003174 0.806458 0.069824
0.000000 0.809113 0.079712
0.002014 0.804443 0.085144
0.000000 0.811279 0.098663
0.004303 0.809479 0.110565
0.004181 0.812164 0.109192
0.004822 0.812775 0.086670
0.036224 0.816315 0.054779
0.183258 0.817841 0.028015
0.271820 0.820740 0.000000
0.337524 0.822906 0.006836
0.403320 0.826080 0.005188
0.456940 0.827850 0.000000
0.510315 0.827850 0.000000
0.557007 0.832275 0.000000
0.613037 0.835297 0.002655
0.660736 0.837585 0.003052
0.700562 0.835693 0.001007
0.746368 0.835693 0.000885
0.801025 0.842773 0.000763
0.833282 0.847076 0.000000
0.880066 0.853882 0.000763
0.941925 0.868835 0.001007
0.982422 0.871857 0.001526
0.997223 0.870087 0.003174
1.000000 0.863129 0.000000
0.000763 0.835419 0.082489
0.000000 0.840118 0.086395
0.000000 0.840118 0.086395
0.000000 0.840118 0.089203
0.001526 0.838837 0.090576
0.002533 0.839478 0.101196
0.003174 0.839355 0.109192
0.000000 0.840118 0.120941
0.006470 0.835785 0.128784
0.000763 0.844025 0.132721
0.003937 0.840118 0.143829
0.004944 0.843384 0.153198
0.006470 0.844788 0.134369
0.022095 0.847198 0.119934
0.169220 0.846558 0.104889
0.261688 0.851105 0.063049
0.332214 0.851501 0.022400
0.390533 0.855804 0.001007
0.444183 0.858063 0.000000
0.500702 0.858948 0.000763
0.553223 0.864380 0.000000
0.600281 0.864380 0.000763
0.647705 0.864380 0.009125
0.695404 0.863647 0.000000
0.730682 0.864380 0.000122
0.783691 0.871490 0.000000
0.814301 0.871490 0.000000
0.861725 0.879578 0.004669
0.913727 0.884003 0.000000
0.969391 0.893372 0.003662
0.999878 0.902863 0.010132
1.000000 0.894257 0.000000
0.000641 0.868683 0.126892
0.003937 0.871979 0.130188
0.003937 0.871979 0.130188
0.003937 0.871368 0.131439
0.003937 0.871979 0.136749
0.000000 0.872620 0.141937
0.000000 0.871979 0.142578
0.000000 0.875275 0.153717
0.000641 0.875641 0.160675
0.000641 0.874756 0.171021
0.006714 0.870728 0.181152
0.001251 0.878693 0.186462
0.001251 0.875916 0.189880
0.016418 0.880463 0.163818
0.163757 0.875916 0.156891
0.250824 0.881866 0.136261
0.321350 0.884521 0.111816
0.382050 0.884369 0.072479
0.439484 0.887054 0.024536
0.488953 0.889191 0.000000
0.539917 0.894745 0.000000
0.587097 0.892853 0.000641
0.634674 0.891724 0.000641
0.686035 0.895508 0.003296
0.715637 0.897400 0.001251
0.764709 0.896149 0.000000
0.809875 0.899445 0.000641
0.850342 0.900696 0.000000
0.897156 0.903351 0.000366
0.941559 0.908295 0.003662
0.984558 0.920807 0.000000
1.000000 0.924225 0.000000
0.000000 0.900452 0.169525
0.000519 0.900452 0.170013
0.000000 0.903351 0.172943
0.000519 0.903870 0.173431
0.000000 0.903351 0.170532
0.004059 0.901062 0.181396
0.002655 0.901215 0.184326
0.004791 0.907776 0.196198
0.002014 0.905762 0.201904
0.003937 0.903870 0.204803
0.000000 0.905121 0.213165
0.000000 0.909821 0.217072
0.000000 0.906281 0.227448
0.025024 0.906525 0.220123
0.160858 0.908295 0.211884
