assets/Presetpro - Agfa Ultra 100.cube
#Created by: Adobe Photoshop Export Color Lookup Plugin
#Copyright: (C) Copyright 2022 Tim Martin and Presetpro.com
TITLE "Presetpro - Agfa Ultra"
#LUT size
LUT_3D_SIZE 5
#data domain
#LUT data points
DOMAIN_MIN 0.000000 0.000000 0.000000
DOMAIN_MAX 0.903226 0.903226 0.903226
0.000000 0.000000 0.000000
0.139008 0.023529 0.006958
0.393158 0.064514 0.007843
0.669464 0.116394 0.000000
0.904755 0.211395 0.000000
0.000885 0.140778 0.003052
0.143829 0.166077 0.000000
0.409729 0.202271 0.000000
0.676025 0.246307 0.002136
0.904755 0.306885 0.006592
0.002167 0.424530 0.002167
0.000000 0.438049 0.000000
0.406677 0.483337 0.000000
0.705139 0.496887 0.000000
0.904358 0.496521 0.001770
0.003937 0.702087 0.002655
0.000000 0.711334 0.000000
0.251465 0.721344 0.000000
0.649719 0.743958 0.000000
0.937012 0.767487 0.000885
0.003540 0.928284 0.216949
0.006195 0.931305 0.225067
0.176941 0.935730 0.250244
0.575470 0.947113 0.060089
0.869446 0.951416 0.000000
0.000000 0.003052 0.167358
0.149506 0.000000 0.185699
0.412750 0.002167 0.173035
0.681213 0.078430 0.187836
0.905243 0.204437 0.184814
0.000000 0.152557 0.174805
0.155579 0.161285 0.180878
0.425415 0.186584 0.185699
0.684753 0.230621 0.180389
0.907898 0.301208 0.179260
0.000885 0.432373 0.193542
0.002167 0.441101 0.200897
0.420593 0.478546 0.154694
0.706390 0.478546 0.112427
0.902985 0.492462 0.116364
0.002136 0.706024 0.230225
0.001251 0.705627 0.238831
0.292938 0.717407 0.236298
0.654663 0.741821 0.099030
0.941437 0.760529 0.001770
0.003418 0.928772 0.337006
0.000885 0.931427 0.355347
0.252228 0.934479 0.387604
0.590149 0.941315 0.305115
0.872101 0.954468 0.020355
0.000000 0.000000 0.461975
0.000000 0.000885 0.469818
0.420593 0.000000 0.492950
0.720825 0.000000 0.458923
0.916504 0.204559 0.465515
0.000885 0.176086 0.468536
0.001770 0.152557 0.477264
0.437164 0.144714 0.502472
0.720428 0.193909 0.467651
0.907410 0.345734 0.488678
0.000000 0.430206 0.475494
0.003052 0.440216 0.487671
0.444122 0.471588 0.510803
0.687805 0.480316 0.487274
0.904358 0.510803 0.480194
0.000000 0.691711 0.496399
0.066071 0.698181 0.514740
0.396545 0.713501 0.524719
0.673767 0.738800 0.500305
0.924866 0.741821 0.444885
0.001770 0.924347 0.533569
0.002167 0.927521 0.536102
0.359619 0.929657 0.569641
0.620239 0.937897 0.561768
0.876923 0.950043 0.479034
0.000000 0.000000 0.719055
0.001251 0.000000 0.724365
0.323425 0.000000 0.736115
0.681213 0.001251 0.745239
0.944458 0.069336 0.732452
0.000000 0.148621 0.722717
0.000000 0.147736 0.727020
0.332550 0.141296 0.737030
0.687805 0.155212 0.747528
0.942688 0.282990 0.730957
0.000000 0.431488 0.713867
0.002136 0.437164 0.726501
0.366974 0.438446 0.733093
0.692108 0.474243 0.750031
0.927917 0.523956 0.736115
0.000000 0.685150 0.719055
0.000885 0.686035 0.719940
0.378204 0.695648 0.732208
0.695648 0.733459 0.759644
0.905243 0.729156 0.726898
0.003540 0.917786 0.724365
0.000885 0.920441 0.726135
0.413635 0.920959 0.746979
0.673370 0.930939 0.771423
0.895630 0.943970 0.749420
0.000000 0.000000 0.940430
0.003540 0.000000 0.943970
0.244110 0.003540 0.945740
0.635193 0.002655 0.954071
0.923584 0.054291 0.954590
0.001251 0.164307 0.944458
0.006195 0.163574 0.947510
0.257782 0.155579 0.949280
0.636841 0.178864 0.950684
0.922089 0.272217 0.958008
0.002136 0.459839 0.932190
0.000000 0.444122 0.937897
0.284729 0.428833 0.940796
0.642395 0.455505 0.948395
0.921448 0.499420 0.951416
0.002655 0.686401 0.927887
0.001251 0.692230 0.926514
0.314728 0.696533 0.929169
0.628479 0.692993 0.937012
0.916138 0.727539 0.947113
0.000000 0.908661 0.924744
0.000763 0.911835 0.928284
0.186035 0.917908 0.933960
0.622772 0.917023 0.924713
0.927887 0.932953 0.948273
