assets/Presetpro - Hollywood.cube
#Created by: Adobe Photoshop Export Color Lookup Plugin
#Copyright: (C) Copyright 2018 https://www.presetpro.com and Tim Martin
TITLE "Presetpro - Hollywood"
#LUT size
LUT_3D_SIZE 8
#data domain
#LUT data points
DOMAIN_MIN 0.000000 0.000000 0.000000
DOMAIN_MAX 0.903226 0.903226 0.903226
0.000000 0.000000 0.000000
0.062012 0.002441 0.002106
0.209503 0.000000 0.002441
0.349030 0.001495 0.000000
0.506775 0.023132 0.000000
0.666382 0.029144 0.000000
0.816620 0.026733 0.001892
0.931274 0.017242 0.000214
0.002106 0.096710 0.000000
0.049530 0.100494 0.000336
0.205994 0.103668 0.000610
0.345520 0.103668 0.000000
0.506195 0.110809 0.000946
0.664917 0.112885 0.001160
0.816071 0.105225 0.000000
0.928284 0.093658 0.002441
0.001251 0.252350 0.002441
0.000000 0.255524 0.001801
0.157196 0.259857 0.000000
0.330811 0.250641 0.000946
0.505615 0.251373 0.000000
0.662567 0.249146 0.001251
0.810760 0.243683 0.000000
0.931732 0.229065 0.000610
0.000000 0.395691 0.000000
0.001495 0.394012 0.005798
0.113159 0.397766 0.005798
0.318909 0.394012 0.004852
0.493561 0.394012 0.003693
0.656982 0.383698 0.017883
0.810608 0.381042 0.013489
0.929840 0.368500 0.002197
0.000000 0.538910 0.007202
0.001251 0.530273 0.008545
0.054779 0.534424 0.021240
0.298340 0.530273 0.019501
0.483856 0.528046 0.015930
0.653473 0.522186 0.016144
0.806030 0.513947 0.020050
0.927094 0.509216 0.016296
0.001709 0.662170 0.010406
0.001556 0.668030 0.014587
0.008301 0.662170 0.027985
0.277771 0.660522 0.033081
0.470917 0.659393 0.031586
0.644958 0.655060 0.025879
0.812103 0.649231 0.020996
0.928345 0.645325 0.008362
0.000549 0.789764 0.002960
0.000885 0.795929 0.005951
0.002350 0.788910 0.019989
0.257965 0.790741 0.029297
0.454193 0.787689 0.017944
0.639252 0.786987 0.007904
0.804016 0.782104 0.000549
0.932983 0.784882 0.000000
0.002197 0.934235 0.000000
0.002197 0.930756 0.000000
0.001251 0.933960 0.000000
0.225525 0.930756 0.000946
0.457153 0.932587 0.000000
0.641724 0.933960 0.002045
0.810760 0.934235 0.002106
0.933472 0.930328 0.002197
0.000336 0.000000 0.131256
0.049225 0.000000 0.115967
0.199677 0.000610 0.122589
0.349579 0.002747 0.110840
0.507965 0.006439 0.104248
0.665955 0.010651 0.096954
0.817108 0.008759 0.099213
0.927246 0.000549 0.084564
0.000000 0.098785 0.131256
0.024048 0.099915 0.128754
0.181641 0.107452 0.120056
0.335358 0.104248 0.113861
0.513550 0.103668 0.107788
0.663147 0.103149 0.104614
0.821625 0.098389 0.103821
0.931274 0.078735 0.087585
0.001801 0.250793 0.110840
0.003052 0.252350 0.125610
0.148560 0.247589 0.113495
0.326233 0.249146 0.121124
0.506653 0.253448 0.112396
0.660828 0.246490 0.109741
0.811218 0.242310 0.097748
0.928894 0.228485 0.097107
0.001495 0.396210 0.102661
0.001495 0.397888 0.111206
0.099670 0.399872 0.124023
0.316559 0.398346 0.115967
0.498108 0.397217 0.115448
0.655243 0.387451 0.123627
0.814148 0.378967 0.110535
0.930084 0.367920 0.095886
0.001160 0.538513 0.104614
0.001556 0.536713 0.103302
0.038391 0.532928 0.118103
0.293030 0.531769 0.118469
0.482086 0.528046 0.110291
0.656860 0.527466 0.117950
0.810608 0.516357 0.123627
0.927032 0.506561 0.120056
0.003448 0.666504 0.108704
0.000336 0.662750 0.104919
0.001251 0.663452 0.112793
0.276184 0.661072 0.121124
0.467560 0.658264 0.120605
0.644958 0.661652 0.116364
0.810608 0.651306 0.108185
0.930389 0.643372 0.100677
0.005035 0.791718 0.087067
0.002106 0.791321 0.088135
0.000946 0.793945 0.096313
0.247101 0.793549 0.104492
0.454346 0.789185 0.100922
0.636597 0.784882 0.095886
0.800476 0.784485 0.078491
0.932831 0.781525 0.070068
0.000000 0.935486 0.005707
0.000214 0.937592 0.005951
0.000214 0.935638 0.015839
0.212463 0.931610 0.023346
0.450256 0.934662 0.021393
0.635284 0.937439 0.005554
0.809570 0.934784 0.000214
0.933685 0.934662 0.000000
0.001801 0.000610 0.280701
0.002197 0.000000 0.280701
0.160461 0.015198 0.272522
0.314789 0.044678 0.271423
0.498688 0.009705 0.278564
0.663757 0.000885 0.259827
0.822235 0.001251 0.243988
0.929230 0.003296 0.235291
0.000336 0.073853 0.288330
0.000000 0.081512 0.292450
0.150330 0.108551 0.278168
0.317139 0.118317 0.273560
0.507812 0.088593 0.266418
0.667877 0.066223 0.255219
0.817932 0.061371 0.241760
0.934723 0.051971 0.241486
0.000610 0.244812 0.278687
0.003601 0.244232 0.298492
0.125214 0.252350 0.283722
0.314789 0.249542 0.273926
0.500000 0.241425 0.259277
0.662170 0.234650 0.256287
0.816345 0.223206 0.248840
0.931030 0.212311 0.236053
0.000000 0.402649 0.258636
0.003601 0.403198 0.252563
0.046112 0.398865 0.267761
0.308044 0.401520 0.264832
0.490173 0.392883 0.268402
0.655243 0.383270 0.264160
0.811218 0.373383 0.250977
0.926788 0.358887 0.242920
0.001801 0.543091 0.236725
0.000336 0.538910 0.240845
0.001251 0.533447 0.245941
0.281738 0.531799 0.257568
0.487213 0.530273 0.250977
0.650269 0.521637 0.251648
0.809570 0.514099 0.256104
0.929535 0.502838 0.247009
0.000946 0.669128 0.227356
0.002838 0.669128 0.233154
0.001251 0.669586 0.241486
0.256805 0.661652 0.239777
0.461243 0.663849 0.244385
0.644348 0.659546 0.239777
0.806793 0.649231 0.236603
0.929779 0.642670 0.235657
0.001892 0.794098 0.214142
0.001404 0.795227 0.207428
0.003052 0.791992 0.213104
0.224915 0.792419 0.229584
0.450836 0.790741 0.228394
0.634247 0.787537 0.226959
0.805206 0.785461 0.221283
0.932831 0.785614 0.207550
0.001556 0.939392 0.168365
0.001404 0.936188 0.165192
0.002655 0.937012 0.171387
0.174103 0.935059 0.174408
0.440552 0.935333 0.182098
0.629669 0.936340 0.173492
0.806030 0.934235 0.158051
0.936493 0.932587 0.142212
0.000000 0.000000 0.413696
0.000000 0.000000 0.413696
0.142700 0.000336 0.411194
0.312592 0.051025 0.401428
0.476532 0.057465 0.401947
0.645996 0.055328 0.409088
0.813110 0.000946 0.395752
0.927643 0.001404 0.380981
0.000000 0.065033 0.418335
0.004547 0.068359 0.424927
0.124207 0.079407 0.415283
0.313751 0.121552 0.408539
0.474335 0.135620 0.407135
0.652466 0.110779 0.404053
0.815186 0.068268 0.394287
0.935516 0.013000 0.379395
0.000000 0.213409 0.419373
0.000000 0.198914 0.417267
0.050232 0.213989 0.417389
0.303040 0.246887 0.404602
0.484467 0.252350 0.408539
0.654205 0.231140 0.400909
0.817535 0.205872 0.380432
0.931030 0.174927 0.368164
0.000000 0.388000 0.413696
0.000000 0.392334 0.410278
0.004791 0.394562 0.414093
0.285278 0.396667 0.405518
0.483429 0.387024 0.395355
0.654053 0.373901 0.387573
0.813110 0.362061 0.383484
0.931732 0.348541 0.368317
0.001160 0.544891 0.391113
0.002350 0.548676 0.392029
0.000641 0.539886 0.378967
0.252960 0.535004 0.392181
0.482819 0.528595 0.392303
0.650543 0.522156 0.390198
0.803284 0.517151 0.395355
0.927643 0.504333 0.377411
0.000610 0.669708 0.366180
0.003754 0.670807 0.366180
0.001495 0.669861 0.357727
0.224457 0.665375 0.371979
0.461243 0.658264 0.374756
0.647888 0.657745 0.379395
0.813416 0.652832 0.369049
0.928741 0.642670 0.373322
0.001892 0.799377 0.336884
0.001404 0.796204 0.344818
0.000946 0.798553 0.349182
0.181580 0.797729 0.357361
0.445404 0.790741 0.362366
0.634399 0.790741 0.360504
0.802246 0.788788 0.353241
0.932922 0.785278 0.343353
0.001251 0.942474 0.306549
0.001892 0.942474 0.307037
0.000946 0.941620 0.307220
0.100525 0.940247 0.311279
0.433044 0.934662 0.324890
0.629700 0.939148 0.320007
0.806183 0.936310 0.314301
0.935333 0.933411 0.298370
0.001160 0.000000 0.530396
0.000000 0.000000 0.529327
0.110535 0.001251 0.527374
0.314362 0.004791 0.529846
0.475067 0.066864 0.516022
0.635284 0.078308 0.519562
0.786835 0.090149 0.506897
0.927032 0.007782 0.504120
0.000000 0.065369 0.528412
0.000000 0.066315 0.528412
0.102600 0.068665 0.533417
0.311584 0.089447 0.528809
0.476654 0.141632 0.519196
0.636017 0.143005 0.511383
0.792847 0.157227 0.512451
0.928345 0.072052 0.504913
0.001801 0.185394 0.530273
0.000336 0.186371 0.525787
0.020844 0.199310 0.527344
0.296173 0.219971 0.523254
0.479462 0.251221 0.512970
0.641571 0.256226 0.516541
0.796234 0.260010 0.512970
0.929932 0.218994 0.504303
0.000336 0.352325 0.527252
0.000610 0.348907 0.529846
0.003601 0.334595 0.527222
0.256622 0.348114 0.526306
0.479462 0.393433 0.517975
0.631317 0.398895 0.512970
0.806915 0.378265 0.511017
0.931824 0.352448 0.497650
0.001251 0.525970 0.520111
0.000946 0.526489 0.524048
0.000000 0.521637 0.519958
0.075897 0.518982 0.518280
0.465637 0.523712 0.507843
0.648071 0.517334 0.503754
0.814148 0.504333 0.494629
0.931274 0.489136 0.484985
0.002106 0.679474 0.504791
0.003906 0.677948 0.505188
0.001160 0.680054 0.499756
0.062195 0.670258 0.490387
0.449951 0.659943 0.489471
0.648499 0.659546 0.493439
0.810486 0.646576 0.493042
0.928345 0.638763 0.492371
0.001160 0.802765 0.471771
0.001251 0.808044 0.476318
0.000610 0.800507 0.463898
0.019409 0.804016 0.452087
0.427185 0.794098 0.474152
0.639252 0.787689 0.476685
0.806366 0.784302 0.466797
0.935577 0.784058 0.460999
0.001251 0.945129 0.433136
0.000000 0.946320 0.422852
0.001099 0.944489 0.427063
0.000000 0.944824 0.433380
0.385345 0.942871 0.432587
0.624268 0.939972 0.445129
0.804596 0.934662 0.437622
0.935791 0.934235 0.430481
0.000000 0.000000 0.633575
0.000000 0.000000 0.632141
0.112152 0.000000 0.633209
0.313751 0.000610 0.633698
0.485352 0.017578 0.624237
0.637207 0.093384 0.617218
0.794312 0.085266 0.617218
0.918884 0.122528 0.617371
0.000000 0.062012 0.632263
0.000336 0.062714 0.636749
0.085114 0.062866 0.635315
0.308044 0.067719 0.631073
0.480652 0.092957 0.632263
0.638214 0.153473 0.621826
0.799316 0.149689 0.622009
0.916077 0.188049 0.610626
0.000000 0.180115 0.632141
0.000946 0.179932 0.626984
0.012604 0.189026 0.628174
0.288635 0.200470 0.635345
0.483429 0.218872 0.631104
0.642181 0.262665 0.619354
0.797119 0.267548 0.614868
0.915344 0.292206 0.612732
0.000885 0.323181 0.630676
0.001251 0.317749 0.637146
0.001495 0.310913 0.633087
0.219788 0.330109 0.625519
0.471954 0.358826 0.630157
0.649658 0.389557 0.617767
0.798706 0.397186 0.617218
0.919342 0.402679 0.617767
0.000000 0.483673 0.633087
0.000000 0.482025 0.631989
0.000336 0.477692 0.631104
0.000336 0.464172 0.631622
0.440094 0.486481 0.626068
0.651855 0.521057 0.621460
0.795074 0.527466 0.617889
0.930725 0.504913 0.609039
0.002441 0.653534 0.628052
0.002960 0.654510 0.631622
0.004242 0.652008 0.628052
0.003296 0.655060 0.626617
0.336731 0.656586 0.618958
0.644958 0.655060 0.614563
0.809570 0.646149 0.605225
0.936829 0.629120 0.596893
0.000549 0.811920 0.607971
0.002106 0.813477 0.603485
0.000610 0.810272 0.604706
0.000000 0.809143 0.589905
0.348480 0.798401 0.592834
0.630585 0.788788 0.593872
0.814148 0.785461 0.589111
0.939972 0.782227 0.594269
0.000000 0.947418 0.576050
0.000610 0.948029 0.569977
0.001556 0.947174 0.570526
0.002106 0.946472 0.562744
0.280334 0.944092 0.552979
0.606201 0.942871 0.566040
0.808136 0.934784 0.564178
0.940979 0.934662 0.559296
0.000000 0.000000 0.738281
0.000000 0.003693 0.741821
0.109344 0.000610 0.743011
0.310547 0.000000 0.735077
0.480652 0.001160 0.739197
0.646301 0.058228 0.729553
0.795929 0.122650 0.722809
0.919098 0.122253 0.725983
0.000549 0.059265 0.747375
0.002106 0.057373 0.745789
0.080872 0.057373 0.742340
0.296143 0.059479 0.747070
0.485352 0.066620 0.744843
0.645569 0.116669 0.738770
0.798889 0.179962 0.722931
0.920990 0.183319 0.723450
0.000000 0.175629 0.741150
0.000000 0.176727 0.737976
0.010559 0.178711 0.741150
0.275574 0.188446 0.742218
0.470367 0.197235 0.742218
0.653046 0.226929 0.740631
0.794922 0.282593 0.724915
0.920990 0.283844 0.726898
0.001862 0.296234 0.743256
0.000610 0.296661 0.741150
0.000946 0.301544 0.736938
0.215240 0.308502 0.740753
0.455383 0.330292 0.735504
0.643951 0.363770 0.739685
0.802246 0.397369 0.724640
0.924530 0.394043 0.725830
0.001709 0.448120 0.744324
0.000610 0.444214 0.743134
0.000000 0.444794 0.746277
0.003448 0.437836 0.738129
0.408813 0.457611 0.744324
0.642761 0.488739 0.739197
0.810760 0.518250 0.725830
0.926147 0.519409 0.720184
0.002747 0.610291 0.740631
0.001160 0.605988 0.746155
0.006195 0.606384 0.740112
0.004547 0.599426 0.740509
0.242157 0.591888 0.745239
0.608978 0.614655 0.734558
0.809570 0.647675 0.724121
0.926788 0.651184 0.727814
0.001892 0.781128 0.740082
0.002106 0.782654 0.740997
0.001160 0.778900 0.742218
0.000549 0.781830 0.745117
0.181244 0.785461 0.739044
0.548492 0.785461 0.731140
0.814148 0.781128 0.721893
0.943176 0.771912 0.715149
0.000549 0.954529 0.734955
0.000336 0.952362 0.730103
0.004639 0.952576 0.734161
0.004395 0.950470 0.725311
0.042603 0.949615 0.714081
0.520691 0.946136 0.706451
0.796082 0.942322 0.704987
0.941284 0.934235 0.698792
0.000000 0.002197 0.872192
0.000000 0.000336 0.867737
0.100983 0.000000 0.871796
0.308319 0.001251 0.878265
0.484894 0.002197 0.873383
0.656982 0.001099 0.873016
0.820740 0.096588 0.866547
0.926147 0.187653 0.855438
0.002106 0.047638 0.874420
0.002106 0.043335 0.873138
0.069672 0.042480 0.878937
0.295105 0.041321 0.862946
0.482697 0.041534 0.873260
0.657318 0.044830 0.876556
0.818085 0.157806 0.870239
0.931030 0.227631 0.856354
0.000610 0.163086 0.874847
0.000214 0.159180 0.875641
0.004791 0.165894 0.871796
0.265900 0.168549 0.870758
0.471527 0.167969 0.876038
0.643494 0.179535 0.877625
0.819855 0.255707 0.872711
0.929230 0.308960 0.856232
0.001251 0.285950 0.879608
0.001099 0.287048 0.879456
0.002747 0.289703 0.876282
0.194672 0.294403 0.879456
0.443176 0.306305 0.871552
0.645691 0.324829 0.875244
0.819427 0.365417 0.867554
0.931274 0.410034 0.861511
0.003143 0.426941 0.881958
0.001160 0.422638 0.882660
0.001892 0.416626 0.879852
0.000336 0.422058 0.874207
0.387939 0.433746 0.876678
0.625153 0.453827 0.876404
0.813110 0.478790 0.875488
0.934021 0.525970 0.860840
0.002197 0.579346 0.883423
0.002350 0.577972 0.882904
0.002441 0.574615 0.878540
0.001495 0.565552 0.886169
0.210297 0.560699 0.881989
0.587708 0.579346 0.880371
0.809998 0.613098 0.883942
0.937134 0.645996 0.864014
0.000000 0.745972 0.879456
0.000702 0.748749 0.879852
0.002502 0.743744 0.888702
0.002838 0.740540 0.890045
0.002106 0.737335 0.876953
0.448029 0.728271 0.879974
0.773590 0.745148 0.879211
0.936676 0.777222 0.864410
0.002441 0.926422 0.884460
0.002197 0.926422 0.877747
0.000885 0.929199 0.876678
0.001495 0.928101 0.876678
0.000000 0.931610 0.879852
0.423676 0.930328 0.881989
0.726471 0.930328 0.877350
0.943420 0.926422 0.868500
