assets/Presetpro  - Kodacrome 64.cube
#Created by: Adobe Photoshop Export Color Lookup Plugin
#Copyright: (C) Copyright 2022 Tim Martin and Presetpro.com
TITLE "Presetpro - Kodachrome 64.jpg"
#LUT size
LUT_3D_SIZE 8
#data domain
#LUT data points
DOMAIN_MIN 0.000000 0.000000 0.000000
DOMAIN_MAX 0.903226 0.903226 0.903226
0.003937 0.000000 0.000000
0.047211 0.000061 0.000000
0.113739 0.003937 0.000000
0.184418 0.011780 0.000031
0.285461 0.008667 0.000000
0.417084 0.003448 0.000000
0.557190 0.000000 0.000000
0.711395 0.003937 0.000000
0.000000 0.048126 0.010803
0.046967 0.045258 0.007812
0.121002 0.044189 0.000244
0.198944 0.053131 0.005157
0.303528 0.048676 0.000000
0.419861 0.039490 0.000000
0.563721 0.002563 0.000000
0.723419 0.003906 0.005402
0.003693 0.110901 0.043793
0.019470 0.110291 0.039215
0.111298 0.114288 0.025391
0.210327 0.117371 0.012573
0.325073 0.115326 0.000000
0.442169 0.118042 0.000885
0.586456 0.110291 0.000366
0.745636 0.112579 0.000000
0.007721 0.200195 0.082428
0.000000 0.195496 0.073730
0.074249 0.193146 0.075012
0.200439 0.201752 0.053070
0.332367 0.209381 0.024017
0.479950 0.212616 0.001160
0.624908 0.221283 0.001953
0.773193 0.245514 0.003052
0.001434 0.316803 0.113739
0.000000 0.315369 0.114441
0.000000 0.313904 0.109985
0.140625 0.318146 0.101105
0.309235 0.333923 0.069214
0.479950 0.351776 0.002930
0.645691 0.354828 0.003662
0.806885 0.373810 0.002899
0.000031 0.478363 0.152954
0.000000 0.477020 0.145386
0.004211 0.468842 0.141479
0.000275 0.470764 0.134491
0.256104 0.471191 0.110565
0.444641 0.486694 0.055328
0.635132 0.505219 0.004913
0.808624 0.518311 0.006042
0.000000 0.632660 0.216309
0.000641 0.632965 0.197021
0.001953 0.631012 0.194763
0.003113 0.628571 0.191681
0.134033 0.624908 0.182404
0.404114 0.621765 0.144775
0.601074 0.629822 0.079742
0.785889 0.655579 0.000000
0.000122 0.768280 0.317657
0.003815 0.765045 0.314056
0.003540 0.762665 0.296753
0.000946 0.761871 0.309814
0.120667 0.763702 0.307159
0.377808 0.756561 0.283142
0.566223 0.754425 0.246979
0.747070 0.762238 0.199402
0.009888 0.000000 0.046875
0.053772 0.002869 0.041016
0.113342 0.007690 0.035004
0.181213 0.024048 0.029480
0.299438 0.028412 0.026917
0.418121 0.013000 0.006989
0.562347 0.003937 0.000000
0.721680 0.002167 0.002167
0.010712 0.050110 0.063202
0.056213 0.048523 0.063690
0.123840 0.054535 0.054535
0.194824 0.058807 0.046692
0.303009 0.056244 0.030273
0.423553 0.050781 0.006531
0.569977 0.022858 0.000793
0.731506 0.012207 0.000000
0.000000 0.115753 0.089874
0.048767 0.109528 0.079163
0.121460 0.115601 0.076538
0.211304 0.116943 0.065369
0.323181 0.117615 0.051605
0.439056 0.113861 0.013977
0.590973 0.110168 0.000000
0.751404 0.126526 0.004028
0.000275 0.195251 0.121033
0.003784 0.194214 0.110962
0.092926 0.194977 0.108612
0.202759 0.204254 0.096893
0.335236 0.209137 0.076660
0.478851 0.213837 0.040802
0.624115 0.216797 0.002441
0.771515 0.240356 0.001129
0.002228 0.315369 0.163147
0.000000 0.317902 0.141296
0.000000 0.315857 0.135406
0.149384 0.318207 0.134125
0.309540 0.333069 0.107452
0.481964 0.346405 0.057220
0.650482 0.357605 0.000000
0.810486 0.377991 0.000000
0.001556 0.480347 0.198303
0.000580 0.477417 0.179657
0.003784 0.474243 0.168304
0.000000 0.471802 0.160278
0.253448 0.477875 0.149384
0.449829 0.482910 0.102539
0.639221 0.503448 0.007111
0.808960 0.520325 0.000610
0.000000 0.632965 0.249786
0.001221 0.630798 0.231628
0.000000 0.631866 0.215546
0.004028 0.624603 0.204895
0.144501 0.620178 0.202545
0.402557 0.621765 0.176788
0.599762 0.632660 0.125031
0.790802 0.657257 0.000000
0.003815 0.765045 0.353271
0.002686 0.766113 0.343170
0.001251 0.769897 0.317413
0.004364 0.765228 0.323059
0.138306 0.763855 0.317505
0.391815 0.754822 0.306549
0.573517 0.756470 0.271790
0.742493 0.765717 0.222778
0.024170 0.003601 0.098999
0.062592 0.001862 0.102051
0.109070 0.011047 0.096985
0.199097 0.013184 0.099335
0.297913 0.016205 0.088531
0.420105 0.008484 0.085449
0.568634 0.005768 0.059845
0.725983 0.004486 0.007324
0.013885 0.038025 0.113495
0.066620 0.047028 0.118011
0.119873 0.054901 0.116577
0.204559 0.056427 0.106812
0.302704 0.064636 0.103821
0.429871 0.049103 0.091675
0.580017 0.010620 0.062134
0.736023 0.001373 0.000580
0.002411 0.116486 0.132782
0.058350 0.116913 0.140808
0.129303 0.118195 0.136963
0.219269 0.124023 0.133514
0.322266 0.121185 0.117523
0.447632 0.117493 0.100494
0.595886 0.101196 0.066681
0.752380 0.115295 0.004486
0.002930 0.195709 0.169159
0.026733 0.200684 0.162109
0.108704 0.199249 0.150909
0.211243 0.206879 0.153839
0.340637 0.213928 0.143005
0.477600 0.210602 0.116241
0.621552 0.217590 0.081848
0.775360 0.235474 0.008026
0.000000 0.319519 0.204071
0.002045 0.323090 0.201416
0.000000 0.324463 0.180206
0.163452 0.320862 0.176910
0.328247 0.331451 0.160187
0.493835 0.347565 0.134430
0.659698 0.354309 0.096252
0.811798 0.377869 0.010559
0.004639 0.481903 0.242554
0.000000 0.483154 0.235291
0.004517 0.483765 0.216583
0.003571 0.478333 0.201935
0.257751 0.476410 0.195374
0.457916 0.487946 0.169464
0.650024 0.510132 0.112091
0.817017 0.522552 0.045227
0.002380 0.632965 0.306091
0.003510 0.636932 0.300812
0.002808 0.637115 0.271393
0.001190 0.635223 0.262146
0.172607 0.630463 0.249634
0.414246 0.627594 0.227753
0.609192 0.630707 0.194305
0.795410 0.656464 0.107666
0.000824 0.765808 0.396393
0.005615 0.763885 0.390442
0.006287 0.767761 0.370453
0.005219 0.768250 0.357513
0.191101 0.761078 0.346527
0.404297 0.758453 0.345856
0.579895 0.757202 0.308533
0.742615 0.763611 0.276855
0.046478 0.000000 0.177032
0.075104 0.000000 0.172577
0.133087 0.010101 0.174194
0.198456 0.012207 0.176208
0.312561 0.009918 0.181488
0.435303 0.000000 0.158142
0.573669 0.000397 0.143860
0.730225 0.003296 0.120575
0.036682 0.046478 0.181702
0.078766 0.049377 0.184509
0.143921 0.051239 0.185547
0.215210 0.062683 0.192413
0.316406 0.058502 0.182953
0.437897 0.005005 0.161804
0.582428 0.001617 0.151093
0.742889 0.003143 0.128754
0.005219 0.104156 0.199615
0.059662 0.108673 0.211365
0.148560 0.117310 0.211792
0.232208 0.130127 0.209137
0.329834 0.123535 0.198761
0.462524 0.120239 0.190643
0.615997 0.108032 0.172943
0.771240 0.111694 0.139099
0.005768 0.197662 0.228821
0.029541 0.204559 0.231659
0.127533 0.210785 0.237335
0.239594 0.215240 0.231873
0.362701 0.220459 0.228851
0.494568 0.221008 0.212372
0.643616 0.222595 0.189789
0.801392 0.240906 0.148865
0.001587 0.325012 0.260895
0.000031 0.337280 0.270508
0.045837 0.339752 0.262146
0.199707 0.339142 0.259064
0.355438 0.350372 0.246277
0.522705 0.364410 0.229370
0.683807 0.372223 0.207092
0.827728 0.385132 0.175171
0.003906 0.483429 0.311920
0.003937 0.498840 0.312164
0.000000 0.502533 0.309235
0.030151 0.509644 0.284210
0.288269 0.499420 0.272186
0.492126 0.511749 0.256073
0.680847 0.529266 0.226318
0.838104 0.541931 0.207367
0.000305 0.640167 0.366791
0.000000 0.653290 0.378235
0.002991 0.655396 0.377258
0.004028 0.651947 0.345184
0.256256 0.644287 0.332916
0.450409 0.646179 0.316132
0.635864 0.650391 0.299011
0.818512 0.668243 0.247345
0.000488 0.769135 0.449585
0.000000 0.780640 0.469513
0.001221 0.778198 0.470856
0.011597 0.779022 0.436005
0.275024 0.776855 0.422760
0.446991 0.770599 0.421387
0.604797 0.770752 0.399841
0.762268 0.777008 0.365234
0.064026 0.002655 0.269196
0.093933 0.000000 0.272186
0.146637 0.001892 0.268250
0.228271 0.002808 0.267975
0.323120 0.003235 0.271790
0.456177 0.003418 0.280823
0.605804 0.002045 0.255768
0.755402 0.000000 0.214783
0.060089 0.044189 0.273743
0.097046 0.040833 0.279572
0.157074 0.043976 0.281677
0.230072 0.057037 0.276886
0.330475 0.056061 0.280853
0.468842 0.024841 0.285919
0.610352 0.003387 0.259399
0.751312 0.000000 0.222931
0.045319 0.103943 0.291443
0.089355 0.110138 0.305084
0.158997 0.111389 0.309113
0.252136 0.121582 0.305176
0.353790 0.126343 0.300018
0.482697 0.114502 0.295990
0.627533 0.046722 0.275269
0.773865 0.081146 0.253265
0.000000 0.183411 0.315094
0.014709 0.190460 0.324707
0.121735 0.196167 0.332428
0.269012 0.215302 0.337036
0.384766 0.241089 0.339905
0.526520 0.226593 0.329681
0.660248 0.232361 0.307556
0.815002 0.252258 0.286621
0.000000 0.323181 0.349854
0.005341 0.337067 0.363922
0.039673 0.353058 0.374725
0.237732 0.366058 0.377380
0.416840 0.387360 0.380035
0.565094 0.392090 0.377106
0.702881 0.395294 0.352478
0.851227 0.403656 0.325348
0.000000 0.489899 0.393738
0.001556 0.508606 0.403320
0.002258 0.525818 0.415527
0.196869 0.533264 0.422333
0.372284 0.536194 0.407867
0.554321 0.547668 0.400940
0.719543 0.556152 0.390045
0.869995 0.558411 0.383636
0.000214 0.642609 0.442291
0.000580 0.657074 0.459778
0.006348 0.671509 0.470398
0.198730 0.672699 0.478546
0.357544 0.676239 0.458923
0.505493 0.670593 0.454041
0.674866 0.675964 0.437073
0.848114 0.692139 0.415131
0.000000 0.769653 0.517975
0.002686 0.784851 0.531158
0.037079 0.794556 0.545868
0.305908 0.797516 0.559143
0.387573 0.798431 0.531830
0.517395 0.795959 0.529480
0.646057 0.791199 0.512299
0.798279 0.798126 0.489929
0.076111 0.003113 0.397552
0.115540 0.002045 0.398743
0.170929 0.003815 0.399384
0.261963 0.000000 0.399323
0.357941 0.001740 0.392059
0.476837 0.003754 0.392883
0.643707 0.000824 0.409332
0.795044 0.000977 0.393890
0.084869 0.032898 0.408356
0.122803 0.028168 0.411377
0.181213 0.024689 0.404297
0.263184 0.018616 0.404999
0.360138 0.026672 0.399048
0.482513 0.001373 0.399200
0.649353 0.000000 0.420197
0.789062 0.000977 0.397278
0.074524 0.100922 0.416962
0.111755 0.104034 0.437286
0.187256 0.101044 0.432892
0.274170 0.103302 0.425781
0.385040 0.111450 0.423096
0.509918 0.102936 0.420990
0.675720 0.114349 0.439484
0.814575 0.047089 0.416901
0.000000 0.178009 0.441437
0.031006 0.190002 0.458282
0.171631 0.201843 0.473145
0.291290 0.205109 0.472839
0.414429 0.218964 0.464600
0.554993 0.239502 0.462616
0.702087 0.274414 0.475708
0.839722 0.244781 0.438965
0.000000 0.309143 0.470154
0.000000 0.318542 0.480438
0.029724 0.328522 0.499695
0.249390 0.342224 0.509796
0.446716 0.382782 0.521301
0.594208 0.421356 0.523529
0.729889 0.435608 0.514893
0.851746 0.421967 0.474091
0.000000 0.483734 0.505737
0.000610 0.500488 0.518707
0.003906 0.520020 0.534149
0.229675 0.541351 0.553986
0.444031 0.565979 0.566986
0.617126 0.590607 0.577118
0.750977 0.585724 0.565887
0.873718 0.580933 0.535431
0.000000 0.643524 0.545197
0.000000 0.657562 0.556793
0.004730 0.672699 0.577576
0.250214 0.685333 0.592041
0.446472 0.698761 0.599060
0.591187 0.705200 0.607391
0.730865 0.708130 0.596466
0.878082 0.715759 0.588654
0.000916 0.772369 0.596191
0.003418 0.782623 0.609436
0.012512 0.797607 0.624939
0.283997 0.810089 0.638062
0.474152 0.819336 0.654938
0.587708 0.818604 0.648529
0.696686 0.815033 0.646210
0.832764 0.824249 0.626068
0.127838 0.000000 0.552124
0.165253 0.000000 0.553192
0.218292 0.000000 0.553864
0.305389 0.000977 0.548248
0.409241 0.000061 0.544159
0.523804 0.000000 0.538208
0.660675 0.001007 0.540894
0.821930 0.002197 0.563599
0.130981 0.000824 0.557251
0.168610 0.000000 0.561249
0.222229 0.002319 0.560974
0.313660 0.000580 0.557312
0.411102 0.002777 0.546631
0.525726 0.000000 0.537537
0.668030 0.001495 0.548981
0.828522 0.000977 0.572784
0.126984 0.084564 0.572052
0.171692 0.081360 0.583191
0.232544 0.078461 0.586914
0.323059 0.062103 0.583191
0.435760 0.055145 0.576752
0.562134 0.062775 0.567932
0.692810 0.063385 0.573425
0.838715 0.151123 0.588226
0.084106 0.186035 0.585968
0.149323 0.189240 0.611145
0.236664 0.193237 0.622803
0.339417 0.191925 0.620392
0.465332 0.197296 0.618530
0.580688 0.228149 0.606415
0.724945 0.258759 0.618774
0.858063 0.330658 0.630585
0.002594 0.285492 0.615936
0.003937 0.299835 0.629486
0.130554 0.315948 0.647156
0.335236 0.353302 0.660309
0.482819 0.368866 0.664154
0.620911 0.402222 0.656036
0.748932 0.443268 0.662354
0.875031 0.491425 0.665253
0.001892 0.463501 0.625763
0.000488 0.482117 0.643280
0.000336 0.491302 0.660553
0.252655 0.513489 0.676697
0.449860 0.533813 0.695251
0.633057 0.576843 0.703735
0.775116 0.612183 0.713837
0.881897 0.616791 0.703094
0.001892 0.629883 0.661316
0.002228 0.646942 0.677460
0.060852 0.662720 0.691498
0.300110 0.680603 0.708191
0.475891 0.699432 0.726013
0.646973 0.724213 0.746887
0.793304 0.746826 0.764923
0.897308 0.738342 0.746063
0.000000 0.768188 0.697266
0.004608 0.783966 0.715393
0.132599 0.799286 0.726440
0.318939 0.813324 0.738434
0.480103 0.824890 0.753448
0.630615 0.840179 0.769623
0.756134 0.845001 0.774933
0.877502 0.850189 0.763824
0.235779 0.002197 0.720337
0.265778 0.000000 0.725952
0.313171 0.002594 0.728485
0.393890 0.000000 0.725403
0.490143 0.003815 0.730164
0.603119 0.001373 0.718048
0.716766 0.003754 0.708466
0.851166 0.000275 0.721100
0.238708 0.001465 0.727417
0.270844 0.000000 0.734863
0.318390 0.000763 0.739258
0.395050 0.002136 0.732880
0.490112 0.002228 0.730347
0.604462 0.000702 0.721588
0.722290 0.000000 0.715790
0.855774 0.000031 0.724121
0.237885 0.029816 0.731415
0.273438 0.015167 0.749207
0.323425 0.005463 0.749390
0.403809 0.001984 0.750610
0.505035 0.000000 0.747284
0.625092 0.000732 0.747314
0.739746 0.015961 0.732483
0.869507 0.097137 0.738037
0.221191 0.164246 0.748444
0.263702 0.172150 0.762085
0.327759 0.172363 0.782684
0.419037 0.167877 0.779694
0.525879 0.168701 0.774323
0.643188 0.198364 0.770416
0.758118 0.249634 0.758179
0.890808 0.301056 0.767395
0.163055 0.305634 0.762421
0.218353 0.316040 0.779114
0.297546 0.329529 0.792023
0.416046 0.344727 0.806763
0.536652 0.358093 0.810730
0.655029 0.382294 0.798615
0.775360 0.430664 0.799011
0.898407 0.473572 0.805878
0.001526 0.443420 0.768829
0.000000 0.454681 0.784790
0.165192 0.470459 0.804688
0.338043 0.491821 0.815094
0.519440 0.533478 0.834198
0.657898 0.554199 0.834351
0.783386 0.587372 0.824921
0.906647 0.625275 0.827576
0.000000 0.614075 0.780975
0.002869 0.627380 0.798096
0.158661 0.638672 0.812775
0.323608 0.653198 0.828461
0.479767 0.669250 0.842255
0.638031 0.689941 0.857819
0.794617 0.729156 0.862762
0.913452 0.766693 0.867340
0.052246 0.753754 0.805206
0.162262 0.765778 0.814240
0.266296 0.779083 0.826263
0.392578 0.792572 0.845093
0.514771 0.812073 0.856354
0.653534 0.831146 0.878693
0.793427 0.861359 0.889343
0.928192 0.896118 0.912109
