assets/Presetpro - Kodachrome.cube
#Created by: Adobe Photoshop Export Color Lookup Plugin
#Copyright: (C) Copyright 2022 Tim Martin and Presetpro.com
TITLE "Presetpro - Kodachrome.jpg"
#LUT size
LUT_3D_SIZE 5
#data domain
#LUT data points
DOMAIN_MIN 0.000000 0.000000 0.000000
DOMAIN_MAX 0.903226 0.903226 0.903226
0.000000 0.000000 0.000000
0.098938 0.022644 0.006073
0.318634 0.000000 0.000000
0.595093 0.000000 0.000000
0.875793 0.000000 0.003937
0.000000 0.163422 0.029205
0.097656 0.153442 0.012634
0.391876 0.130310 0.000885
0.648590 0.060577 0.000000
0.901703 0.017670 0.001251
0.001770 0.436279 0.078430
0.000000 0.431976 0.064514
0.373932 0.418823 0.003937
0.686035 0.426788 0.001251
0.945343 0.464752 0.000000
0.003937 0.741302 0.206726
0.004425 0.736633 0.190277
0.289917 0.727020 0.165222
0.631500 0.713867 0.000000
0.901703 0.736115 0.001251
0.004303 0.936493 0.480469
0.092468 0.935242 0.468811
0.455017 0.928650 0.468323
0.684753 0.924347 0.438721
0.872986 0.920441 0.290344
0.018738 0.008728 0.125092
0.122070 0.027466 0.108521
0.354309 0.000000 0.079315
0.612793 0.003418 0.034393
0.888184 0.000885 0.003937
0.003052 0.157349 0.169128
0.164307 0.164307 0.162537
0.410980 0.139008 0.127258
0.660339 0.075378 0.048828
0.914490 0.075623 0.000885
0.002167 0.445892 0.241486
0.002167 0.448944 0.217957
0.410095 0.436798 0.163940
0.712219 0.440704 0.034882
0.943085 0.465118 0.001251
0.000885 0.742188 0.349518
0.003540 0.740936 0.307281
0.336975 0.732727 0.289062
0.648224 0.724365 0.182648
0.913849 0.739166 0.001770
0.205566 0.935242 0.551422
0.231628 0.933960 0.526611
0.477142 0.932587 0.517517
0.695770 0.924744 0.503723
0.880066 0.924347 0.370026
0.000000 0.011780 0.375702
0.182648 0.000885 0.364807
0.424133 0.000000 0.334717
0.668182 0.000000 0.303314
0.894348 0.005310 0.217468
0.000000 0.152954 0.404022
0.214905 0.144226 0.403656
0.466400 0.139008 0.375702
0.689941 0.098511 0.328613
0.907013 0.086884 0.255005
0.002167 0.435913 0.457672
0.148621 0.443756 0.457672
0.507263 0.483337 0.459808
0.734344 0.463715 0.398315
0.943573 0.455902 0.299408
0.000885 0.747009 0.529144
0.002533 0.748779 0.518158
0.437164 0.755219 0.510437
0.692108 0.737396 0.456787
0.927399 0.750549 0.372528
0.007477 0.938263 0.644135
0.296906 0.935730 0.639832
0.511444 0.932587 0.631622
0.715240 0.927032 0.622894
0.883362 0.922943 0.537109
0.132202 0.000000 0.638092
0.286774 0.002655 0.641113
0.538757 0.001770 0.634308
0.748016 0.003937 0.602936
0.946625 0.000000 0.596344
0.171417 0.108521 0.657318
0.308167 0.095001 0.655548
0.556610 0.057922 0.650726
0.767487 0.090302 0.624542
0.948761 0.217712 0.608856
0.001770 0.388855 0.686035
0.226318 0.397949 0.682617
0.545227 0.436798 0.685150
0.771423 0.493835 0.664642
0.937500 0.499542 0.624176
0.000000 0.730957 0.709930
0.081085 0.729919 0.712585
0.474243 0.743073 0.716522
0.764832 0.772675 0.727020
0.929535 0.747498 0.663025
0.002655 0.942322 0.787231
0.194061 0.937012 0.784576
0.485626 0.937897 0.776215
0.743073 0.928650 0.771027
0.896027 0.923462 0.720428
0.421265 0.000000 0.885132
0.499695 0.000000 0.894501
0.674377 0.000000 0.890076
0.880859 0.000000 0.870728
0.992157 0.004303 0.853760
0.425934 0.000000 0.896515
0.503479 0.000000 0.889954
0.677399 0.000366 0.893097
0.883118 0.076416 0.884369
1.000000 0.230743 0.864777
0.349274 0.383148 0.900452
0.443787 0.384552 0.899567
0.639465 0.398468 0.900818
0.848602 0.475128 0.892609
0.989258 0.540039 0.876160
0.000000 0.707397 0.907410
0.209625 0.703125 0.905396
0.491699 0.699554 0.901703
0.777100 0.726898 0.896027
0.950531 0.774323 0.886169
0.321716 0.917267 0.920044
0.391663 0.920929 0.925232
0.551422 0.924347 0.922211
0.742828 0.927887 0.920563
0.940430 0.944336 0.924744
