assets/Presetpro  - Kodacrome 64.cube
#Created by: Adobe Photoshop Export Color Lookup Plugin
#Copyright: (C) Copyright 2022 Tim Martin and Presetpro.com
TITLE "Presetpro - Kodachrome 64.jpg"
#LUT size
LUT_3D_SIZE 32
#data domain
DOMAIN_MIN 0.0 0.0 0.0
DOMAIN_MAX 1.0 1.0 1.0
#LUT data points
0.003937 0.000000 0.000000
0.007843 0.000580 0.003326
0.012146 0.003937 0.000000
0.029877 0.003937 0.002563
0.047211 0.000061 0.000000
0.060516 0.002228 0.000000
0.073517 0.003601 0.003601
0.093445 0.002136 0.001801
0.113739 0.003937 0.000000
0.122253 0.006775 0.000000
0.146820 0.010040 0.007843
0.162292 0.012512 0.007080
0.184418 0.011780 0.000031
0.207031 0.015289 0.000397
0.236542 0.011780 0.000671
0.260468 0.008606 0.000000
0.285461 0.008667 0.000000
0.326050 0.001678 0.001678
0.348602 0.005371 0.000000
0.381927 0.000000 0.002563
0.417084 0.003448 0.000000
0.445679 0.000000 0.000000
0.481506 0.000946 0.000946
0.517609 0.001587 0.000000
0.557190 0.000000 0.000000
0.597809 0.002014 0.000000
0.634918 0.000000 0.000000
0.674255 0.001923 0.003845
0.711395 0.003937 0.000000
0.758179 0.000000 0.000000
0.792206 0.001953 0.001984
0.825653 0.000000 0.000000
0.000000 0.009460 0.003937
0.006226 0.006775 0.003906
0.016083 0.009705 0.001434
0.030029 0.011780 0.002045
0.048737 0.009369 0.001495
0.066040 0.009491 0.002258
0.078186 0.008728 0.000000
0.093781 0.013611 0.000763
0.112976 0.013733 0.005859
0.127411 0.016571 0.003754
0.149261 0.015076 0.003326
0.170898 0.019135 0.011078
0.188873 0.020813 0.000000
0.212646 0.016937 0.002075
0.233856 0.021820 0.005768
0.265106 0.016785 0.001099
0.293213 0.017090 0.008087
0.322113 0.013397 0.003876
0.351257 0.012817 0.000000
0.384399 0.004303 0.006012
0.413910 0.001312 0.000000
0.447510 0.001465 0.000000
0.487152 0.000000 0.003937
0.522461 0.000000 0.004181
0.557800 0.001862 0.000366
0.598633 0.001526 0.002411
0.638153 0.001831 0.000000
0.675903 0.001984 0.001923
0.715485 0.000000 0.001526
0.758881 0.001251 0.000000
0.792694 0.003510 0.000427
0.827301 0.001221 0.002350
0.000000 0.022003 0.002716
0.009064 0.018829 0.003937
0.021057 0.024719 0.003937
0.033813 0.022491 0.005371
0.051910 0.020416 0.006226
0.068848 0.022400 0.003876
0.081512 0.017609 0.000000
0.096985 0.023041 0.001617
0.113831 0.023621 0.002014
0.132721 0.024323 0.003052
0.149475 0.024994 0.002472
0.165344 0.029785 0.000458
0.190552 0.031158 0.000000
0.216064 0.025482 0.000000
0.233612 0.027679 0.000153
0.258850 0.027283 0.000000
0.293945 0.024109 0.001495
0.323364 0.024597 0.002075
0.357269 0.020386 0.002777
0.386169 0.013702 0.009430
0.418121 0.006866 0.003052
0.449585 0.003052 0.000000
0.485840 0.000000 0.003937
0.519684 0.000000 0.000000
0.558411 0.001709 0.001709
0.599030 0.002991 0.001556
0.638275 0.001648 0.000000
0.677368 0.000824 0.000000
0.717773 0.000000 0.005524
0.763184 0.002991 0.000275
0.795288 0.001740 0.000000
0.826080 0.000000 0.004364
0.000000 0.033508 0.004028
0.005768 0.033447 0.005920
0.015076 0.030396 0.006012
0.029236 0.031921 0.004242
0.047089 0.032288 0.006348
0.067566 0.031036 0.004211
0.083252 0.032806 0.000458
0.098846 0.036316 0.001373
0.111298 0.036804 0.000824
0.138092 0.037140 0.003235
0.151917 0.035767 0.004578
0.169708 0.034943 0.000000
0.191284 0.042053 0.000214
0.213776 0.037079 0.000000
0.241974 0.038055 0.000000
0.266418 0.041412 0.004272
0.293518 0.036285 0.000000
0.320587 0.036346 0.000000
0.358978 0.028900 0.000000
0.382812 0.024567 0.003418
0.418213 0.018433 0.000000
0.450836 0.010498 0.003387
0.484863 0.004486 0.000000
0.520050 0.001221 0.000580
0.557861 0.001251 0.000610
0.599030 0.000000 0.000000
0.640320 0.000702 0.000000
0.679291 0.001129 0.000000
0.717865 0.003113 0.001587
0.763092 0.002991 0.000000
0.798615 0.002350 0.003174
0.831787 0.000000 0.000000
0.000000 0.048126 0.010803
0.003601 0.047363 0.010773
0.013336 0.046570 0.009277
0.029144 0.045166 0.010437
0.046967 0.045258 0.007812
0.069061 0.047546 0.011017
0.081696 0.050262 0.001404
0.104126 0.049744 0.005432
0.121002 0.044189 0.000244
0.132324 0.045074 0.000000
0.156891 0.045166 0.000000
0.179443 0.049408 0.000000
0.198944 0.053131 0.005157
0.215363 0.054810 0.001282
0.249329 0.051514 0.001465
0.265198 0.054138 0.000000
0.303528 0.048676 0.000000
0.324829 0.051086 0.000000
0.361237 0.044006 0.003174
0.386749 0.045044 0.000000
0.419861 0.039490 0.000000
0.455688 0.030304 0.001251
0.491180 0.015900 0.000000
0.524475 0.005219 0.000488
0.563721 0.002563 0.000000
0.600952 0.002716 0.001221
0.641724 0.000000 0.000000
0.682281 0.000458 0.000458
0.723419 0.003906 0.005402
0.764130 0.003021 0.000000
0.800201 0.002441 0.000061
0.834137 0.003143 0.000000
0.000000 0.063110 0.019867
0.001373 0.062927 0.018402
0.010925 0.062866 0.013367
0.026062 0.063171 0.018280
0.046631 0.060333 0.015686
0.061890 0.061340 0.017792
0.076752 0.067383 0.002594
0.100342 0.068390 0.005402
0.118927 0.060883 0.003265
0.136993 0.060608 0.000000
0.162323 0.063843 0.002777
0.176941 0.067383 0.000000
0.198029 0.067657 0.000000
0.224854 0.069275 0.001312
0.250427 0.063446 0.000671
0.271973 0.066132 0.000854
0.303040 0.063049 0.001617
0.328949 0.065735 0.003448
0.366791 0.061584 0.000000
0.395081 0.054443 0.000061
0.424805 0.054626 0.000000
0.460876 0.051422 0.000000
0.493866 0.038300 0.000000
0.528931 0.032532 0.000244
0.570801 0.017426 0.000000
0.604675 0.007690 0.000000
0.648834 0.001434 0.003845
0.683868 0.002045 0.002045
0.724213 0.004120 0.000092
0.771637 0.003571 0.003235
0.804138 0.002319 0.002991
0.837952 0.004608 0.000000
0.000000 0.081146 0.028778
0.000000 0.076263 0.024811
0.010986 0.075562 0.020844
0.024902 0.075867 0.020935
0.041656 0.077362 0.019989
0.059692 0.075775 0.018677
0.076630 0.082611 0.012390
0.098907 0.081329 0.010681
0.120850 0.084015 0.010498
0.138397 0.081360 0.008118
0.156647 0.079651 0.004913
0.183777 0.077972 0.000000
0.200989 0.079010 0.000000
0.229095 0.075043 0.002319
0.251740 0.075958 0.001617
0.272156 0.080933 0.002716
0.309448 0.081024 0.003052
0.335052 0.087280 0.002747
0.365234 0.084717 0.002747
0.401550 0.079651 0.004333
0.436157 0.076080 0.002747
0.467743 0.070496 0.003021
0.504089 0.064636 0.003540
0.538361 0.064117 0.000061
0.574799 0.050079 0.000000
0.616425 0.044189 0.002502
0.654266 0.032745 0.000000
0.691437 0.026672 0.000000
0.730164 0.027313 0.005280
0.771942 0.027863 0.001526
0.804016 0.035553 0.003113
0.838013 0.042999 0.003571
0.000000 0.099426 0.034027
0.002594 0.098022 0.027466
0.005859 0.096527 0.029083
0.021088 0.093872 0.023529
0.033783 0.093079 0.027435
0.051361 0.095795 0.030426
0.076324 0.095703 0.020935
0.093414 0.098541 0.015106
0.123871 0.098541 0.019379
0.135040 0.097107 0.012573
0.157257 0.097534 0.005493
0.182953 0.097900 0.007324
0.208588 0.095551 0.008881
0.232727 0.099396 0.001740
0.260101 0.096283 0.002014
0.283417 0.098419 0.002960
0.313232 0.100342 0.000000
0.339783 0.100342 0.000000
0.366669 0.104156 0.000000
0.410675 0.096069 0.000305
0.442139 0.095612 0.000946
0.469635 0.093323 0.000000
0.506104 0.092133 0.003143
0.544983 0.088989 0.001892
0.581268 0.081055 0.005463
0.615845 0.080139 0.000977
0.657318 0.072876 0.003418
0.699158 0.074951 0.000000
0.741730 0.077698 0.001617
0.777557 0.080444 0.000397
0.811646 0.083893 0.001099
0.844391 0.086639 0.002228
0.003693 0.110901 0.043793
0.000000 0.114197 0.041870
0.000000 0.114044 0.035492
0.002655 0.111359 0.035461
0.019470 0.110291 0.039215
0.031921 0.112152 0.037628
0.067566 0.112823 0.037537
0.086487 0.116974 0.032349
0.111298 0.114288 0.025391
0.139832 0.115295 0.021423
0.164917 0.118347 0.013245
0.187866 0.116974 0.018066
0.210327 0.117371 0.012573
0.233521 0.118469 0.003937
0.261200 0.117035 0.006165
0.297424 0.111481 0.005646
0.325073 0.115326 0.000000
0.352570 0.118958 0.000000
0.378143 0.116058 0.000000
0.409485 0.118347 0.002136
0.442169 0.118042 0.000885
0.477234 0.112610 0.000000
0.515106 0.112854 0.000000
0.550079 0.114960 0.001984
0.586456 0.110291 0.000366
0.626343 0.110260 0.000824
0.662292 0.109222 0.001465
0.703125 0.111755 0.002075
0.745636 0.112579 0.000000
0.787994 0.118713 0.000000
0.817017 0.120819 0.000000
0.847870 0.128296 0.000000
0.000000 0.133179 0.053009
0.000000 0.133026 0.051453
0.000000 0.130737 0.043152
0.001678 0.130554 0.043152
0.012726 0.132263 0.041016
0.032776 0.132782 0.048553
0.060425 0.130341 0.048248
0.080872 0.132050 0.041870
0.110687 0.131165 0.037476
0.137268 0.132874 0.027954
0.158264 0.137756 0.018890
0.179535 0.142242 0.013306
0.206818 0.137543 0.016724
0.240540 0.138489 0.025146
0.261902 0.132416 0.014771
0.294556 0.135254 0.011566
0.330505 0.136169 0.005219
0.352600 0.136719 0.000000
0.388641 0.136139 0.002655
0.417450 0.137573 0.000031
0.453705 0.135010 0.003632
0.489655 0.134064 0.000000
0.526764 0.133514 0.000000
0.563721 0.134613 0.000854
0.602295 0.134552 0.001434
0.634979 0.135986 0.000000
0.671661 0.140472 0.001617
0.710938 0.138428 0.000214
0.749451 0.151062 0.007782
0.791016 0.153259 0.000000
0.819519 0.156250 0.000000
0.853607 0.159027 0.000000
0.000000 0.155792 0.062103
0.000000 0.155457 0.060181
0.001831 0.153229 0.053833
0.003510 0.151245 0.053619
0.011475 0.148010 0.053162
0.021271 0.149811 0.053772
0.049835 0.149109 0.055206
0.076416 0.147369 0.058838
0.100494 0.154694 0.050049
0.122070 0.153748 0.043152
0.151825 0.156799 0.035217
0.181641 0.159180 0.026825
0.213013 0.160583 0.024597
0.242859 0.156372 0.019989
0.264923 0.161438 0.015289
0.290375 0.153748 0.006042
0.326813 0.161774 0.011444
0.360443 0.158539 0.003326
0.403748 0.155762 0.003204
0.424347 0.159210 0.000000
0.459839 0.156403 0.006165
0.493286 0.156921 0.000000
0.530670 0.157501 0.000000
0.568695 0.158478 0.000549
0.603394 0.161407 0.006439
0.640594 0.168030 0.001617
0.680359 0.169250 0.000000
0.717041 0.176605 0.000000
0.758698 0.178284 0.004333
0.797058 0.186676 0.000000
0.829620 0.193573 0.000000
0.855896 0.200012 0.000000
0.001831 0.173828 0.072418
0.000000 0.171692 0.070587
0.000000 0.173645 0.066071
0.000000 0.173370 0.065918
0.000366 0.170349 0.063324
0.008118 0.172089 0.063354
0.029907 0.171539 0.062622
0.059631 0.172150 0.064362
0.092590 0.174316 0.060242
0.116364 0.170471 0.055939
0.150482 0.174805 0.052734
0.173676 0.177277 0.045288
0.214844 0.180084 0.043091
0.239838 0.178802 0.031372
0.266602 0.183868 0.023529
0.300415 0.186096 0.021790
0.325653 0.183411 0.013855
0.362091 0.187134 0.000610
0.406830 0.185089 0.000000
0.439606 0.180634 0.001099
0.471039 0.184875 0.003876
0.507324 0.182953 0.001984
0.545441 0.188690 0.004456
0.574341 0.186096 0.003387
0.612732 0.187683 0.003937
0.652954 0.188019 0.000061
0.684418 0.197845 0.000000
0.726471 0.203888 0.001465
0.765137 0.211823 0.000610
0.807159 0.219666 0.000000
0.834106 0.226624 0.000000
0.861755 0.231598 0.000000
0.007721 0.200195 0.082428
0.002960 0.196899 0.078400
0.000000 0.199463 0.078217
0.000000 0.195892 0.074921
0.000000 0.195496 0.073730
0.000336 0.197968 0.070587
0.017548 0.188324 0.077271
0.044342 0.191895 0.077057
0.074249 0.193146 0.075012
0.106018 0.198364 0.068390
0.136658 0.197662 0.057861
0.165558 0.205505 0.051941
0.200439 0.201752 0.053070
0.229919 0.203094 0.049438
0.265411 0.209320 0.035706
0.284180 0.211243 0.023468
0.332367 0.209381 0.024017
0.370300 0.210602 0.012451
0.407562 0.211304 0.009613
0.443604 0.213257 0.003113
0.479950 0.212616 0.001160
0.516907 0.214783 0.001465
0.554352 0.214478 0.002197
0.592987 0.216431 0.000000
0.624908 0.221283 0.001953
0.661011 0.219391 0.000000
0.697784 0.223724 0.001007
0.738495 0.227631 0.000946
0.773193 0.245514 0.003052
0.807495 0.251770 0.003296
0.843658 0.258820 0.003235
0.871460 0.267975 0.005066
0.000000 0.223419 0.093262
0.000977 0.221954 0.088501
0.002136 0.220337 0.088409
0.002045 0.219940 0.088318
0.000610 0.218262 0.086884
0.001953 0.219696 0.084137
0.000000 0.216064 0.083893
0.017731 0.215454 0.084259
0.054474 0.217407 0.080109
0.097107 0.219788 0.081146
0.124115 0.221130 0.075806
0.156158 0.227112 0.066315
0.184082 0.232117 0.070251
0.224701 0.229980 0.059998
0.256104 0.238708 0.049500
0.306519 0.236938 0.037201
0.332428 0.242371 0.028625
0.367828 0.242645 0.022400
0.406311 0.242218 0.013275
0.441864 0.243530 0.000702
0.478882 0.242737 0.000000
0.519745 0.241943 0.000000
0.565308 0.246765 0.000092
0.603912 0.247955 0.000000
0.632843 0.249329 0.000000
0.673706 0.254425 0.000000
0.704071 0.259705 0.000000
0.747589 0.264832 0.000549
0.784271 0.276367 0.002289
0.821960 0.282379 0.000000
0.850616 0.290253 0.001373
0.876770 0.293091 0.001923
0.000854 0.253540 0.096680
0.000793 0.253357 0.096497
0.000702 0.253052 0.096191
0.002747 0.250031 0.095306
0.003448 0.248993 0.094116
0.005676 0.249329 0.091095
0.000732 0.245575 0.098511
0.004547 0.248901 0.091980
0.023163 0.246216 0.083923
0.065765 0.246979 0.088898
0.113983 0.246429 0.091736
0.147278 0.251099 0.084991
0.184357 0.257843 0.076599
0.208771 0.261627 0.065155
0.248108 0.262390 0.066406
0.293671 0.261444 0.052734
0.330627 0.269409 0.030548
0.365692 0.273865 0.023376
0.405060 0.275635 0.017059
0.447266 0.276184 0.005920
0.481384 0.272461 0.004181
0.522156 0.279480 0.000000
0.560425 0.278595 0.006958
0.595428 0.283447 0.000336
0.639160 0.285095 0.000000
0.680054 0.286926 0.000000
0.713043 0.292664 0.001007
0.752075 0.301147 0.001831
0.796051 0.303986 0.000000
0.832092 0.313934 0.000000
0.853516 0.321289 0.004395
0.881409 0.323792 0.006805
0.000427 0.276794 0.105896
0.000427 0.278839 0.106903
0.000458 0.283447 0.104980
0.000488 0.286163 0.102448
0.000000 0.281250 0.098724
0.000000 0.278381 0.097229
0.000824 0.281281 0.108826
0.000000 0.279510 0.098541
0.001801 0.278473 0.093658
0.033142 0.277771 0.090759
0.088074 0.277527 0.094513
0.126526 0.281006 0.099487
0.160797 0.284760 0.094940
0.200317 0.287933 0.082306
0.238342 0.292664 0.074524
0.279144 0.294769 0.069244
0.319916 0.299072 0.056244
0.366547 0.309570 0.026001
0.403168 0.309357 0.012268
0.445648 0.309509 0.000000
0.480560 0.312164 0.003540
0.524139 0.310059 0.003235
0.566162 0.315521 0.003937
0.605530 0.319275 0.000336
0.647980 0.319305 0.004364
0.687134 0.323822 0.000000
0.731384 0.327454 0.002289
0.769073 0.329712 0.004425
0.798187 0.340668 0.000000
0.832550 0.350830 0.000000
0.860504 0.354340 0.000000
0.888672 0.353790 0.007568
0.001434 0.316803 0.113739
0.002869 0.317810 0.115082
0.001495 0.316437 0.113739
0.000000 0.316467 0.117249
0.000000 0.315369 0.114441
0.000000 0.312988 0.108429
0.005951 0.308594 0.119812
0.004059 0.310181 0.115875
0.000000 0.313904 0.109985
0.005859 0.311096 0.106262
0.042206 0.310364 0.104340
0.098816 0.315765 0.107056
0.140625 0.318146 0.101105
0.184235 0.317902 0.090424
0.227661 0.327393 0.089722
0.272156 0.326935 0.083801
0.309235 0.333923 0.069214
0.357330 0.331909 0.041260
0.401093 0.339539 0.023285
0.438599 0.345856 0.001984
0.479950 0.351776 0.002930
0.526703 0.352844 0.006561
0.565063 0.350769 0.000305
0.604736 0.359314 0.003448
0.645691 0.354828 0.003662
0.686584 0.358124 0.000732
0.732635 0.365051 0.003937
0.777924 0.369659 0.000000
0.806885 0.373810 0.002899
0.847107 0.381226 0.002228
0.864349 0.384674 0.002533
0.893860 0.391571 0.000000
0.000000 0.357361 0.131073
0.002197 0.355652 0.127869
0.002960 0.354919 0.123047
0.000000 0.354218 0.120880
0.001190 0.350952 0.119049
0.001282 0.348785 0.117493
0.001923 0.353027 0.117645
0.000000 0.352203 0.118835
0.002106 0.351654 0.118805
0.003235 0.348083 0.118683
0.009308 0.344574 0.118866
0.048859 0.350220 0.117889
0.113556 0.351898 0.112213
0.172607 0.354431 0.102722
0.207001 0.355896 0.096313
0.253357 0.362701 0.088776
0.308350 0.368530 0.078644
0.339874 0.373749 0.063263
0.387695 0.371155 0.046936
0.433380 0.384369 0.020416
0.483063 0.382629 0.002258
0.523346 0.388763 0.000000
0.565643 0.390839 0.000763
0.604309 0.392456 0.000000
0.645050 0.394958 0.000427
0.686523 0.397888 0.000427
0.729431 0.401093 0.000061
0.770477 0.407562 0.000000
0.811615 0.412354 0.000977
0.851929 0.422546 0.000000
0.876556 0.423737 0.002625
0.896393 0.424194 0.006134
0.000000 0.394867 0.137115
0.001801 0.393860 0.135376
0.001526 0.395996 0.138031
0.000000 0.392609 0.134888
0.000000 0.391724 0.134033
0.004517 0.389709 0.128174
0.003296 0.394623 0.129303
0.000000 0.389404 0.124084
0.000427 0.387238 0.122528
0.000366 0.387909 0.123749
0.004547 0.382874 0.121887
0.001740 0.393555 0.126129
0.061920 0.389435 0.127747
0.140869 0.392181 0.114624
0.188385 0.395752 0.107941
0.237701 0.397980 0.103668
0.289917 0.402313 0.098816
0.340027 0.404846 0.079498
0.376495 0.403351 0.066986
0.427399 0.408600 0.047058
0.475708 0.417480 0.004761
0.517273 0.420837 0.003937
0.559204 0.426178 0.003937
0.594666 0.428162 0.000885
0.645386 0.429321 0.000000
0.683350 0.435059 0.000092
0.726440 0.440552 0.000000
0.765839 0.447266 0.000000
0.809113 0.448608 0.004913
0.852386 0.451996 0.002991
0.883942 0.455536 0.000000
0.910034 0.457031 0.000000
0.004272 0.437012 0.149353
0.000336 0.433075 0.145111
0.000275 0.432770 0.140778
0.000000 0.432251 0.137543
0.000000 0.430573 0.136139
0.000000 0.430817 0.136322
0.000031 0.435394 0.133362
0.000061 0.432770 0.135986
0.000000 0.431366 0.137238
0.005524 0.430481 0.136963
0.004852 0.427368 0.130341
0.007843 0.424377 0.133148
0.003876 0.430786 0.133606
0.080627 0.428375 0.127472
0.154022 0.434662 0.118042
0.214539 0.435760 0.106354
0.273071 0.438690 0.105713
0.322784 0.439697 0.093750
0.371246 0.437073 0.078827
0.411438 0.445679 0.060364
0.460327 0.449036 0.033966
0.508575 0.456512 0.005127
0.556885 0.462646 0.000275
0.597687 0.463715 0.000000
0.638641 0.468170 0.001831
0.680939 0.472076 0.002045
0.725769 0.473633 0.003937
0.766785 0.482544 0.000000
0.805176 0.488312 0.000671
0.848022 0.491608 0.000488
0.883575 0.491425 0.000427
0.916962 0.489227 0.000854
0.000031 0.478363 0.152954
0.000092 0.477753 0.152832
0.000092 0.480286 0.147705
0.000000 0.477448 0.145111
0.000000 0.477020 0.145386
0.000000 0.476959 0.145386
0.000000 0.478149 0.136169
0.006134 0.475677 0.136536
0.004211 0.468842 0.141479
0.000946 0.471649 0.141571
0.001740 0.471344 0.138245
0.003937 0.468140 0.140472
0.000275 0.470764 0.134491
0.021606 0.474396 0.131195
0.120911 0.470917 0.133575
0.186829 0.475769 0.127411
0.256104 0.471191 0.110565
0.303345 0.479431 0.096588
0.353271 0.477753 0.095337
0.396149 0.483063 0.081238
0.444641 0.486694 0.055328
0.489349 0.485992 0.030121
0.541107 0.494568 0.007843
0.589752 0.499695 0.000000
0.635132 0.505219 0.004913
0.677094 0.508148 0.000671
0.720093 0.514954 0.000000
0.762604 0.521393 0.003082
0.808624 0.518311 0.006042
0.847992 0.524689 0.000000
0.876038 0.524719 0.003418
0.906128 0.527679 0.000000
0.000000 0.516968 0.168488
0.000000 0.518585 0.168213
0.000397 0.515350 0.160400
0.003937 0.511810 0.160400
0.003937 0.511993 0.156067
0.003937 0.511993 0.151642
0.003479 0.515930 0.148163
0.003937 0.515503 0.148163
0.002258 0.516296 0.147736
0.003754 0.515656 0.149017
0.001556 0.512634 0.146667
0.000702 0.516388 0.140961
0.001617 0.511383 0.145020
0.001068 0.511597 0.147156
0.049652 0.510345 0.141144
0.155853 0.515289 0.138428
0.221313 0.510712 0.123566
0.279785 0.512848 0.118896
0.337219 0.516998 0.117645
0.384308 0.516235 0.096802
0.433563 0.517883 0.073120
0.481934 0.522736 0.059784
0.529846 0.527405 0.035767
0.577240 0.533936 0.006256
0.635223 0.542725 0.000153
0.676392 0.541351 0.000000
0.715149 0.548645 0.002991
0.755737 0.554749 0.000000
0.802155 0.557526 0.005554
0.840851 0.558899 0.003693
0.868195 0.562469 0.000000
0.900055 0.562744 0.000397
0.000000 0.559540 0.179993
0.000000 0.559021 0.178589
0.000397 0.556183 0.173004
0.000641 0.555298 0.172424
0.002075 0.555298 0.170105
0.003937 0.558807 0.168243
0.002411 0.556519 0.159271
0.003387 0.551514 0.157257
0.002045 0.553253 0.156464
0.000000 0.554901 0.163513
0.000000 0.554901 0.163513
0.000000 0.553131 0.157135
0.002594 0.549347 0.156128
0.002228 0.551422 0.161865
0.010406 0.548492 0.152618
0.101196 0.549622 0.165771
0.198822 0.549225 0.140594
0.267334 0.551544 0.136139
0.323547 0.551056 0.137238
0.370697 0.551086 0.111420
0.420349 0.555786 0.100739
0.472168 0.556793 0.087036
0.520630 0.557739 0.058868
0.566864 0.561371 0.029327
0.613861 0.560455 0.003906
0.666321 0.573914 0.000275
0.715881 0.584564 0.004089
0.762512 0.585693 0.000000
0.792023 0.590881 0.002594
0.843414 0.590179 0.000061
0.871826 0.592957 0.000061
0.899170 0.593597 0.000610
0.000458 0.595154 0.199677
0.000153 0.595306 0.196899
0.000183 0.592346 0.189209
0.000000 0.591400 0.180206
0.002197 0.593384 0.182404
0.003998 0.595062 0.184113
0.000000 0.591187 0.172363
0.003998 0.594818 0.175995
0.000580 0.591400 0.175995
0.000122 0.591187 0.179810
0.000000 0.591187 0.172363
0.000183 0.590393 0.177795
0.003296 0.587036 0.164856
0.003571 0.588806 0.175903
0.000977 0.588409 0.175079
0.053986 0.585846 0.171997
0.160370 0.585754 0.158325
0.237274 0.590088 0.152863
0.300507 0.589539 0.138275
0.361938 0.584290 0.134369
0.409943 0.584259 0.123383
0.457520 0.588776 0.112762
0.511383 0.594666 0.098694
0.559845 0.594727 0.067993
0.605164 0.600739 0.024384
0.651001 0.600220 0.007538
0.707153 0.611450 0.000000
0.759369 0.618805 0.001404
0.794067 0.622498 0.002350
0.834778 0.628021 0.001343
0.867828 0.624603 0.000732
0.894623 0.624512 0.006378
0.000000 0.632660 0.216309
0.000305 0.628723 0.210663
0.000305 0.628723 0.204865
0.000305 0.629211 0.203918
0.000641 0.632965 0.197021
0.000305 0.632660 0.192505
0.001923 0.631042 0.193115
0.003601 0.628723 0.192780
0.001953 0.631012 0.194763
0.000214 0.632751 0.196716
0.000305 0.626862 0.189514
0.002930 0.625427 0.188568
0.003113 0.628571 0.191681
0.001862 0.624908 0.188324
0.000397 0.624664 0.188965
0.009369 0.622437 0.182892
0.134033 0.624908 0.182404
0.222565 0.621979 0.173981
0.289642 0.625854 0.181183
0.349152 0.622375 0.157471
0.404114 0.621765 0.144775
0.452667 0.619598 0.139313
0.500610 0.622620 0.121521
0.549164 0.627258 0.107635
0.601074 0.629822 0.079742
0.647644 0.633331 0.049927
0.690277 0.629822 0.009918
0.744843 0.648132 0.000000
0.785889 0.655579 0.000000
0.831451 0.662689 0.000000
0.863129 0.659271 0.000183
0.891754 0.655365 0.000000
0.002869 0.668793 0.234558
0.003601 0.669525 0.233185
0.001068 0.668823 0.227020
0.002869 0.668060 0.223785
0.002869 0.668060 0.221558
0.002869 0.667877 0.219574
0.002869 0.666992 0.217804
0.003235 0.666809 0.217804
0.001648 0.665771 0.216614
0.000000 0.664124 0.214966
0.000000 0.662415 0.211090
0.000000 0.664124 0.212830
0.005646 0.663086 0.211761
0.002869 0.665192 0.212830
0.000000 0.659546 0.209717
0.005768 0.658997 0.200989
0.104736 0.657837 0.209351
0.209625 0.659485 0.202240
0.268036 0.658295 0.191376
0.343872 0.656830 0.185059
0.393951 0.658173 0.179749
0.437469 0.654602 0.168030
0.487701 0.658203 0.148682
0.542206 0.658539 0.136963
0.585938 0.661407 0.121826
0.635620 0.663116 0.107697
0.686432 0.667450 0.067993
0.729645 0.670013 0.036346
0.781921 0.678528 0.000000
0.825317 0.690002 0.000000
0.864319 0.689240 0.001251
0.887390 0.684387 0.000946
0.000000 0.703583 0.266205
0.004150 0.701508 0.262512
0.004150 0.702240 0.253571
0.002747 0.700592 0.252594
0.004852 0.703674 0.246338
0.001984 0.704376 0.244843
0.000000 0.701782 0.244141
0.003845 0.700165 0.241211
0.003845 0.700165 0.239288
0.002747 0.702911 0.240112
0.000000 0.702911 0.234314
0.002319 0.700867 0.239655
0.005524 0.696564 0.232849
0.001953 0.697144 0.234406
0.000397 0.693146 0.230713
0.007263 0.697052 0.237030
0.089325 0.696198 0.234070
0.205750 0.691803 0.226532
0.269226 0.689453 0.230621
0.330353 0.692963 0.224609
0.384857 0.690338 0.212158
0.434235 0.693207 0.205994
0.481934 0.690369 0.190308
0.528870 0.692291 0.173462
0.577057 0.691986 0.168030
0.624176 0.699493 0.149353
0.670746 0.702698 0.126892
0.719360 0.701691 0.104309
0.765137 0.702759 0.064301
0.815704 0.714844 0.010284
0.854065 0.721863 0.000000
0.881256 0.716553 0.000916
0.000000 0.732605 0.293396
0.001160 0.733795 0.291809
0.001160 0.733795 0.283966
0.000000 0.732635 0.280518
0.000000 0.735321 0.275482
0.002014 0.737823 0.274658
0.003693 0.732300 0.271851
0.004608 0.731567 0.271942
0.007050 0.734039 0.274414
0.007050 0.734039 0.268188
0.003113 0.730927 0.264252
0.003113 0.730927 0.265808
0.000580 0.732300 0.259399
0.004150 0.730682 0.264008
0.003204 0.726227 0.262604
