assets/Presetpro - Kodachrome.cube
#Created by: Adobe Photoshop Export Color Lookup Plugin
#Copyright: (C) Copyright 2022 Tim Martin and Presetpro.com
TITLE "Presetpro - Kodachrome.jpg"
#LUT size
LUT_3D_SIZE 32
#data domain
DOMAIN_MIN 0.0 0.0 0.0
DOMAIN_MAX 1.0 1.0 1.0
#LUT data points
0.000000 0.000000 0.000000
0.007843 0.000122 0.003784
0.020111 0.003937 0.000244
0.035675 0.003540 0.000000
0.050995 0.007843 0.000000
0.063995 0.008484 0.000000
0.083862 0.013275 0.003937
0.098938 0.022644 0.006073
0.118774 0.022522 0.001007
0.144592 0.020752 0.000000
0.172424 0.023529 0.000000
0.204163 0.022125 0.002533
0.236542 0.016571 0.000000
0.279449 0.007843 0.002289
0.318634 0.000000 0.000000
0.360504 0.002014 0.000000
0.398376 0.001892 0.002014
0.440002 0.000000 0.001770
0.479706 0.000000 0.001648
0.517914 0.000000 0.002411
0.549927 0.002533 0.000000
0.595093 0.000000 0.000000
0.632385 0.000000 0.000000
0.666534 0.000000 0.002899
0.711945 0.003052 0.000885
0.746002 0.000000 0.000000
0.789001 0.003296 0.003296
0.825439 0.006836 0.000000
0.875793 0.000000 0.003937
0.904877 0.000000 0.000000
0.944580 0.004059 0.007721
0.984314 0.000000 0.003937
0.000000 0.020111 0.000122
0.007843 0.016052 0.000000
0.019989 0.023651 0.003784
0.035553 0.023651 0.003937
0.044525 0.023895 0.000000
0.068420 0.024414 0.000519
0.084991 0.025177 0.000641
0.102844 0.027588 0.000122
0.119019 0.033539 0.000000
0.147247 0.032898 0.000000
0.171387 0.031616 0.001251
0.201874 0.032776 0.000000
0.243134 0.018341 0.003937
0.284882 0.013519 0.003021
0.321045 0.004425 0.000000
0.362793 0.002014 0.000122
0.404205 0.001892 0.000000
0.440247 0.000122 0.000000
0.479950 0.000000 0.001770
0.521698 0.002289 0.000000
0.556366 0.001404 0.000000
0.590027 0.002533 0.000000
0.635315 0.000000 0.002655
0.672638 0.000000 0.000122
0.709564 0.002899 0.000000
0.755493 0.000000 0.003052
0.797485 0.000000 0.003937
0.837189 0.003784 0.000000
0.868958 0.003418 0.000122
0.909058 0.003784 0.003662
0.955719 0.000122 0.007324
0.992035 0.000122 0.003784
0.000244 0.036316 0.000763
0.003937 0.043640 0.008087
0.015930 0.039978 0.000519
0.027588 0.039978 0.003784
0.047821 0.040222 0.000000
0.070831 0.043274 0.003540
0.081726 0.040466 0.004425
0.110931 0.043396 0.003662
0.130432 0.044891 0.000000
0.149902 0.052002 0.000000
0.178101 0.040741 0.001007
0.213654 0.043396 0.000000
0.252472 0.036438 0.000000
0.287537 0.028351 0.000519
0.331787 0.008972 0.000000
0.372406 0.001648 0.000244
0.411652 0.002136 0.001892
0.448334 0.003662 0.000000
0.486023 0.001648 0.000244
0.526001 0.003662 0.001526
0.561951 0.000244 0.000000
0.601532 0.002411 0.003662
0.638580 0.000000 0.000000
0.670990 0.003662 0.003662
0.715393 0.000000 0.000000
0.756989 0.000000 0.000000
0.797729 0.000641 0.003296
0.836182 0.000519 0.000519
0.876160 0.000641 0.004059
0.916626 0.003937 0.000000
0.949158 0.003540 0.000000
0.984558 0.000244 0.000000
0.000000 0.063507 0.012146
0.000000 0.059967 0.008362
0.007477 0.063507 0.011383
0.016052 0.063507 0.007477
0.043762 0.060333 0.000519
0.061096 0.063263 0.006592
0.084625 0.061096 0.000000
0.111694 0.062988 0.000000
0.134216 0.062866 0.000366
0.154694 0.060730 0.000000
0.191376 0.058685 0.000885
0.223389 0.051117 0.000000
0.256012 0.050598 0.001129
0.295868 0.039581 0.003540
0.338623 0.027588 0.004700
0.383148 0.014923 0.005432
0.414581 0.003540 0.003937
0.456421 0.000366 0.000000
0.496155 0.000000 0.005188
0.530426 0.001526 0.001526
0.565613 0.002533 0.000000
0.605835 0.000000 0.002655
0.645294 0.002777 0.000000
0.680084 0.000366 0.002533
0.718414 0.000366 0.001251
0.761292 0.000366 0.000000
0.804688 0.003296 0.000000
0.841492 0.000366 0.000366
0.877289 0.000366 0.000000
0.919678 0.000366 0.003296
0.956238 0.000000 0.006836
0.980377 0.003937 0.003540
0.000000 0.087799 0.016693
0.000122 0.083862 0.016052
0.000244 0.083618 0.015442
0.014679 0.083374 0.019104
0.035797 0.079956 0.012787
0.056427 0.083862 0.011627
0.086273 0.083374 0.010010
0.110291 0.080841 0.000885
0.132568 0.083374 0.000519
0.170898 0.082733 0.000000
0.198975 0.081848 0.000000
0.239197 0.072113 0.001007
0.273865 0.070587 0.005432
0.312958 0.059204 0.001129
0.349243 0.051117 0.000000
0.389862 0.036560 0.003937
0.427856 0.017059 0.007721
0.460602 0.003418 0.003418
0.502594 0.000519 0.000519
0.540436 0.000000 0.001892
0.576355 0.002014 0.002014
0.613403 0.000000 0.000000
0.650238 0.001129 0.000000
0.692108 0.000000 0.001007
0.726013 0.003052 0.004425
0.768005 0.000000 0.000000
0.809875 0.000000 0.006836
0.846039 0.001007 0.001526
0.884369 0.003540 0.003540
0.921051 0.000519 0.000000
0.959656 0.000519 0.000122
0.996063 0.000000 0.000000
0.000641 0.111694 0.024170
0.000000 0.111053 0.023529
0.000244 0.107513 0.020233
0.004303 0.104248 0.016052
0.016693 0.104492 0.013519
0.050995 0.107147 0.015045
0.077423 0.107269 0.008484
0.102844 0.110809 0.003540
0.141541 0.109680 0.000641
0.175446 0.102722 0.000641
0.215424 0.099304 0.003937
0.257050 0.093872 0.002533
0.287018 0.094482 0.001251
0.329407 0.083618 0.001648
0.363037 0.074005 0.004425
0.401001 0.065399 0.002014
0.440887 0.049438 0.002533
0.476044 0.029602 0.000641
0.512970 0.009735 0.000000
0.551056 0.000641 0.000000
0.592926 0.000000 0.003174
0.625702 0.000641 0.000641
0.660980 0.002777 0.000000
0.699829 0.002289 0.000641
0.733734 0.003052 0.000000
0.777222 0.000000 0.000641
0.816437 0.000641 0.000000
0.851349 0.000641 0.000000
0.888672 0.000000 0.000000
0.925110 0.003296 0.000244
0.957001 0.003296 0.000000
0.986206 0.006592 0.000000
0.000000 0.131683 0.025055
0.000000 0.131683 0.023529
0.000000 0.131683 0.017212
0.000763 0.128510 0.014038
0.000763 0.131927 0.023773
0.032623 0.131683 0.016449
0.069702 0.131683 0.014923
0.108032 0.134735 0.004791
0.149139 0.128784 0.007599
0.181763 0.127777 0.000763
0.219727 0.127258 0.000763
0.261078 0.119293 0.000763
0.299286 0.118530 0.000763
0.335968 0.110443 0.000000
0.378601 0.100708 0.001007
0.417938 0.088562 0.005829
0.451630 0.086517 0.000000
0.486786 0.072479 0.000000
0.525238 0.054993 0.001526
0.558777 0.036530 0.000000
0.599518 0.014526 0.000763
0.635559 0.003540 0.000000
0.672607 0.002014 0.000763
0.707275 0.000000 0.000763
0.744598 0.000885 0.000000
0.781281 0.002411 0.000000
0.821747 0.003174 0.000000
0.857056 0.000763 0.000000
0.899689 0.002777 0.002258
0.929413 0.001007 0.000763
0.964081 0.000763 0.000763
0.996063 0.004547 0.006317
0.000000 0.163422 0.029205
0.000000 0.159637 0.023651
0.000519 0.156738 0.020752
0.001251 0.156860 0.020874
0.000000 0.160034 0.024780
0.015320 0.156738 0.018982
0.056793 0.152679 0.020996
0.097656 0.153442 0.012634
0.137238 0.158386 0.006958
0.184692 0.153687 0.003540
0.225922 0.150269 0.005310
0.267029 0.148895 0.000885
0.314331 0.143188 0.000000
0.346985 0.140778 0.000000
0.391876 0.130310 0.000885
0.430603 0.119293 0.000885
0.467834 0.113342 0.000885
0.505371 0.104614 0.001770
0.542053 0.093719 0.001770
0.574585 0.089569 0.000000
0.612793 0.079803 0.001648
0.648590 0.060577 0.000000
0.686157 0.045258 0.001892
0.718414 0.029327 0.000885
0.752930 0.016296 0.000000
0.787842 0.010620 0.000000
0.828217 0.013885 0.000000
0.863373 0.015411 0.001404
0.901703 0.017670 0.001251
0.936249 0.033875 0.000000
0.968994 0.065765 0.000000
1.000000 0.096893 0.000000
0.000000 0.191254 0.031372
0.000000 0.188354 0.028473
0.000000 0.185455 0.028473
0.000000 0.185455 0.028473
0.002899 0.187836 0.029358
0.002258 0.186951 0.022247
0.038574 0.189484 0.017944
0.093475 0.184418 0.015686
0.142303 0.183411 0.012787
0.187836 0.174683 0.008362
0.234772 0.179260 0.002899
0.269684 0.176208 0.000000
0.316986 0.175079 0.000000
0.359497 0.165833 0.000000
0.401367 0.159149 0.000000
0.444763 0.156097 0.000000
0.484650 0.148132 0.000000
0.523346 0.140289 0.001129
0.560150 0.137360 0.004547
0.593048 0.130554 0.002533
0.619995 0.123718 0.000000
0.658691 0.119385 0.000000
0.693359 0.113068 0.000000
0.732330 0.111053 0.000000
0.767120 0.107117 0.001892
0.804047 0.107391 0.000000
0.841614 0.113068 0.000000
0.871094 0.114960 0.001007
0.905762 0.128906 0.000000
0.937500 0.138000 0.003174
0.971161 0.157745 0.000000
0.994171 0.176697 0.000000
0.001129 0.220245 0.034790
0.001007 0.223022 0.037567
0.000000 0.220245 0.034790
0.000000 0.220245 0.034790
0.008972 0.217957 0.046448
0.002777 0.218079 0.037567
0.013519 0.216309 0.025421
0.082336 0.212646 0.024414
0.131439 0.216309 0.019348
0.177094 0.215179 0.007843
0.226044 0.211121 0.000000
0.275513 0.212646 0.002777
0.318512 0.210480 0.009613
0.362915 0.205688 0.000000
0.406158 0.199371 0.000000
0.445892 0.193665 0.006317
0.486664 0.187958 0.001129
0.528412 0.181030 0.001129
0.573334 0.178223 0.004425
0.614685 0.170258 0.006439
0.641266 0.167328 0.000000
0.671722 0.170258 0.000000
0.704742 0.167603 0.001129
0.740540 0.171509 0.004944
0.783051 0.176575 0.002014
0.815063 0.174561 0.000000
0.848969 0.184937 0.002167
0.883759 0.188477 0.002289
0.915009 0.197693 0.000000
0.947998 0.207458 0.002777
0.975952 0.220612 0.000122
1.000000 0.233765 0.000000
0.000000 0.251984 0.044403
0.002655 0.257294 0.044403
0.000000 0.254639 0.041748
0.000000 0.253876 0.041351
0.002655 0.252869 0.048309
0.001251 0.249451 0.043152
0.000000 0.253357 0.035919
0.060333 0.249451 0.031738
0.126129 0.246796 0.029205
0.172913 0.248322 0.013428
0.231110 0.244263 0.007843
0.274994 0.246552 0.005066
0.321045 0.247192 0.002533
0.368225 0.247803 0.001251
0.408722 0.238953 0.001251
0.451355 0.235779 0.000000
0.490601 0.229828 0.002014
0.534851 0.228943 0.000000
0.580658 0.223511 0.001251
0.618622 0.219452 0.000000
0.651978 0.221985 0.000000
0.687683 0.215424 0.001404
0.722198 0.218323 0.005310
0.760925 0.222870 0.003662
0.791656 0.229706 0.003540
0.823792 0.234772 0.002014
0.855530 0.246155 0.002533
0.887665 0.248047 0.004669
0.922943 0.260712 0.000000
0.952301 0.267395 0.001251
0.982544 0.275391 0.000000
1.000000 0.295105 0.002533
0.000000 0.297150 0.052368
0.001251 0.298279 0.052124
0.000000 0.298279 0.053497
0.000000 0.298523 0.050995
0.001892 0.294861 0.047577
0.002533 0.290680 0.047699
0.000000 0.298279 0.043396
0.029480 0.286255 0.044647
0.111053 0.285767 0.033783
0.169006 0.285370 0.019226
0.219086 0.285614 0.006714
0.261841 0.285370 0.002777
0.313446 0.279053 0.000000
0.358612 0.284241 0.005066
0.416290 0.278931 0.011383
0.449829 0.280060 0.002014
0.489197 0.278931 0.002533
0.529572 0.273621 0.000000
0.578247 0.274109 0.002533
0.618500 0.272583 0.001526
0.660858 0.267151 0.000000
0.696899 0.268555 0.000000
0.735474 0.273865 0.001404
0.770264 0.274994 0.000000
0.804932 0.278046 0.003418
0.838959 0.284241 0.000763
0.868073 0.297272 0.001251
0.897919 0.305359 0.000000
0.928284 0.316620 0.005066
0.960510 0.323181 0.001404
0.983948 0.335083 0.002777
1.000000 0.346985 0.005310
0.002411 0.336090 0.062744
0.004822 0.340912 0.060333
0.004822 0.342438 0.057312
0.004822 0.342438 0.057312
0.006317 0.334595 0.053375
0.002411 0.339386 0.056152
0.006317 0.339386 0.058838
0.005707 0.333954 0.047943
0.082458 0.332062 0.048584
0.156494 0.335083 0.034546
0.210999 0.331818 0.012268
0.257935 0.326874 0.006836
0.302307 0.325226 0.002411
0.345581 0.326752 0.000122
0.399353 0.321289 0.002411
0.445282 0.328247 0.002014
0.487579 0.320404 0.000000
0.531708 0.322815 0.003021
0.569916 0.322937 0.000000
0.609619 0.325226 0.000000
0.653259 0.320404 0.004059
0.695770 0.324341 0.003021
0.733093 0.326996 0.000000
0.778748 0.329651 0.000000
0.810608 0.335205 0.000000
0.844788 0.340027 0.000000
0.873505 0.348114 0.002411
0.906494 0.358612 0.000000
0.933716 0.369507 0.000000
0.962189 0.377472 0.002411
0.987854 0.386963 0.002411
0.996063 0.396423 0.007233
0.000000 0.390228 0.070587
0.001526 0.390106 0.072113
0.002533 0.384277 0.060730
0.003540 0.385315 0.061737
0.000000 0.389221 0.057678
0.002289 0.385681 0.058807
0.000000 0.381012 0.060699
0.002289 0.383789 0.055664
0.032745 0.377838 0.059204
0.127014 0.376190 0.048706
0.201904 0.376831 0.021637
0.240601 0.379608 0.007599
0.302094 0.372162 0.005432
0.342194 0.374542 0.000000
0.391754 0.369507 0.002167
0.431366 0.368591 0.001648
0.483643 0.374176 0.001892
0.530182 0.372284 0.000000
0.562714 0.374542 0.000000
0.601044 0.376068 0.003296
0.646301 0.372009 0.001648
0.688812 0.374542 0.000000
0.734985 0.378479 0.000000
0.774963 0.380127 0.000000
0.813538 0.387604 0.002533
0.850983 0.391876 0.000000
0.881104 0.403656 0.001648
0.911560 0.407074 0.000000
0.944855 0.417328 0.003296
0.971283 0.425293 0.000000
0.991913 0.441101 0.000122
0.998352 0.450073 0.000000
0.001770 0.436279 0.078430
0.001770 0.436401 0.074005
0.001526 0.438324 0.072357
0.000000 0.436920 0.069824
0.001251 0.437561 0.071838
0.006470 0.434143 0.066284
0.002167 0.431976 0.064117
0.000000 0.431976 0.064514
0.000000 0.432129 0.062866
0.083984 0.426300 0.061737
0.166473 0.431854 0.041748
0.230865 0.422363 0.021759
0.279572 0.424377 0.002167
0.329651 0.422363 0.000000
0.373932 0.418823 0.003937
0.418701 0.416565 0.000122
0.469879 0.414520 0.001770
0.516663 0.422363 0.003937
0.556000 0.418457 0.000000
0.599792 0.424530 0.002167
0.642670 0.423370 0.000763
0.686035 0.426788 0.001251
0.727783 0.431854 0.003540
0.765350 0.435150 0.003540
0.807343 0.438934 0.001770
0.847198 0.443390 0.001404
0.880463 0.451599 0.004944
0.919556 0.459442 0.000000
0.945343 0.464752 0.000000
0.973572 0.473083 0.000000
0.999481 0.482849 0.004059
1.000000 0.493347 0.001770
0.000000 0.487915 0.088287
0.000122 0.483978 0.082092
0.000244 0.482452 0.077057
0.000000 0.484344 0.076904
0.004059 0.482452 0.069214
0.004059 0.481964 0.069946
0.005188 0.477142 0.075653
0.001770 0.477020 0.071747
0.000885 0.481201 0.066803
0.012024 0.475372 0.063751
0.134735 0.472076 0.063873
0.200989 0.471069 0.038971
0.264374 0.471832 0.016449
0.315857 0.470184 0.000000
0.363953 0.468414 0.001770
0.409454 0.470184 0.001892
0.459229 0.460327 0.001892
0.502991 0.462616 0.003784
0.550934 0.468170 0.003784
0.592926 0.470184 0.001892
0.632263 0.474609 0.002533
0.676025 0.473358 0.003143
0.718658 0.477905 0.002014
0.759644 0.480927 0.002014
0.800385 0.485992 0.000000
0.845306 0.492950 0.000000
0.875397 0.501068 0.002014
0.913727 0.507385 0.002411
0.945099 0.512939 0.003662
0.975464 0.520905 0.000000
0.995697 0.528870 0.003784
0.998108 0.534821 0.000000
0.000000 0.531708 0.099945
0.000000 0.531708 0.094116
0.000000 0.533722 0.084381
0.000000 0.535614 0.084381
0.000000 0.529694 0.083496
0.001404 0.532349 0.081238
0.000000 0.529938 0.080597
0.000000 0.527039 0.080322
0.001892 0.526917 0.076538
0.001129 0.524628 0.080597
0.064148 0.522247 0.076538
0.173004 0.522614 0.059357
0.238922 0.518555 0.035065
0.295990 0.519318 0.005707
0.347473 0.516418 0.000000
0.395691 0.512238 0.001892
0.439362 0.512085 0.000000
0.487183 0.512115 0.000000
0.531067 0.506287 0.001892
0.584961 0.516022 0.004059
0.628357 0.514618 0.000000
0.669952 0.520569 0.001892
0.712341 0.527771 0.003021
0.754852 0.530701 0.001007
0.798492 0.535614 0.002014
0.834930 0.539551 0.002014
0.865417 0.546906 0.002014
0.901337 0.550812 0.000000
0.939514 0.554871 0.001526
0.969269 0.560791 0.000000
0.997589 0.570526 0.004059
1.000000 0.578644 0.001892
0.000000 0.579773 0.114105
0.000000 0.581421 0.106140
0.001770 0.577637 0.100067
0.005310 0.577637 0.096283
0.004303 0.573700 0.094513
0.002777 0.577240 0.093231
0.000000 0.574463 0.096649
0.000000 0.573700 0.092346
0.002167 0.570557 0.086029
0.004028 0.569794 0.089569
0.002533 0.571564 0.081482
0.126556 0.567627 0.088440
0.211090 0.566498 0.064423
0.279022 0.563721 0.038971
0.334320 0.560181 0.007629
0.383514 0.560181 0.000275
0.427704 0.557648 0.002289
0.479584 0.557648 0.001770
0.525116 0.550171 0.008118
0.570038 0.550171 0.001770
0.615204 0.557648 0.002533
0.656952 0.565857 0.001770
0.705261 0.568268 0.000000
0.743958 0.576874 0.000000
0.783417 0.575867 0.002167
0.824432 0.581543 0.003174
0.859833 0.588776 0.001251
0.893860 0.592438 0.000000
0.933594 0.597229 0.000000
0.961792 0.602417 0.000000
0.990021 0.608612 0.002167
0.997833 0.616852 0.000000
0.002289 0.623169 0.130676
0.002167 0.623047 0.127014
0.001648 0.621124 0.118683
0.001648 0.623169 0.116638
0.000000 0.621521 0.111725
0.001648 0.623169 0.116638
0.000000 0.618347 0.115112
0.001770 0.620636 0.110443
0.002014 0.615692 0.109436
0.001129 0.616455 0.097534
0.002655 0.611145 0.105652
0.059082 0.612549 0.103333
0.186920 0.609863 0.099426
0.259552 0.611389 0.079346
0.317627 0.606232 0.044708
0.375824 0.606476 0.003967
0.419861 0.603546 0.000000
0.469330 0.609497 0.000000
0.512726 0.600281 0.000000
0.558899 0.599518 0.000000
0.601166 0.594330 0.001404
0.647064 0.601654 0.002289
0.692841 0.606354 0.000000
0.732208 0.613678 0.001251
0.775330 0.618347 0.000000
0.816589 0.623169 0.002289
0.857300 0.624176 0.000000
0.892090 0.627594 0.002136
0.927643 0.636200 0.006836
0.955841 0.641876 0.000000
0.988617 0.646576 0.001648
1.000000 0.658447 0.000000
0.000000 0.664520 0.148407
0.002289 0.666687 0.146637
0.006958 0.663666 0.140289
0.004059 0.663391 0.134369
0.000000 0.661102 0.141052
0.001251 0.664795 0.135101
0.002411 0.660614 0.132721
0.000000 0.663025 0.127899
0.000000 0.660980 0.129669
0.002258 0.660370 0.126373
0.001129 0.657837 0.122101
0.012878 0.655304 0.123840
0.150360 0.652130 0.120941
0.242859 0.651367 0.107544
0.304718 0.654541 0.090607
0.364166 0.644440 0.056824
0.417236 0.646942 0.012787
0.461121 0.645172 0.002533
0.505005 0.645050 0.000000
0.551697 0.644928 0.000000
0.596863 0.640991 0.002411
0.639496 0.633148 0.001526
0.678955 0.640228 0.001526
0.727905 0.649719 0.000000
0.767242 0.655792 0.000000
0.811127 0.659088 0.002411
0.848450 0.660614 0.004822
0.884369 0.664032 0.002411
0.917633 0.674011 0.000000
0.954590 0.675018 0.000000
0.982544 0.684143 0.000122
1.000000 0.694397 0.000000
0.000000 0.706787 0.176239
0.000000 0.702850 0.170776
0.000000 0.702850 0.167877
0.000000 0.703247 0.160919
0.000000 0.702850 0.160553
0.003296 0.703613 0.161285
0.003296 0.700714 0.159149
0.005066 0.698944 0.157379
0.002533 0.699463 0.153076
0.001404 0.698700 0.151550
0.002655 0.696289 0.156616
0.003937 0.696411 0.148773
0.115570 0.695923 0.141693
0.230072 0.688812 0.147400
0.295502 0.690338 0.131714
0.358368 0.691101 0.107666
0.409119 0.683258 0.083771
0.455292 0.687164 0.035919
0.499054 0.684631 0.001007
0.551575 0.683258 0.002411
0.593048 0.681854 0.000000
0.630371 0.679199 0.000000
0.676422 0.674286 0.002533
0.715607 0.671112 0.001007
0.757751 0.688568 0.002533
0.802155 0.691711 0.003937
0.842010 0.695648 0.000641
0.881226 0.699829 0.001404
0.908661 0.710205 0.002136
0.941803 0.707031 0.000000
0.974701 0.715881 0.002533
0.997467 0.722473 0.000000
0.003937 0.741302 0.206726
0.002655 0.739929 0.200012
0.000244 0.740295 0.193817
0.002655 0.742706 0.191681
0.003418 0.740936 0.191925
0.004700 0.739410 0.186462
0.004425 0.739410 0.186340
0.004425 0.736633 0.190277
0.003296 0.737122 0.190765
0.003052 0.733734 0.178650
0.003784 0.730957 0.186829
0.001404 0.732208 0.180542
0.088745 0.728271 0.171936
0.215637 0.729919 0.181793
0.289917 0.727020 0.165222
0.355194 0.725128 0.157776
0.402161 0.725128 0.135986
0.451630 0.723114 0.101318
0.501221 0.719543 0.069702
0.546875 0.721588 0.022156
0.594055 0.719055 0.000000
0.631500 0.713867 0.000000
0.673767 0.716400 0.007721
0.707397 0.712585 0.002655
0.746368 0.712097 0.000000
0.795441 0.724365 0.005310
0.838715 0.727661 0.000000
0.873260 0.731689 0.002655
0.901703 0.736115 0.001251
0.937500 0.740051 0.000244
0.973694 0.747772 0.002655
0.997345 0.755737 0.000000
0.001129 0.774719 0.239716
0.001129 0.778625 0.231873
0.001129 0.775848 0.221252
0.001129 0.775848 0.217346
0.003418 0.770782 0.220123
0.000641 0.777618 0.215698
0.004822 0.775085 0.215942
0.002777 0.771912 0.216187
0.003540 0.773712 0.216949
0.002258 0.771301 0.213928
0.000000 0.771545 0.213409
0.003937 0.765228 0.213409
0.068878 0.765350 0.207092
0.218048 0.760162 0.206207
0.287628 0.764709 0.206848
0.356323 0.760284 0.197998
0.406219 0.756226 0.184448
0.454285 0.755859 0.164337
0.499969 0.755737 0.136505
0.546875 0.753448 0.113983
0.587128 0.749542 0.052643
0.628967 0.752319 0.003662
0.671600 0.751190 0.000000
0.711578 0.748383 0.002777
0.741821 0.743591 0.000000
0.781281 0.746002 0.000763
0.825043 0.757874 0.002777
0.857422 0.761169 0.002777
0.897675 0.768005 0.002777
0.932312 0.774719 0.005585
0.966339 0.779633 0.002777
0.987732 0.790405 0.000000
0.000000 0.807739 0.274384
0.001129 0.804932 0.266663
0.000244 0.804047 0.263275
0.001007 0.805206 0.257935
0.002014 0.806213 0.251373
0.002899 0.800903 0.248962
0.003021 0.803558 0.251221
0.002899 0.804962 0.254791
0.002014 0.805695 0.250854
0.001770 0.803040 0.246948
0.005585 0.798218 0.245941
0.003937 0.797485 0.236694
0.091309 0.798859 0.245422
0.222595 0.796600 0.247192
0.299408 0.796967 0.242401
0.362152 0.794952 0.243896
0.412292 0.794067 0.227478
0.459991 0.795197 0.215302
0.506775 0.788116 0.195587
0.548767 0.786224 0.172424
0.586212 0.788116 0.146881
0.630005 0.788361 0.098663
0.665039 0.788239 0.035950
0.703857 0.783173 0.000000
0.737762 0.779388 0.002014
0.773682 0.777100 0.000763
0.813538 0.783569 0.003296
0.853882 0.792542 0.000000
0.890320 0.800507 0.001007
0.928406 0.797211 0.003662
0.957367 0.803802 0.003052
0.985321 0.815582 0.009735
0.003052 0.836578 0.307526
0.003937 0.835693 0.301453
0.003662 0.839355 0.294250
0.003937 0.839600 0.292358
0.000519 0.836060 0.291473
0.005432 0.833282 0.287292
0.000885 0.834808 0.287537
0.000885 0.836578 0.286652
0.003052 0.832642 0.290588
0.004303 0.833649 0.285767
0.001251 0.836182 0.287048
0.000885 0.828735 0.285767
0.130280 0.826324 0.286011
0.241211 0.828735 0.284149
0.311310 0.830872 0.277435
0.375061 0.830872 0.279816
0.429993 0.824799 0.283997
0.470856 0.820892 0.266174
0.517792 0.821625 0.251984
0.557526 0.817596 0.230865
0.594330 0.816071 0.208862
0.630615 0.814301 0.181793
0.669067 0.815063 0.140289
0.710815 0.810120 0.109589
0.741577 0.811279 0.030365
0.779510 0.814301 0.000000
0.811401 0.809113 0.009125
0.841492 0.809998 0.000366
0.885773 0.821014 0.003052
0.921448 0.824799 0.000000
0.953186 0.832520 0.003937
0.984314 0.840485 0.000000
0.000000 0.863647 0.348389
0.000000 0.863647 0.343719
0.000763 0.864380 0.338135
0.000000 0.864380 0.335876
0.005310 0.864899 0.334869
0.002014 0.863647 0.325500
0.003937 0.860474 0.326385
0.004059 0.862122 0.327271
0.004303 0.861481 0.315002
0.003540 0.860840 0.324097
0.000000 0.858459 0.328156
0.048248 0.859070 0.327271
0.182251 0.860596 0.328033
0.271332 0.852631 0.320068
0.333191 0.854401 0.319550
0.394043 0.854645 0.324097
0.442413 0.851501 0.321716
0.485168 0.851624 0.309540
0.525879 0.851105 0.304382
0.562561 0.849457 0.283997
0.602173 0.851990 0.267303
0.637848 0.851379 0.242126
0.673492 0.847961 0.218994
0.706024 0.844788 0.191040
0.746368 0.840240 0.156616
0.781281 0.847198 0.099060
0.806061 0.843262 0.026581
0.841370 0.843536 0.000244
0.870209 0.843262 0.000000
0.913208 0.849213 0.000763
0.948639 0.856537 0.003296
0.981140 0.860474 0.000000
0.003937 0.887665 0.385071
0.003937 0.887665 0.383820
0.003296 0.891602 0.376617
0.003296 0.891602 0.375854
0.002777 0.891083 0.376099
0.000000 0.890961 0.367981
0.003174 0.890839 0.375854
0.000641 0.892487 0.373566
0.001251 0.887665 0.373322
0.004303 0.888306 0.373199
0.026642 0.885010 0.366730
0.156342 0.885010 0.365997
0.243866 0.887421 0.367004
0.308014 0.883759 0.363831
0.366089 0.882599 0.367004
0.417328 0.884888 0.364838
0.464539 0.878571 0.364197
0.508057 0.880463 0.359894
0.548401 0.879822 0.353455
0.580292 0.873260 0.342834
0.620636 0.876526 0.327026
0.651245 0.872620 0.304626
0.687286 0.872620 0.283997
0.716888 0.872620 0.269836
0.749420 0.868683 0.240112
0.784576 0.871216 0.203552
0.813782 0.871368 0.163452
0.841125 0.865906 0.118927
0.873383 0.867432 0.026581
0.902222 0.871490 0.000641
0.943848 0.873749 0.011017
0.975830 0.892212 0.000000
0.000000 0.916138 0.431763
0.000000 0.915497 0.424805
0.000000 0.915375 0.424164
0.000000 0.915253 0.417206
0.009735 0.912720 0.416077
0.000000 0.916626 0.417084
0.000000 0.912720 0.413147
0.000000 0.913605 0.415070
0.002411 0.911316 0.418976
0.047150 0.917389 0.414917
0.167480 0.912201 0.423157
0.242981 0.913208 0.417450
0.306122 0.913116 0.412659
0.361542 0.906006 0.413666
0.408081 0.908295 0.414917
