assets/Presetpro - Kodachrome.cube
#Created by: Adobe Photoshop Export Color Lookup Plugin
#Copyright: (C) Copyright 2022 Tim Martin and Presetpro.com
TITLE "Presetpro - Kodachrome.jpg"
#LUT size
LUT_3D_SIZE 8
#data domain
#LUT data points
DOMAIN_MIN 0.000000 0.000000 0.000000
DOMAIN_MAX 0.903226 0.903226 0.903226
0.000000 0.000000 0.000000
0.050995 0.007843 0.000000
0.118774 0.022522 0.001007
0.236542 0.016571 0.000000
0.398376 0.001892 0.002014
0.549927 0.002533 0.000000
0.711945 0.003052 0.000885
0.875793 0.000000 0.003937
0.000000 0.087799 0.016693
0.035797 0.079956 0.012787
0.132568 0.083374 0.000519
0.273865 0.070587 0.005432
0.427856 0.017059 0.007721
0.576355 0.002014 0.002014
0.726013 0.003052 0.004425
0.884369 0.003540 0.003540
0.000000 0.191254 0.031372
0.002899 0.187836 0.029358
0.142303 0.183411 0.012787
0.316986 0.175079 0.000000
0.484650 0.148132 0.000000
0.619995 0.123718 0.000000
0.767120 0.107117 0.001892
0.905762 0.128906 0.000000
0.002411 0.336090 0.062744
0.006317 0.334595 0.053375
0.082458 0.332062 0.048584
0.302307 0.325226 0.002411
0.487579 0.320404 0.000000
0.653259 0.320404 0.004059
0.810608 0.335205 0.000000
0.933716 0.369507 0.000000
0.000000 0.531708 0.099945
0.000000 0.529694 0.083496
0.001892 0.526917 0.076538
0.238922 0.518555 0.035065
0.439362 0.512085 0.000000
0.628357 0.514618 0.000000
0.798492 0.535614 0.002014
0.939514 0.554871 0.001526
0.000000 0.706787 0.176239
0.000000 0.702850 0.160553
0.002533 0.699463 0.153076
0.115570 0.695923 0.141693
0.409119 0.683258 0.083771
0.593048 0.681854 0.000000
0.757751 0.688568 0.002533
0.908661 0.710205 0.002136
0.003052 0.836578 0.307526
0.000519 0.836060 0.291473
0.003052 0.832642 0.290588
0.130280 0.826324 0.286011
0.429993 0.824799 0.283997
0.594330 0.816071 0.208862
0.741577 0.811279 0.030365
0.885773 0.821014 0.003052
0.004303 0.936493 0.480469
0.001892 0.939148 0.464905
0.165222 0.937256 0.463623
0.376709 0.931061 0.465668
0.530182 0.929779 0.466431
0.655273 0.925751 0.451111
0.765594 0.924347 0.393555
0.872986 0.920441 0.290344
0.011780 0.003418 0.059845
0.051483 0.012268 0.048584
0.129517 0.024536 0.036804
0.254639 0.025940 0.030853
0.413177 0.002014 0.009735
0.575348 0.002014 0.002014
0.722473 0.000519 0.000519
0.877411 0.000885 0.000519
0.000000 0.087280 0.075531
0.049072 0.092224 0.075531
0.146240 0.091217 0.059845
0.282196 0.081329 0.035797
0.447845 0.024902 0.013672
0.583679 0.003937 0.000000
0.741577 0.000885 0.000885
0.892090 0.003418 0.000519
0.000000 0.189362 0.106384
0.001007 0.192261 0.089813
0.161926 0.185944 0.074615
0.338013 0.172668 0.049957
0.491608 0.151550 0.004059
0.628845 0.122192 0.002411
0.773956 0.112946 0.003418
0.911072 0.153809 0.003052
0.000000 0.347351 0.149139
0.005432 0.342926 0.127136
0.128632 0.342804 0.119293
0.329132 0.330139 0.077911
0.498810 0.332550 0.000000
0.666565 0.323303 0.001007
0.816589 0.335602 0.000000
0.938141 0.366699 0.002899
0.002014 0.540070 0.196564
0.003784 0.532349 0.158386
0.001892 0.529816 0.148254
0.262848 0.527283 0.135376
0.457184 0.518433 0.025543
0.636200 0.521454 0.002014
0.802429 0.538544 0.001007
0.938538 0.558411 0.003937
0.000000 0.706268 0.255676
0.000519 0.707428 0.229614
0.002411 0.702972 0.206940
0.156708 0.700317 0.200256
0.421906 0.688690 0.163086
0.598877 0.684631 0.016693
0.764954 0.691589 0.000000
0.912720 0.708801 0.002014
0.000000 0.836578 0.357758
0.000000 0.839111 0.333069
0.002258 0.835693 0.320801
0.170990 0.831268 0.314240
0.437836 0.827850 0.316010
0.601776 0.820496 0.253510
0.744598 0.813812 0.134491
0.888184 0.818359 0.002533
0.003296 0.936005 0.508789
0.007843 0.936890 0.500183
0.194824 0.938538 0.490204
0.382538 0.938019 0.488434
0.535614 0.927643 0.484619
0.662384 0.927399 0.474396
0.766724 0.921326 0.415558
0.879059 0.921326 0.326630
0.014679 0.007843 0.155975
0.068695 0.012787 0.145721
0.149139 0.026428 0.132446
0.289429 0.012146 0.123596
0.428864 0.002899 0.094238
0.577362 0.002899 0.077545
0.729797 0.002014 0.036163
0.888062 0.001007 0.000000
0.000519 0.080444 0.176086
0.056915 0.088287 0.171661
0.172272 0.094116 0.155579
0.309540 0.078430 0.139771
0.451752 0.037170 0.118256
0.595093 0.002533 0.095612
0.745483 0.003418 0.030457
0.899445 0.001007 0.005829
0.000000 0.187347 0.206055
0.016693 0.198090 0.200104
0.208069 0.196198 0.199097
0.360016 0.182404 0.185333
0.497437 0.163818 0.149139
0.636810 0.136993 0.112457
0.776855 0.120911 0.041229
0.918030 0.144592 0.002533
0.002411 0.347870 0.249573
0.000000 0.353699 0.256042
0.192261 0.360504 0.221466
0.363922 0.348755 0.208466
0.532715 0.341553 0.165344
0.685791 0.338104 0.135712
0.816559 0.339142 0.036926
0.937256 0.361267 0.000366
0.001892 0.540558 0.290466
0.000519 0.547760 0.287262
0.001892 0.545502 0.271729
0.302704 0.540070 0.251617
0.480713 0.530701 0.205048
0.662628 0.538025 0.126129
0.815063 0.544617 0.025909
0.951172 0.560181 0.002045
0.003784 0.710693 0.351685
0.004791 0.707916 0.351807
0.002899 0.710693 0.316742
0.222717 0.704010 0.302704
0.451752 0.696014 0.284119
0.616577 0.692474 0.212128
0.776733 0.696411 0.044373
0.921295 0.709167 0.000000
0.002014 0.836700 0.446442
0.003052 0.834534 0.436554
0.001007 0.835419 0.404297
0.229828 0.831757 0.389618
0.460510 0.826813 0.387604
0.618347 0.823273 0.349518
0.752441 0.815063 0.262238
0.892090 0.824036 0.067291
0.250366 0.932587 0.572662
0.264008 0.933075 0.565704
0.286530 0.931671 0.538910
0.405182 0.934601 0.529022
0.546783 0.930695 0.524109
0.670715 0.925598 0.521576
0.776978 0.924347 0.477173
0.879822 0.921814 0.392273
0.000000 0.015686 0.298676
0.061340 0.009857 0.295380
0.197205 0.005310 0.282074
0.334595 0.002411 0.268799
0.472382 0.001526 0.253265
0.612549 0.000000 0.218323
0.741302 0.003052 0.177094
0.886780 0.000000 0.146332
0.000000 0.082367 0.313446
0.065399 0.080841 0.316376
0.226562 0.075531 0.304596
0.355072 0.061737 0.281464
0.492859 0.018585 0.273590
0.616577 0.002411 0.233521
0.749420 0.000000 0.196564
0.899445 0.003052 0.152527
0.000519 0.172668 0.334595
0.005554 0.180389 0.330658
0.243378 0.182526 0.342804
0.388458 0.184937 0.312073
0.522827 0.177979 0.300537
0.636322 0.153442 0.253632
0.773834 0.148254 0.224884
0.913605 0.143829 0.165955
0.003937 0.337616 0.377716
0.007233 0.344940 0.382019
0.228088 0.354706 0.371765
0.420227 0.371399 0.368347
0.555725 0.361511 0.342285
0.680725 0.350281 0.304596
0.815186 0.349365 0.260071
0.932587 0.360138 0.184662
0.000519 0.548920 0.415436
0.001526 0.547913 0.411011
0.121674 0.558136 0.407196
0.365295 0.562714 0.397980
0.532440 0.551819 0.362915
0.694885 0.554718 0.327728
0.837067 0.558136 0.297791
0.946381 0.560822 0.220856
0.005432 0.708679 0.458191
0.002045 0.715149 0.459442
0.003021 0.713226 0.448822
0.307983 0.716003 0.435028
0.494629 0.709686 0.421875
0.647308 0.699310 0.377716
0.797974 0.702850 0.304077
0.932068 0.713226 0.265625
0.003937 0.836548 0.523468
0.003296 0.835541 0.521179
0.082489 0.839111 0.514465
0.316254 0.838959 0.498413
0.498932 0.831116 0.493988
0.641113 0.821381 0.465912
0.766602 0.817596 0.398865
0.901978 0.825317 0.292450
0.157898 0.938141 0.614044
0.246826 0.935089 0.614410
0.387115 0.932190 0.629608
0.441345 0.934967 0.596466
0.563324 0.928650 0.588226
0.682373 0.928284 0.588745
0.778870 0.922852 0.551300
0.885651 0.923340 0.481842
0.002014 0.000000 0.445557
0.081604 0.001526 0.444031
0.244141 0.003052 0.443390
0.392029 0.000000 0.430756
0.516022 0.003937 0.408112
0.655426 0.000000 0.403687
0.788635 0.002014 0.370911
0.916656 0.001526 0.322357
0.003784 0.071106 0.463531
0.108551 0.062225 0.461609
0.261627 0.040070 0.465912
0.412384 0.005798 0.444275
0.532227 0.000000 0.427704
0.661377 0.002014 0.412659
0.792053 0.000000 0.383179
0.917023 0.003418 0.329559
0.000000 0.171661 0.484650
0.126770 0.169617 0.482117
0.283478 0.167725 0.485535
0.436920 0.168243 0.469971
0.558136 0.174683 0.449341
0.681732 0.191376 0.441895
0.805206 0.151154 0.397095
0.926270 0.050842 0.331085
0.003418 0.317871 0.506653
0.006561 0.318756 0.508698
0.238312 0.325195 0.503754
0.443237 0.350769 0.508179
0.578766 0.383148 0.493866
0.696777 0.382294 0.466064
0.812164 0.347351 0.413055
0.919159 0.361176 0.371063
0.004059 0.533722 0.535614
0.003784 0.534241 0.529175
0.179474 0.546387 0.542450
0.390869 0.557251 0.541565
0.586487 0.582703 0.539673
0.710449 0.571045 0.510956
0.827698 0.557251 0.464020
0.942322 0.545868 0.401428
0.001007 0.713623 0.578766
0.002777 0.716125 0.579773
0.013000 0.718414 0.571930
0.352295 0.721954 0.570801
0.553467 0.725891 0.562317
0.685669 0.718048 0.532227
0.825806 0.713745 0.495911
0.943695 0.721069 0.474396
0.001892 0.833649 0.611145
0.002533 0.834930 0.619385
0.010101 0.840607 0.610138
0.365814 0.840607 0.611145
0.535614 0.837463 0.599396
0.669464 0.832123 0.591156
0.782684 0.825684 0.541565
0.911713 0.828339 0.470978
0.003021 0.937622 0.673370
0.006073 0.940552 0.673126
0.271698 0.937653 0.678955
0.464111 0.934967 0.675781
0.583954 0.934479 0.669708
0.690460 0.931702 0.659576
0.785461 0.923462 0.638214
0.888824 0.920959 0.584595
0.091095 0.000000 0.596985
0.178253 0.002533 0.604309
0.300323 0.000000 0.603302
0.446686 0.001404 0.593567
0.590149 0.002014 0.581787
0.698944 0.003937 0.561676
0.830383 0.000000 0.556366
0.939026 0.001007 0.542206
0.118408 0.023010 0.612152
0.193420 0.006195 0.612030
0.313324 0.001526 0.610626
0.458191 0.000000 0.608246
0.594574 0.000000 0.592560
0.718048 0.000000 0.574463
0.827209 0.001892 0.565613
0.947876 0.000000 0.549805
0.141052 0.153046 0.625580
0.203430 0.152435 0.620361
0.329285 0.146484 0.624939
0.468933 0.130920 0.622040
0.617462 0.153046 0.614166
0.726379 0.168854 0.588745
0.833405 0.214020 0.572174
0.944489 0.224548 0.558411
0.004303 0.293854 0.644043
0.126251 0.297760 0.640991
0.314117 0.317383 0.647430
0.469940 0.329651 0.650482
0.624786 0.363037 0.639709
0.739166 0.385193 0.621887
0.834656 0.423004 0.606720
0.939148 0.395813 0.565338
0.000519 0.507294 0.660492
0.002899 0.503876 0.661469
0.206940 0.509705 0.663635
0.389862 0.522339 0.654297
0.601288 0.555359 0.663635
0.732941 0.590027 0.656189
0.832123 0.589142 0.631256
0.932068 0.544098 0.568665
0.002533 0.695007 0.682098
0.002014 0.695007 0.682617
0.159241 0.698944 0.675018
0.382660 0.705750 0.686157
0.569519 0.719421 0.692474
0.737000 0.744843 0.693878
0.834167 0.724731 0.665161
0.932190 0.713623 0.612030
0.005951 0.834045 0.723358
0.000885 0.835052 0.716248
0.082123 0.839600 0.716522
0.362671 0.839478 0.717896
0.548401 0.842499 0.712097
0.709045 0.846954 0.711212
0.807739 0.832642 0.678955
0.924866 0.836060 0.648712
0.001007 0.940033 0.761169
0.003052 0.938019 0.764862
0.230469 0.935486 0.761292
0.402527 0.936493 0.756256
0.570404 0.935120 0.751312
0.710327 0.933716 0.752319
0.803436 0.930695 0.742706
0.890076 0.924744 0.697052
0.254395 0.000000 0.758514
0.296509 0.004303 0.750793
0.390656 0.002014 0.749420
0.521057 0.001526 0.749420
0.655304 0.002014 0.746765
0.781403 0.002533 0.732452
0.881866 0.003937 0.721954
0.959656 0.004059 0.691467
0.268311 0.003418 0.752197
0.314240 0.000000 0.752960
0.401398 0.003052 0.758392
0.523315 0.003418 0.754852
0.660370 0.000000 0.749542
0.787750 0.000000 0.742065
0.886658 0.001007 0.720703
0.963562 0.047424 0.703247
0.275024 0.119659 0.761292
0.317261 0.112335 0.765717
0.406189 0.101959 0.763947
0.533203 0.065247 0.766113
0.668091 0.082458 0.759399
0.788116 0.157104 0.748901
0.881866 0.188599 0.735748
0.963196 0.281464 0.709686
0.235687 0.295380 0.775970
0.292511 0.294739 0.763428
0.390900 0.300171 0.774597
0.518890 0.308014 0.770782
0.662140 0.330139 0.772552
0.789642 0.386963 0.762177
0.880341 0.410614 0.744598
0.951935 0.462738 0.727020
0.003052 0.476807 0.780640
0.067627 0.475922 0.782806
0.271851 0.481598 0.779877
0.460968 0.506287 0.781158
0.618866 0.524872 0.781799
0.766479 0.570404 0.774689
0.861115 0.595459 0.762054
0.936005 0.621277 0.746002
0.003418 0.673248 0.786987
0.003052 0.673370 0.785706
0.172150 0.674774 0.786987
0.374695 0.677429 0.791656
0.549927 0.683258 0.791168
0.737885 0.717529 0.788116
0.850861 0.739532 0.788116
0.922577 0.740051 0.760803
0.003937 0.813049 0.806061
0.005920 0.820892 0.809113
0.252502 0.816956 0.801147
0.416046 0.825439 0.807587
0.570648 0.826965 0.805328
0.719055 0.836060 0.815582
0.849213 0.860107 0.823029
0.926117 0.846191 0.792023
0.091125 0.943451 0.855286
0.178253 0.937775 0.849335
0.299194 0.939667 0.852142
0.432648 0.938019 0.850342
0.561066 0.936127 0.841492
0.697296 0.936127 0.836578
0.828735 0.929657 0.839233
0.907654 0.928284 0.807861
0.421265 0.000000 0.885132
0.452637 0.003540 0.892975
0.519165 0.000000 0.891602
0.620605 0.000000 0.889069
0.732849 0.003540 0.888306
0.857452 0.000366 0.879059
0.947388 0.003540 0.869080
0.992157 0.004303 0.853760
0.421631 0.003418 0.896027
0.453888 0.003052 0.895630
0.520172 0.003540 0.890442
0.621002 0.000000 0.889435
0.745239 0.000000 0.885284
0.858337 0.001007 0.886536
0.949646 0.000000 0.876923
1.000000 0.027832 0.861603
0.423035 0.054382 0.899445
0.452881 0.032745 0.892487
0.522461 0.012634 0.890442
0.621002 0.000000 0.890961
0.732208 0.009979 0.891479
0.851746 0.126740 0.885010
0.939545 0.238953 0.871338
0.998596 0.283356 0.864899
0.389648 0.282715 0.895630
0.423920 0.288391 0.898529
0.495392 0.285492 0.899567
0.601898 0.292572 0.899933
0.722595 0.303589 0.899567
0.832123 0.365082 0.889679
0.927643 0.434509 0.877808
0.996826 0.458191 0.869080
0.247803 0.473511 0.899323
0.311523 0.484894 0.898804
0.417938 0.489227 0.899414
0.539001 0.490082 0.900787
0.674255 0.503876 0.896912
0.804443 0.544098 0.897034
0.904877 0.598755 0.884644
0.977234 0.614807 0.868561
0.001404 0.664032 0.905121
0.060455 0.663147 0.903351
0.251465 0.659332 0.899811
0.430725 0.658203 0.900452
0.611023 0.671875 0.898682
0.761169 0.690460 0.899445
0.876404 0.728149 0.897430
0.952423 0.747375 0.880829
0.075165 0.816589 0.909546
0.163330 0.815582 0.910828
0.295898 0.814545 0.907654
0.423523 0.816437 0.908173
0.555237 0.808228 0.908783
0.693756 0.811646 0.907288
0.844910 0.831757 0.907013
0.936890 0.856049 0.902466
0.321716 0.917267 0.920044
0.353973 0.923584 0.927887
0.415680 0.923981 0.924622
0.501068 0.920807 0.921936
0.599762 0.924347 0.919556
0.713470 0.926117 0.925507
0.825043 0.928650 0.917389
0.940430 0.944336 0.924744
